content/luts/b&w/black_and_white_01.cube
#Created by: inPixio
#Copyright: (C) Copyright 2019 inPixio
TITLE "B&W 1"
#LUT size
LUT_3D_SIZE 32
#data domain
DOMAIN_MIN 0.0 0.0 0.0
DOMAIN_MAX 1.0 1.0 1.0
#LUT data points
0.142855 0.133700 0.164614
0.144122 0.134951 0.166064
0.145831 0.136477 0.167849
0.149142 0.139498 0.171588
0.154055 0.143908 0.176761
0.159518 0.149065 0.182803
0.165759 0.155093 0.189792
0.173587 0.162402 0.198337
0.183337 0.171527 0.208866
0.195254 0.182742 0.221561
0.209369 0.195911 0.236484
0.225666 0.211154 0.253407
0.245777 0.229923 0.273640
0.268528 0.251255 0.295872
0.292561 0.273732 0.318792
0.318105 0.297688 0.342367
0.345937 0.323751 0.366903
0.376989 0.352880 0.392920
0.414221 0.387915 0.422721
0.455100 0.426551 0.454475
0.496742 0.466224 0.485649
0.537255 0.505287 0.515526
0.578286 0.545205 0.545983
0.617975 0.584283 0.576135
0.659236 0.625269 0.608316
0.687312 0.653758 0.631663
0.717372 0.684520 0.657542
0.746838 0.715053 0.684093
0.774151 0.743755 0.709987
0.801511 0.772808 0.737392
0.822400 0.795331 0.759442
0.835294 0.809278 0.773297
0.145632 0.136248 0.167620
0.145968 0.136690 0.168154
0.147601 0.138232 0.169863
0.150210 0.140597 0.172625
0.154910 0.144884 0.177798
0.160449 0.150088 0.183932
0.166842 0.156130 0.190921
0.174395 0.163317 0.199268
0.184268 0.172274 0.209842
0.195956 0.183291 0.222309
0.210117 0.196674 0.237278
0.226963 0.212375 0.254688
0.246128 0.230396 0.274037
0.269169 0.251820 0.296452
0.292882 0.274067 0.319066
0.317952 0.297536 0.342214
0.346990 0.324697 0.367819
0.377218 0.353063 0.393103
0.414679 0.388327 0.423041
0.454337 0.425818 0.453864
0.495018 0.464637 0.484413
0.536919 0.504997 0.515312
0.578088 0.544976 0.545831
0.618036 0.584299 0.576165
0.658702 0.624720 0.607920
0.685756 0.652216 0.630320
0.716091 0.683223 0.656458
0.746868 0.715038 0.684093
0.774151 0.743740 0.710002
0.802747 0.774090 0.738689
0.821881 0.794736 0.758846
0.834531 0.808454 0.772473
0.149203 0.139574 0.171649
0.149554 0.140002 0.172107
0.150408 0.140749 0.172854
0.153140 0.143343 0.175952
0.157336 0.147128 0.180469
0.162219 0.151843 0.185931
0.168689 0.157839 0.192981
0.176349 0.164920 0.201221
0.185672 0.173648 0.211292
0.197803 0.185077 0.224277
0.212024 0.198383 0.239170
0.228489 0.213703 0.256077
0.248066 0.232120 0.275929
0.269978 0.252567 0.297322
0.293629 0.274693 0.319738
0.319295 0.298833 0.343374
0.348211 0.325872 0.368902
0.378210 0.353964 0.393896
0.414862 0.388510 0.423179
0.453605 0.425193 0.453330
0.493111 0.462821 0.483040
0.537530 0.505531 0.515724
0.578271 0.545190 0.545968
0.617289 0.583551 0.575647
0.657832 0.623880 0.607263
0.684001 0.650431 0.628824
0.717006 0.684169 0.657267
0.747738 0.715969 0.684932
0.773785 0.743343 0.709697
0.804532 0.776089 0.740581
0.821256 0.794049 0.758175
0.833707 0.807538 0.771542
0.157198 0.147265 0.180575
0.157778 0.147662 0.181064
0.158770 0.148592 0.182147
0.160510 0.150149 0.183993
0.163439 0.152941 0.187305
0.167681 0.156756 0.191699
0.172961 0.161776 0.197604
0.180621 0.168856 0.205814
0.189487 0.177279 0.215427
0.200977 0.188037 0.227634
0.215473 0.201511 0.242725
0.231998 0.217060 0.259724
0.251057 0.234897 0.278996
0.272648 0.255100 0.299977
0.296788 0.277653 0.322667
0.322713 0.301930 0.346380
0.349645 0.327245 0.370169
0.381369 0.356970 0.396506
0.416053 0.389654 0.424170
0.453437 0.425010 0.453147
0.497047 0.466560 0.485908
0.538415 0.506401 0.516365
0.577401 0.544320 0.545327
0.617655 0.583948 0.575982
0.656596 0.622736 0.606409
0.683162 0.649592 0.628168
0.718761 0.686015 0.658854
0.748928 0.717266 0.686107
0.774456 0.744091 0.710430
0.806485 0.778149 0.742550
0.822095 0.794965 0.758999
0.834745 0.808713 0.772747
0.169207 0.158465 0.193713
0.170321 0.159335 0.194827
0.171481 0.160449 0.196124
0.173358 0.162219 0.198047
0.176242 0.164920 0.201175
0.179477 0.168032 0.204761
0.183230 0.171481 0.208667
0.188190 0.176059 0.214023
0.196567 0.183993 0.223041
0.206775 0.193500 0.233753
0.220920 0.206775 0.248524
0.237522 0.222355 0.265385
0.256931 0.240360 0.284657
0.278554 0.260563 0.305638
0.301961 0.282567 0.327520
0.327779 0.306737 0.350835
0.355810 0.333059 0.375326
0.386236 0.361532 0.400534
0.421332 0.394629 0.428397
0.460258 0.431540 0.458198
0.502892 0.472252 0.490227
0.539727 0.507713 0.517342
0.590570 0.557382 0.555428
0.627329 0.593545 0.583383
0.655161 0.621286 0.605325
0.691066 0.657572 0.634775
0.721111 0.688472 0.660975
0.750698 0.719173 0.687861
0.779553 0.749477 0.715511
0.809003 0.780850 0.745098
0.823652 0.796658 0.760647
0.836362 0.810452 0.774563
0.186145 0.174228 0.211841
0.186877 0.174792 0.212604
0.188296 0.176120 0.214115
0.190723 0.178454 0.216648
0.193545 0.181216 0.219852
0.197513 0.184802 0.223987
0.201511 0.188556 0.228183
0.204532 0.191394 0.231327
0.209705 0.196277 0.236759
0.219059 0.205051 0.246525
0.230137 0.215244 0.257816
0.246723 0.230869 0.274510
0.265522 0.248554 0.293095
0.287968 0.269413 0.314595
0.312047 0.291997 0.336675
0.337057 0.315496 0.358999
0.363897 0.340627 0.382071
0.395956 0.370642 0.408469
0.432517 0.405188 0.437003
0.470954 0.441718 0.466331
0.510964 0.480003 0.496147
0.553887 0.521370 0.527779
0.602243 0.568856 0.564309
0.639048 0.605112 0.592386
0.663890 0.630121 0.612528
0.700801 0.667460 0.642954
0.729549 0.697108 0.668284
0.757336 0.726192 0.694347
0.785580 0.755871 0.721401
0.811444 0.783475 0.747616
0.824567 0.797635 0.761639
0.837888 0.812131 0.776242
0.207599 0.194217 0.234516
0.208301 0.195010 0.235340
0.209461 0.195956 0.236439
0.211795 0.198184 0.238926
0.215930 0.201999 0.243168
0.220249 0.206104 0.247746
0.226917 0.212253 0.254536
0.233295 0.218341 0.261173
0.236240 0.221088 0.263966
0.240436 0.225055 0.268177
0.250019 0.233875 0.277714
0.261723 0.244877 0.289311
0.280919 0.262806 0.307744
0.301930 0.282506 0.327550
0.324086 0.303243 0.347631
0.349752 0.327321 0.369909
0.378256 0.354009 0.393835
0.410819 0.384695 0.420325
0.446479 0.418479 0.447913
0.485466 0.455589 0.477119
0.525200 0.493675 0.506676
0.567117 0.534142 0.537530
0.608652 0.575082 0.568994
0.646372 0.612436 0.598215
0.673350 0.639658 0.620218
0.709789 0.676677 0.650736
0.736278 0.704082 0.674464
0.764065 0.733166 0.700557
0.790082 0.760617 0.725750
0.807965 0.779751 0.744106
0.826093 0.799268 0.763272
0.839796 0.814145 0.778332
0.234272 0.219150 0.261799
0.235126 0.219944 0.262699
0.236881 0.221653 0.264515
0.239414 0.223987 0.267063
0.243198 0.227512 0.270909
0.247746 0.231739 0.275456
0.253101 0.236881 0.280919
0.262226 0.245228 0.289860
0.271656 0.254154 0.299214
0.273899 0.256260 0.301106
0.278019 0.260197 0.304982
0.287099 0.268711 0.313573
0.296284 0.277241 0.322118
0.316198 0.295811 0.340444
0.337301 0.315679 0.359396
0.364126 0.340810 0.382254
0.394492 0.369329 0.406973
0.427283 0.400305 0.433082
0.461997 0.433158 0.459800
0.498955 0.468437 0.487282
0.533013 0.501152 0.512383
0.570245 0.537255 0.539925
0.607538 0.573907 0.568002
0.644663 0.610819 0.596979
0.680934 0.647410 0.626703
0.715206 0.682307 0.655604
0.743084 0.711101 0.680537
0.765652 0.734814 0.701885
0.786343 0.756634 0.722026
0.805692 0.777325 0.741802
0.827787 0.801068 0.765103
0.841856 0.816449 0.780713
0.263493 0.246525 0.290913
0.264515 0.247425 0.291875
0.266056 0.248859 0.293385
0.268574 0.251209 0.295842
0.273106 0.255528 0.300191
0.277653 0.259800 0.304616
0.282994 0.264775 0.309697
0.288991 0.270390 0.315328
0.299123 0.279927 0.324956
0.310521 0.290486 0.335531
0.315236 0.294987 0.339651
0.321798 0.301106 0.345190
0.330221 0.308980 0.352545
0.338521 0.316762 0.359793
0.359670 0.336568 0.378302
0.380942 0.356603 0.396445
0.411856 0.385702 0.420981
0.443183 0.415320 0.445197
0.475959 0.446418 0.470207
0.507454 0.476524 0.493523
0.539147 0.507103 0.516915
0.577005 0.543984 0.545129
0.617914 0.584161 0.575982
0.655238 0.621485 0.605585
0.690089 0.656672 0.634180
0.718257 0.685420 0.658213
0.742809 0.710811 0.680217
0.763073 0.732036 0.699352
0.785031 0.755291 0.720836
0.808850 0.780728 0.745220
0.832334 0.806027 0.770047
0.845701 0.820584 0.784970
0.299245 0.280018 0.324727
0.300221 0.280919 0.325567
0.301320 0.282002 0.326604
0.304219 0.284611 0.329290
0.308415 0.288655 0.333257
0.314672 0.294392 0.338766
0.321492 0.300740 0.344976
0.327138 0.306050 0.350027
0.333394 0.311986 0.355596
0.344884 0.322744 0.365835
0.357168 0.334310 0.376577
0.365454 0.342001 0.383322
0.375494 0.351461 0.391409
0.383001 0.358602 0.397375
0.391455 0.366522 0.404105
0.412131 0.385977 0.421103
0.432334 0.405051 0.437125
0.461433 0.432639 0.459251
0.493401 0.463142 0.483085
0.525383 0.493797 0.506767
0.560418 0.527794 0.532662
0.596719 0.563363 0.559960
0.632624 0.598764 0.587381
0.665782 0.632013 0.613825
0.693614 0.660288 0.637156
0.718608 0.685817 0.658579
0.743236 0.711254 0.680705
0.768628 0.737850 0.704646
0.793271 0.764004 0.729336
0.816907 0.789334 0.753613
0.836423 0.810452 0.774548
0.848112 0.823285 0.787686
0.341421 0.319509 0.362554
0.342260 0.320211 0.363226
0.343114 0.321157 0.364080
0.345495 0.323385 0.366079
0.349310 0.326909 0.369238
0.355123 0.332326 0.374319
0.362280 0.339010 0.380392
0.369909 0.346197 0.386694
0.375876 0.351812 0.391730
0.382467 0.358038 0.397223
0.393805 0.368643 0.406668
0.406729 0.380850 0.417166
0.421836 0.395148 0.428824
0.438453 0.410910 0.441428
0.450691 0.422614 0.450584
0.459571 0.431067 0.457282
0.478157 0.448676 0.471641
0.488991 0.458885 0.479789
0.517968 0.486595 0.501244
0.548852 0.516548 0.524102
0.582818 0.549630 0.549355
0.612192 0.578637 0.571878
0.644297 0.610498 0.596735
0.672007 0.638193 0.618814
0.702953 0.669718 0.644999
0.730114 0.697841 0.669291
0.756252 0.724956 0.693034
0.779889 0.749691 0.715450
0.802075 0.773388 0.738033
0.820874 0.793622 0.757809
0.837705 0.811872 0.776013
0.850202 0.825589 0.790066
0.385458 0.360769 0.399542
0.386877 0.362127 0.400687
0.388647 0.363729 0.402091
0.391226 0.366201 0.404196
0.394812 0.369619 0.407187
0.400473 0.374991 0.411597
0.407523 0.381689 0.417289
0.415854 0.389502 0.423941
0.425193 0.398322 0.431128
0.432395 0.405127 0.436820
0.441230 0.413504 0.443702
0.458763 0.430198 0.457145
0.486076 0.456169 0.477714
0.504631 0.473915 0.491493
0.518685 0.487434 0.501762
0.525536 0.494133 0.506859
0.531472 0.499962 0.511299
0.541573 0.509529 0.518731
0.553964 0.521553 0.527916
0.580667 0.547463 0.547677
0.605219 0.571634 0.566247
0.632410 0.598581 0.587274
0.661814 0.628153 0.611032
0.691753 0.658305 0.635432
0.722164 0.689433 0.661601
0.744579 0.712734 0.682094
0.765896 0.735088 0.702266
0.786877 0.757168 0.722469
0.807721 0.779492 0.743847
0.825513 0.798627 0.762692
0.840665 0.815137 0.779446
0.853834 0.829587 0.794232
0.439429 0.411765 0.442329
0.439902 0.412223 0.442664
0.440787 0.413062 0.443336
0.442878 0.415045 0.444923
0.447074 0.419043 0.448142
0.452339 0.423972 0.452186
0.459754 0.431098 0.457740
0.468238 0.439185 0.464118
0.477348 0.447883 0.471016
0.488899 0.458915 0.479576
0.497765 0.467414 0.486259
0.510811 0.479912 0.495918
0.528893 0.497215 0.509377
0.546243 0.514000 0.522133
0.561761 0.529030 0.533623
0.575860 0.542779 0.544121
0.579706 0.546578 0.547021
0.584909 0.551629 0.550866
0.592859 0.559396 0.556817
0.605463 0.571786 0.566354
0.626108 0.592248 0.582239
0.651591 0.617716 0.602304
0.678096 0.644480 0.624033
0.703594 0.670420 0.645563
0.728512 0.696010 0.667277
0.750286 0.718639 0.687236
0.771237 0.740597 0.707134
0.790631 0.761151 0.726284
0.809216 0.781033 0.745281
0.828031 0.801358 0.765408
0.843565 0.818326 0.782651
0.855940 0.831907 0.796689
0.493401 0.463020 0.483116
0.493950 0.463584 0.483528
0.494499 0.464180 0.483955
0.495445 0.465049 0.484642
0.498024 0.467506 0.486534
0.502907 0.472267 0.490181
0.509743 0.478828 0.495232
0.517723 0.486488 0.501091
0.526726 0.495186 0.507775
0.536965 0.504982 0.515297
0.545419 0.513176 0.521492
0.556558 0.523919 0.529748
0.565805 0.532952 0.536614
0.579706 0.546502 0.546960
0.596399 0.562905 0.559518
0.607675 0.574014 0.568124
0.614817 0.581170 0.573755
0.625162 0.591516 0.581933
0.634195 0.600488 0.589029
0.645472 0.611750 0.597833
0.656977 0.623209 0.606943
0.674754 0.641047 0.621134
0.690654 0.657145 0.634348
0.708553 0.675441 0.649714
0.728557 0.696086 0.667369
0.748028 0.716289 0.685100
0.770291 0.739635 0.706188
0.790662 0.761242 0.726436
0.811994 0.784009 0.748272
0.831876 0.805478 0.769589
0.846632 0.821698 0.786145
0.856413 0.832395 0.797208
0.542168 0.510063 0.519188
0.543481 0.511330 0.520180
0.544946 0.512749 0.521248
0.547067 0.514809 0.522820
0.549905 0.517617 0.524926
0.553246 0.520867 0.527413
0.558679 0.526192 0.531518
0.566522 0.533822 0.537331
0.575692 0.542748 0.544167
0.585428 0.552331 0.551614
0.594232 0.560891 0.558190
0.603632 0.570153 0.565362
0.613397 0.579843 0.572808
0.623041 0.589334 0.580209
0.636194 0.602335 0.590219
0.651865 0.618021 0.602731
0.665385 0.631556 0.613474
0.672114 0.638407 0.619028
0.677150 0.643473 0.623194
0.680934 0.647379 0.626413
0.687450 0.654002 0.631952
0.693187 0.659785 0.636744
0.702861 0.669657 0.644907
0.713390 0.680369 0.653941
0.734035 0.701808 0.672572
0.757244 0.726040 0.694041
0.781033 0.751003 0.716823
0.801877 0.773220 0.737942
0.821881 0.794690 0.758785
0.837522 0.811673 0.775753
0.850294 0.825681 0.790204
0.858427 0.834638 0.799573
0.601755 0.568200 0.563607
0.601953 0.568383 0.563775
0.602136 0.568582 0.563912
0.603281 0.569696 0.564767
0.606104 0.572519 0.566964
0.609628 0.575998 0.569665
0.613855 0.580209 0.572915
0.618998 0.585321 0.576883
0.626215 0.592447 0.582544
0.634607 0.600732 0.589059
0.642557 0.608743 0.595468
0.649912 0.616098 0.601236
0.655360 0.621576 0.605615
0.662043 0.628290 0.610971
0.666606 0.632868 0.614572
0.674754 0.641062 0.621195
0.685039 0.651438 0.629618
0.695293 0.661906 0.638300
0.702083 0.668895 0.644297
0.710628 0.677729 0.651942
0.717891 0.685191 0.658396
0.725918 0.693462 0.665599
0.735805 0.703700 0.674479
0.749172 0.717495 0.686366
0.763836 0.732784 0.699916
0.777829 0.747570 0.713558
0.794766 0.765560 0.730373
0.810575 0.782483 0.746761
0.826123 0.799283 0.763348
0.840452 0.814893 0.779095
0.853468 0.829175 0.793820
0.861616 0.838148 0.803296
0.645243 0.611307 0.597208
0.645594 0.611673 0.597498
0.646067 0.612146 0.597864
0.646815 0.612863 0.598474
0.647822 0.613870 0.599313
0.651377 0.617487 0.602274
0.655833 0.622004 0.605905
0.661158 0.627359 0.610224
0.667155 0.633417 0.615122
0.673365 0.639719 0.620340
0.681331 0.647761 0.626932
0.688136 0.654719 0.632700
0.693233 0.659937 0.637064
0.698528 0.665339 0.641535
0.703014 0.669871 0.645304
0.707698 0.674647 0.649302
0.713954 0.681025 0.654566
0.724895 0.692287 0.664118
0.735760 0.703502 0.673732
0.744320 0.712383 0.681621
0.752819 0.721279 0.689662
0.759197 0.727932 0.695689
0.766140 0.735271 0.702373
0.774380 0.743954 0.710277
0.783169 0.753231 0.718837
0.792416 0.763043 0.728023
0.804120 0.775601 0.740108
0.819089 0.791653 0.755718
0.832029 0.805692 0.769818
0.845686 0.820646 0.785092
0.858030 0.834211 0.799115
0.866819 0.843946 0.809445
0.686183 0.652537 0.630533
0.687877 0.654276 0.631968
0.689784 0.656245 0.633585
0.692546 0.658991 0.635905
0.695979 0.662577 0.638880
0.700282 0.666957 0.642603
0.705318 0.672084 0.646891
0.708400 0.675273 0.649592
0.711635 0.678630 0.652461
0.715267 0.682384 0.655680
0.719554 0.686809 0.659526
0.723796 0.691173 0.663279
0.728420 0.695949 0.667414
0.731655 0.699336 0.670329
0.734814 0.702571 0.673152
0.737881 0.705760 0.675944
0.741405 0.709377 0.679088
0.746029 0.714138 0.683223
0.756558 0.725155 0.693019
0.766445 0.735515 0.702373
0.774685 0.744259 0.710430
0.783032 0.753109 0.718776
0.788922 0.759381 0.724682
0.796140 0.767086 0.732067
0.804135 0.775616 0.740169
0.812604 0.784711 0.748959
0.821698 0.794522 0.758557
0.830640 0.804135 0.768154
0.840772 0.815213 0.779385
0.850568 0.826017 0.790600
0.861555 0.838102 0.803266
0.870527 0.848066 0.813840
0.720729 0.687953 0.660334
0.721233 0.688472 0.660777
0.721859 0.689113 0.661311
0.723171 0.690440 0.662455
0.724804 0.692165 0.663890
0.726589 0.693935 0.665431
0.728756 0.696223 0.667430
0.731411 0.698970 0.669810
0.734005 0.701656 0.672175
0.737621 0.705440 0.675471
0.741497 0.709453 0.679042
0.745983 0.714138 0.683238
0.749966 0.718273 0.686885
0.753597 0.722103 0.690288
0.757031 0.725689 0.693492
0.759762 0.728527 0.696101
0.763394 0.732357 0.699535
0.766766 0.735882 0.702739
0.771542 0.740887 0.707317
0.780865 0.750744 0.716426
0.790311 0.760784 0.725826
0.799893 0.771054 0.735637
0.809171 0.781018 0.745281
0.814725 0.786954 0.751095
0.820432 0.793103 0.757244
0.826871 0.800137 0.764172
0.833600 0.807431 0.771496
0.841291 0.815824 0.779980
0.848722 0.823911 0.788342
0.856947 0.832975 0.797833
0.864729 0.841672 0.807034
0.872114 0.849882 0.815808
0.745525 0.713619 0.682673
0.745922 0.714031 0.683024
0.746365 0.714504 0.683452
0.747051 0.715206 0.684062
0.747921 0.716152 0.684901
0.749340 0.717617 0.686229
0.750607 0.718959 0.687373
0.751415 0.719783 0.688151
0.752529 0.720974 0.689250
0.754711 0.723217 0.691310
0.759197 0.727962 0.695644
0.764447 0.733455 0.700618
0.769360 0.738628 0.705394
0.773648 0.743191 0.709606
0.778119 0.747890 0.713924
0.781323 0.751263 0.717098
0.785168 0.755383 0.720882
0.788113 0.758526 0.723873
0.792157 0.762783 0.727871
0.795178 0.766049 0.730938
0.802884 0.774258 0.738735
0.809888 0.781720 0.745968
0.818860 0.791425 0.755444
0.827619 0.800961 0.764950
0.833768 0.807569 0.771664
0.839139 0.813504 0.777722
0.845487 0.820417 0.784772
0.851179 0.826642 0.791272
0.857740 0.833860 0.798764
0.864042 0.840833 0.806104
0.871061 0.848707 0.814572
0.875532 0.853666 0.819944
0.772686 0.742153 0.708598
0.773068 0.742596 0.708980
0.773526 0.743053 0.709407
0.774212 0.743755 0.710063
0.775555 0.745159 0.711376
0.777264 0.747005 0.713039
0.779385 0.749188 0.715084
0.781659 0.751629 0.717311
0.784070 0.754192 0.719661
0.787060 0.757336 0.722576
0.789990 0.760403 0.725490
0.793286 0.763928 0.728847
0.796704 0.767636 0.732403
0.800122 0.771283 0.735912
0.802365 0.773678 0.738247
0.804501 0.775998 0.740505
0.805921 0.777524 0.741970
0.807950 0.779675 0.744106
0.809918 0.781796 0.746166
0.812390 0.784451 0.748730
0.815595 0.787915 0.752056
0.822004 0.794842 0.758862
0.829374 0.802762 0.766751
0.837888 0.812085 0.776211
0.846418 0.821454 0.785779
0.851743 0.827268 0.791898
0.856642 0.832746 0.797650
0.861997 0.838575 0.803784
0.867491 0.844709 0.810330
0.873411 0.851286 0.817365
0.878859 0.857404 0.823941
0.881697 0.860563 0.827436
0.798123 0.769192 0.733974
0.798337 0.769375 0.734142
0.798489 0.769604 0.734325
0.799100 0.770245 0.734936
0.800305 0.771527 0.736126
0.801282 0.772534 0.737102
0.802075 0.773388 0.737896
0.803021 0.774395 0.738888
0.804379 0.775830 0.740261
0.806653 0.778317 0.742611
0.810147 0.782010 0.746243
0.813870 0.786053 0.750179
0.816419 0.788815 0.752911
0.818280 0.790814 0.754925
0.820462 0.793195 0.757305
0.822232 0.795102 0.759243
0.823468 0.796429 0.760586
0.825528 0.798672 0.762890
0.827695 0.801022 0.765225
0.830442 0.804013 0.768231
0.833860 0.807767 0.771908
0.837079 0.811200 0.775387
0.842939 0.817563 0.781781
0.848585 0.823819 0.788235
0.855314 0.831205 0.795972
0.861845 0.838438 0.803555
0.866621 0.843717 0.809232
0.870710 0.848264 0.814115
0.875105 0.853208 0.819425
0.879179 0.857786 0.824399
0.883360 0.862470 0.829526
0.887114 0.866713 0.834180
0.820859 0.793652 0.757809
0.821042 0.793835 0.757977
0.821286 0.794080 0.758236
0.821576 0.794400 0.758557
0.822004 0.794858 0.758969
0.822477 0.795407 0.759518
0.823270 0.796216 0.760311
0.824430 0.797482 0.761563
0.825834 0.799023 0.763073
0.827482 0.800748 0.764813
0.829541 0.802945 0.766980
0.832013 0.805615 0.769650
0.834287 0.808103 0.772107
0.836591 0.810666 0.774701
0.838651 0.812879 0.776974
0.840665 0.815091 0.779232
0.842466 0.817105 0.781323
0.844022 0.818814 0.783078
0.845686 0.820630 0.785000
0.847547 0.822721 0.787137
0.849455 0.824765 0.789288
0.851576 0.827070 0.791684
0.853620 0.829358 0.794018
0.857450 0.833570 0.798444
0.861799 0.838361 0.803494
0.866804 0.843946 0.809476
0.872526 0.850324 0.816281
0.876722 0.855024 0.821378
0.880369 0.859068 0.825834
0.884093 0.863264 0.830411
0.887800 0.867430 0.835035
0.890776 0.870771 0.838743
0.838407 0.812665 0.776822
0.838514 0.812818 0.776959
0.838682 0.812985 0.777142
0.838956 0.813275 0.777447
0.839368 0.813703 0.777874
0.839857 0.814252 0.778424
0.840452 0.814893 0.779095
0.841138 0.815641 0.779843
0.842176 0.816770 0.781003
0.843549 0.818265 0.782528
0.845121 0.819959 0.784268
0.846510 0.821485 0.785840
0.848035 0.823209 0.787594
0.849439 0.824720 0.789166
0.851041 0.826459 0.790982
0.852674 0.828290 0.792889
0.854246 0.830106 0.794781
0.855604 0.831571 0.796323
0.857099 0.833173 0.798032
0.858579 0.834867 0.799817
0.860319 0.836774 0.801831
0.862089 0.838727 0.803922
0.863951 0.840757 0.806088
0.865629 0.842680 0.808087
0.868635 0.845976 0.811612
0.872129 0.849897 0.815839
0.876387 0.854643 0.821012
0.881270 0.860105 0.826902
0.885252 0.864591 0.831891
0.888594 0.868330 0.836011
0.891890 0.872084 0.840208
0.894209 0.874678 0.843137
0.852796 0.828458 0.793103
0.852827 0.828519 0.793164
0.852918 0.828580 0.793240
0.853132 0.828870 0.793545
0.853483 0.829267 0.793942
0.853971 0.829725 0.794415
0.854444 0.830289 0.794980
0.854978 0.830869 0.795621
0.855619 0.831586 0.796338
0.856428 0.832410 0.797238
0.857694 0.833814 0.798703
0.858885 0.835126 0.800092
0.860182 0.836561 0.801617
0.861540 0.838071 0.803189
0.862959 0.839643 0.804837
0.864424 0.841306 0.806577
0.865477 0.842496 0.807874
0.866331 0.843458 0.808896
0.867338 0.844587 0.810117
0.868528 0.845838 0.811460
0.869780 0.847273 0.813016
0.871153 0.848783 0.814633
0.872618 0.850431 0.816419
0.873991 0.851972 0.818067
0.875532 0.853666 0.819928
0.877791 0.856199 0.822675
0.880934 0.859739 0.826536
0.884642 0.863920 0.831144
0.888930 0.868742 0.836484
0.892454 0.872725 0.840925
0.895384 0.875990 0.844587
0.897612 0.878508 0.847456
0.864179 0.841016 0.806333
0.864210 0.841047 0.806363
0.864225 0.841108 0.806424
0.864317 0.841169 0.806516
0.864454 0.841337 0.806668
0.864622 0.841505 0.806851
0.864897 0.841840 0.807202
0.865309 0.842298 0.807691
0.865843 0.842893 0.808316
0.866575 0.843656 0.809171
0.867323 0.844526 0.810071
0.868284 0.845579 0.811200
0.869230 0.846647 0.812329
0.870192 0.847684 0.813474
0.871229 0.848844 0.814725
0.872282 0.850050 0.815992
0.873289 0.851164 0.817166
0.874388 0.852400 0.818509
0.875563 0.853742 0.819974
0.876646 0.854948 0.821317
0.878096 0.856565 0.823072
0.879377 0.857954 0.824613
0.880736 0.859525 0.826291
0.882033 0.860929 0.827878
0.883345 0.862425 0.829511
0.884489 0.863691 0.830915
0.886214 0.865690 0.833082
0.888731 0.868528 0.836240
0.891661 0.871794 0.839887
0.895323 0.875959 0.844556
0.898497 0.879515 0.848600
0.900877 0.882231 0.851698
0.872297 0.850080 0.816053
0.872358 0.850111 0.816098
0.872419 0.850172 0.816175
0.872480 0.850263 0.816266
0.872602 0.850416 0.816434
0.872953 0.850767 0.816815
0.873320 0.851209 0.817258
0.873793 0.851743 0.817838
0.874373 0.852369 0.818509
0.875013 0.853071 0.819257
0.875929 0.854124 0.820401
0.877134 0.855482 0.821897
0.878401 0.856886 0.823438
0.879393 0.858015 0.824643
0.880705 0.859464 0.826230
0.882063 0.860990 0.827924
0.883207 0.862272 0.829313
0.884504 0.863676 0.830854
0.885588 0.864927 0.832242
0.886214 0.865660 0.833036
0.886915 0.866423 0.833921
0.887663 0.867277 0.834836
0.888441 0.868177 0.835843
0.889281 0.869139 0.836881
0.890166 0.870100 0.837995
0.891035 0.871092 0.839109
0.891920 0.872114 0.840253
0.893263 0.873610 0.841932
0.895613 0.876265 0.844923
0.898177 0.879210 0.848219
0.901106 0.882521 0.851988
0.903197 0.884901 0.854688
0.880827 0.859602 0.826444
0.880842 0.859648 0.826490
0.880980 0.859785 0.826642
0.881163 0.860014 0.826856
0.881437 0.860288 0.827176
0.881758 0.860655 0.827588
0.882170 0.861112 0.828077
0.882628 0.861647 0.828641
0.883085 0.862150 0.829221
0.883604 0.862745 0.829862
0.884474 0.863752 0.830976
0.885649 0.865034 0.832410
0.886320 0.865766 0.833204
0.886854 0.866407 0.833921
0.887877 0.867521 0.835142
0.888686 0.868406 0.836133
0.889555 0.869429 0.837217
0.890440 0.870405 0.838346
