content/luts/b&w/black_and_white_04.cube
#Created by: inPixio
#Copyright: (C) Copyright 2019 inPixio
TITLE "B&W 4"
#LUT size
LUT_3D_SIZE 5
#data domain
#LUT data points
DOMAIN_MIN 0.000000 0.000000 0.000000
DOMAIN_MAX 0.903226 0.903226 0.903226
0.022278 0.022278 0.022278
0.060197 0.060197 0.060197
0.102831 0.102831 0.102831
0.151186 0.151186 0.151186
0.237324 0.237369 0.237369
0.102449 0.102449 0.102449
0.146777 0.146777 0.146777
0.195071 0.195071 0.195010
0.253513 0.253559 0.253559
0.338415 0.338369 0.338384
0.193957 0.193957 0.193912
0.241795 0.241825 0.241825
0.297994 0.298055 0.298024
0.386252 0.386236 0.386206
0.493263 0.493278 0.493278
0.310018 0.309987 0.309987
0.351507 0.351537 0.351553
0.458763 0.458763 0.458763
0.540703 0.540703 0.540719
0.635004 0.635050 0.635035
0.457343 0.457343 0.457313
0.490349 0.490318 0.490349
0.625162 0.625177 0.625177
0.706951 0.706966 0.706951
0.778439 0.778409 0.778424
0.055375 0.055375 0.055375
0.123491 0.123491 0.123491
0.168734 0.168734 0.168734
0.197070 0.197070 0.197025
0.277714 0.277684 0.277684
0.127565 0.127565 0.127565
0.194171 0.194171 0.194110
0.230823 0.230869 0.230823
0.302449 0.302510 0.302480
0.409644 0.409644 0.409659
0.223545 0.223590 0.223545
0.263935 0.263966 0.263996
0.351873 0.351827 0.351858
0.430854 0.430808 0.430808
0.517494 0.517479 0.517479
0.325963 0.325902 0.325933
0.355886 0.355840 0.355856
0.482689 0.482704 0.482704
0.558358 0.558312 0.558358
0.661158 0.661143 0.661128
0.471183 0.471183 0.471168
0.506035 0.506020 0.506020
0.598261 0.598261 0.598261
0.712413 0.712398 0.712398
0.784817 0.784817 0.784817
0.096391 0.096391 0.096391
0.199222 0.199268 0.199313
0.287251 0.287327 0.287297
0.314122 0.314122 0.314153
0.353384 0.353338 0.353368
0.199069 0.199115 0.199176
0.265644 0.265675 0.265675
0.338415 0.338445 0.338415
0.403327 0.403372 0.403372
0.476631 0.476600 0.476600
0.273106 0.273182 0.273152
0.336156 0.336111 0.336126
0.421286 0.421286 0.421286
0.484505 0.484520 0.484505
0.574991 0.575006 0.575006
0.384024 0.384054 0.384024
0.421241 0.421210 0.421210
0.527642 0.527672 0.527657
0.615106 0.615106 0.615091
0.696529 0.696513 0.696529
0.538827 0.538827 0.538827
0.562753 0.562799 0.562768
0.628367 0.628351 0.628382
0.742306 0.742336 0.742321
0.804471 0.804486 0.804486
0.146441 0.146441 0.146441
0.223514 0.223545 0.223545
0.404883 0.404868 0.404852
0.457771 0.457801 0.457801
0.443854 0.443854 0.443870
0.290837 0.290913 0.290868
0.353018 0.352956 0.352987
0.450050 0.450050 0.450034
0.541161 0.541161 0.541146
0.567880 0.567865 0.567880
0.357595 0.357610 0.357610
0.440971 0.440971 0.440971
0.523385 0.523385 0.523400
0.587839 0.587839 0.587854
0.642237 0.642237 0.642237
0.434653 0.434653 0.434653
0.502297 0.502312 0.502312
0.601755 0.601755 0.601755
0.669093 0.669078 0.669062
0.728145 0.728145 0.728145
0.580682 0.580697 0.580682
0.615885 0.615869 0.615900
0.684688 0.684688 0.684688
0.778866 0.778851 0.778851
0.851743 0.851743 0.851743
0.211337 0.211337 0.211292
0.270802 0.270848 0.270878
0.441657 0.441657 0.441642
0.524437 0.524468 0.524453
0.566659 0.566598 0.566613
0.392859 0.392828 0.392813
0.448753 0.448722 0.448737
0.507698 0.507683 0.507652
0.638239 0.638254 0.638254
0.695506 0.695522 0.695537
0.478477 0.478462 0.478462
0.569558 0.569574 0.569543
0.621592 0.621592 0.621592
0.662226 0.662211 0.662211
0.744961 0.744946 0.744961
0.547356 0.547356 0.547372
0.613626 0.613611 0.613596
0.693416 0.693385 0.693385
0.744534 0.744534 0.744549
0.793286 0.793256 0.793256
0.628931 0.628931 0.628916
0.669398 0.669398 0.669398
0.759823 0.759808 0.759808
0.829007 0.829038 0.829023
0.889509 0.889525 0.889525
