content/luts/b&w/black_and_white_05.cube
#Created by: inPixio
#Copyright: (C) Copyright 2019 inPixio
TITLE "B&W 5"
#LUT size
LUT_3D_SIZE 8
#data domain
#LUT data points
DOMAIN_MIN 0.000000 0.000000 0.000000
DOMAIN_MAX 0.903226 0.903226 0.903226
0.022278 0.022278 0.022278
0.038315 0.038315 0.038315
0.048829 0.048829 0.048829
0.077470 0.077470 0.077470
0.091890 0.091890 0.091890
0.132113 0.132113 0.132113
0.150744 0.150744 0.150744
0.220386 0.220432 0.220386
0.074662 0.074662 0.074662
0.087861 0.087861 0.087861
0.098238 0.098238 0.098238
0.116136 0.116136 0.116136
0.140307 0.140307 0.140307
0.170321 0.170321 0.170321
0.213428 0.213474 0.213428
0.263706 0.263752 0.263752
0.090257 0.090257 0.090257
0.110720 0.110720 0.110720
0.131212 0.131212 0.131212
0.158709 0.158709 0.158709
0.193454 0.193454 0.193393
0.235096 0.235126 0.235126
0.282673 0.282734 0.282704
0.339971 0.339864 0.339910
0.138018 0.138018 0.138018
0.153338 0.153338 0.153338
0.183993 0.183993 0.183993
0.213657 0.213703 0.213657
0.252918 0.252949 0.252918
0.302449 0.302510 0.302480
0.363729 0.363638 0.363684
0.431540 0.431540 0.431540
0.192065 0.192065 0.192065
0.204059 0.204059 0.204013
0.250507 0.250553 0.250553
0.286549 0.286610 0.286580
0.325811 0.325795 0.325795
0.377920 0.377905 0.377920
0.441444 0.441489 0.441489
0.516869 0.516854 0.516854
0.245930 0.245975 0.245975
0.261219 0.261250 0.261250
0.308599 0.308568 0.308568
0.374075 0.374044 0.374029
0.414740 0.414740 0.414740
0.466346 0.466331 0.466346
0.522408 0.522393 0.522393
0.592340 0.592340 0.592340
0.323186 0.323186 0.323217
0.333608 0.333639 0.333608
0.376684 0.376669 0.376638
0.456107 0.456153 0.456153
0.511208 0.511223 0.511223
0.559457 0.559426 0.559426
0.616999 0.616999 0.616983
0.676890 0.676921 0.676890
0.414618 0.414618 0.414618
0.425620 0.425620 0.425620
0.458976 0.458991 0.459022
0.525704 0.525704 0.525719
0.610208 0.610193 0.610193
0.658625 0.658625 0.658625
0.711955 0.711940 0.711955
0.772808 0.772808 0.772793
0.026001 0.026001 0.026001
0.047272 0.047272 0.047272
0.070161 0.070161 0.070161
0.096681 0.096681 0.096681
0.106432 0.106432 0.106432
0.150546 0.150546 0.150546
0.171130 0.171130 0.171130
0.243168 0.243198 0.243198
0.077836 0.077836 0.077836
0.092699 0.092699 0.092699
0.109361 0.109361 0.109361
0.129427 0.129427 0.129427
0.157076 0.157076 0.157076
0.192477 0.192477 0.192416
0.238270 0.238315 0.238315
0.295552 0.295552 0.295583
0.099702 0.099702 0.099702
0.125765 0.125765 0.125765
0.152743 0.152743 0.152743
0.176638 0.176638 0.176638
0.210208 0.210208 0.210163
0.248020 0.248066 0.248066
0.298238 0.298207 0.298207
0.374106 0.374044 0.374106
0.140520 0.140520 0.140520
0.156817 0.156817 0.156817
0.195117 0.195117 0.195071
0.230655 0.230701 0.230701
0.273564 0.273640 0.273640
0.320440 0.320424 0.320424
0.370626 0.370565 0.370626
0.433814 0.433768 0.433784
0.194415 0.194415 0.194369
0.203281 0.203281 0.203235
0.252094 0.252125 0.252125
0.299825 0.299794 0.299794
0.341360 0.341314 0.341329
0.395651 0.395651 0.395651
0.454231 0.454231 0.454231
0.520668 0.520653 0.520653
0.251133 0.251179 0.251179
0.264073 0.264103 0.264073
0.304372 0.304341 0.304341
0.377722 0.377691 0.377722
0.426246 0.426200 0.426200
0.475486 0.475471 0.475471
0.534646 0.534630 0.534630
0.601740 0.601740 0.601740
0.326711 0.326696 0.326696
0.338598 0.338628 0.338628
0.370123 0.370077 0.370123
0.443595 0.443565 0.443565
0.519692 0.519677 0.519677
0.566262 0.566278 0.566262
0.618601 0.618586 0.618601
0.681315 0.681346 0.681331
0.420859 0.420859 0.420859
0.431739 0.431785 0.431785
0.460685 0.460670 0.460685
0.517968 0.517952 0.517952
0.609812 0.609796 0.609812
0.665232 0.665248 0.665248
0.714199 0.714199 0.714199
0.770657 0.770672 0.770657
0.037324 0.037324 0.037324
0.068574 0.068574 0.068574
0.106523 0.106523 0.106523
0.128039 0.128039 0.128039
0.155291 0.155291 0.155291
0.185412 0.185412 0.185412
0.205951 0.205951 0.205905
0.268986 0.268956 0.268986
0.089494 0.089494 0.089494
0.108995 0.108995 0.108995
0.131823 0.131823 0.131823
0.161151 0.161151 0.161151
0.196429 0.196429 0.196368
0.228824 0.228855 0.228855
0.270100 0.270146 0.270100
0.328450 0.328450 0.328420
0.114382 0.114382 0.114382
0.140749 0.140749 0.140749
0.177173 0.177173 0.177173
0.199023 0.199023 0.198978
0.232120 0.232166 0.232166
0.276539 0.276600 0.276600
0.331975 0.331975 0.331945
0.407187 0.407187 0.407187
0.154055 0.154055 0.154055
0.172671 0.172671 0.172671
0.229145 0.229191 0.229191
0.272206 0.272267 0.272236
0.304860 0.304921 0.304891
0.349355 0.349310 0.349340
0.395209 0.395209 0.395209
0.456550 0.456550 0.456550
0.208667 0.208667 0.208621
0.221515 0.221561 0.221515
0.259480 0.259510 0.259510
0.327581 0.327581 0.327550
0.375036 0.375021 0.375036
0.421332 0.421332 0.421332
0.476478 0.476494 0.476539
0.533608 0.533593 0.533593
0.274968 0.275029 0.274998
0.282841 0.282902 0.282872
0.312963 0.312963 0.312993
0.386069 0.386069 0.386069
0.448203 0.448203 0.448203
0.494392 0.494408 0.494408
0.556497 0.556512 0.556481
0.621744 0.621744 0.621729
0.344884 0.344900 0.344884
0.354818 0.354833 0.354788
0.387030 0.387030 0.387030
0.444327 0.444358 0.444343
0.531441 0.531426 0.531426
0.582055 0.582055 0.582055
0.633356 0.633341 0.633356
0.701030 0.700999 0.700999
0.433356 0.433356 0.433372
0.443442 0.443488 0.443488
0.477897 0.477958 0.477958
0.524224 0.524208 0.524208
0.599207 0.599207 0.599222
0.677287 0.677317 0.677287
0.724834 0.724834 0.724849
0.782986 0.782986 0.783001
0.051804 0.051804 0.051804
0.084489 0.084489 0.084489
0.150149 0.150149 0.150149
0.184100 0.184100 0.184100
0.205524 0.205524 0.205478
0.243870 0.243900 0.243900
0.272541 0.272618 0.272541
0.299367 0.299367 0.299397
0.110903 0.110903 0.110903
0.137743 0.137743 0.137743
0.179049 0.179049 0.179049
0.217533 0.217578 0.217624
0.248814 0.248859 0.248859
0.296544 0.296513 0.296513
0.328725 0.328664 0.328695
0.365057 0.365011 0.365026
0.143145 0.143145 0.143145
0.173358 0.173358 0.173358
0.211154 0.211154 0.211109
0.240711 0.240757 0.240757
0.279728 0.279789 0.279759
0.324193 0.324178 0.324178
0.374411 0.374380 0.374411
0.433906 0.433906 0.433906
0.175631 0.175631 0.175631
0.204242 0.204242 0.204196
0.259480 0.259510 0.259541
0.309835 0.309804 0.309804
0.342306 0.342260 0.342290
0.378607 0.378576 0.378607
0.429892 0.429892 0.429892
0.498955 0.498940 0.498940
0.225315 0.225361 0.225315
0.244022 0.244053 0.244053
0.296788 0.296849 0.296788
0.378836 0.378805 0.378790
0.427543 0.427543 0.427543
0.458183 0.458198 0.458228
0.504860 0.504875 0.504875
0.558679 0.558648 0.558648
0.294698 0.294759 0.294728
0.307271 0.307332 0.307301
0.343267 0.343221 0.343236
0.406073 0.406073 0.406073
0.488685 0.488716 0.488716
0.535714 0.535683 0.535699
0.583780 0.583780 0.583780
0.645625 0.645625 0.645625
0.380346 0.380331 0.380346
0.389654 0.389654 0.389654
0.413245 0.413291 0.413291
0.457069 0.457084 0.457099
0.539666 0.539666 0.539681
0.604425 0.604395 0.604395
0.653483 0.653468 0.653468
0.726101 0.726101 0.726101
0.468269 0.468269 0.468254
0.477516 0.477577 0.477562
0.505226 0.505211 0.505211
0.549035 0.549035 0.549050
0.612558 0.612589 0.612589
0.692927 0.692973 0.692958
0.740963 0.740917 0.740932
0.796521 0.796490 0.796490
0.069780 0.069780 0.069780
0.101274 0.101274 0.101274
0.184482 0.184482 0.184482
0.260060 0.260090 0.260090
0.294667 0.294728 0.294698
0.284062 0.284031 0.284031
0.335134 0.335164 0.335134
0.349157 0.349111 0.349126
0.145571 0.145571 0.145571
0.166796 0.166796 0.166796
0.218479 0.218525 0.218570
0.285664 0.285725 0.285695
0.326177 0.326146 0.326146
0.340841 0.340856 0.340841
0.382162 0.382147 0.382116
0.419394 0.419394 0.419394
0.183612 0.183612 0.183612
0.213748 0.213794 0.213748
0.266270 0.266316 0.266316
0.308324 0.308293 0.308293
0.353567 0.353506 0.353536
0.391959 0.391959 0.391959
0.442115 0.442115 0.442115
0.492515 0.492500 0.492515
0.217807 0.217853 0.217807
0.249500 0.249531 0.249500
0.315831 0.315801 0.315801
0.353780 0.353735 0.353765
0.391913 0.391898 0.391882
0.430640 0.430671 0.430671
0.471443 0.471443 0.471428
0.532754 0.532738 0.532738
0.249226 0.249271 0.249271
0.282399 0.282475 0.282445
0.347768 0.347799 0.347768
0.415518 0.415518 0.415518
0.466712 0.466712 0.466697
0.498772 0.498833 0.498802
0.532158 0.532143 0.532143
0.587152 0.587152 0.587152
0.319280 0.319326 0.319295
0.337621 0.337636 0.337621
0.385061 0.385031 0.385016
0.456992 0.456992 0.456992
0.540444 0.540444 0.540429
0.583932 0.583932 0.583932
0.615625 0.615625 0.615610
0.664820 0.664805 0.664805
0.398657 0.398657 0.398657
0.411338 0.411383 0.411383
0.450446 0.450446 0.450462
0.498726 0.498756 0.498756
0.567102 0.567086 0.567132
0.647700 0.647685 0.647669
0.698589 0.698604 0.698573
0.755001 0.754986 0.754986
0.496437 0.496452 0.496452
0.508476 0.508492 0.508492
0.539269 0.539315 0.539315
0.577279 0.577264 0.577249
0.625208 0.625223 0.625238
0.704799 0.704830 0.704814
0.771130 0.771115 0.771130
0.820584 0.820569 0.820569
0.095109 0.095109 0.095109
0.119188 0.119188 0.119188
0.203571 0.203571 0.203525
0.299611 0.299672 0.299641
0.355657 0.355688 0.355688
0.395300 0.395300 0.395300
0.380713 0.380697 0.380667
0.395758 0.395758 0.395758
0.180789 0.180789 0.180789
0.202701 0.202701 0.202640
0.254048 0.254078 0.254048
0.337514 0.337453 0.337484
0.408408 0.408408 0.408408
0.436835 0.436835 0.436835
0.432944 0.432990 0.432960
0.468635 0.468650 0.468666
0.225223 0.225269 0.225223
0.265751 0.265782 0.265751
0.326070 0.326040 0.326040
0.367834 0.367742 0.367788
0.418204 0.418204 0.418204
0.472755 0.472770 0.472786
0.496666 0.496681 0.496681
0.544152 0.544152 0.544167
0.270634 0.270665 0.270665
0.302998 0.302968 0.302968
0.367834 0.367788 0.367788
0.422385 0.422385 0.422416
0.460914 0.460929 0.460945
0.504997 0.504982 0.504982
0.539727 0.539727 0.539742
0.591592 0.591547 0.591562
0.307240 0.307240 0.307271
0.336263 0.336294 0.336294
0.414664 0.414633 0.414618
0.471962 0.471977 0.471992
0.506035 0.506020 0.506020
0.543557 0.543557 0.543572
0.583429 0.583459 0.583459
0.625391 0.625406 0.625437
0.344564 0.344579 0.344564
0.375418 0.375403 0.375372
0.443595 0.443565 0.443565
0.510597 0.510613 0.510613
0.573495 0.573465 0.573465
0.615946 0.615992 0.615992
0.648615 0.648600 0.648600
0.686549 0.686534 0.686534
0.432380 0.432380 0.432380
0.446799 0.446799 0.446799
0.486809 0.486824 0.486824
0.547112 0.547112 0.547097
0.616175 0.616175 0.616159
0.691966 0.691966 0.691966
0.735119 0.735119 0.735119
0.773770 0.773755 0.773739
0.518196 0.518196 0.518212
0.531731 0.531716 0.531716
0.569802 0.569772 0.569772
0.622583 0.622583 0.622568
0.665660 0.665660 0.665675
0.727123 0.727123 0.727108
0.806607 0.806622 0.806622
0.853788 0.853773 0.853773
0.130144 0.130144 0.130144
0.151583 0.151583 0.151583
0.215427 0.215473 0.215427
0.334936 0.334890 0.334905
0.403891 0.403830 0.403861
0.444007 0.444007 0.444007
0.465095 0.465065 0.465049
0.471260 0.471260 0.471229
0.216877 0.216922 0.216968
0.239918 0.239963 0.240040
0.285527 0.285603 0.285573
0.370596 0.370550 0.370596
0.455283 0.455314 0.455314
0.509667 0.509651 0.509651
0.536049 0.536034 0.536034
0.522713 0.522698 0.522698
0.287877 0.287938 0.287907
0.318639 0.318639 0.318669
0.381643 0.381582 0.381643
0.409979 0.409979 0.409979
0.470726 0.470741 0.470756
0.540841 0.540810 0.540826
0.579858 0.579843 0.579828
0.589517 0.589487 0.589502
0.329152 0.329091 0.329122
0.361883 0.361822 0.361852
0.442634 0.442664 0.442664
0.484794 0.484779 0.484810
0.519768 0.519783 0.519768
0.559381 0.559396 0.559381
0.614694 0.614694 0.614679
0.654047 0.654032 0.654047
0.360525 0.360479 0.360510
0.394812 0.394781 0.394766
0.468422 0.468452 0.468437
0.523613 0.523613 0.523629
0.572229 0.572198 0.572198
0.607462 0.607462 0.607477
0.650050 0.650065 0.650050
0.691753 0.691783 0.691753
0.406165 0.406088 0.406119
0.433463 0.433463 0.433463
0.510002 0.509972 0.509972
0.575357 0.575341 0.575372
0.622248 0.622263 0.622278
0.652369 0.652338 0.652338
0.687846 0.687816 0.687831
0.732830 0.732830 0.732815
0.461982 0.461967 0.461982
0.486534 0.486503 0.486503
0.547173 0.547143 0.547158
0.605890 0.605921 0.605921
0.666468 0.666453 0.666438
0.722118 0.722133 0.722118
0.760601 0.760617 0.760617
0.796033 0.796002 0.796017
0.561563 0.561532 0.561532
0.572915 0.572885 0.572885
0.606378 0.606378 0.606348
0.658534 0.658518 0.658503
0.714000 0.714000 0.714000
0.771725 0.771725 0.771740
0.836652 0.836637 0.836652
0.873930 0.873930 0.873915
0.166964 0.166964 0.166964
0.191592 0.191592 0.191592
0.238834 0.238880 0.238880
0.340093 0.340124 0.340093
0.420783 0.420783 0.420783
0.465538 0.465538 0.465522
0.521096 0.521080 0.521080
0.545266 0.545266 0.545281
0.258854 0.258824 0.258824
0.275929 0.276005 0.275959
0.325902 0.325872 0.325872
0.395041 0.395041 0.395041
0.491539 0.491569 0.491569
0.538781 0.538781 0.538796
0.576913 0.576944 0.576944
0.611475 0.611444 0.611444
0.355520 0.355459 0.355520
0.381231 0.381201 0.381231
0.436713 0.436759 0.436759
0.461235 0.461204 0.461204
0.505226 0.505242 0.505226
0.592294 0.592310 0.592310
0.655177 0.655177 0.655161
0.691707 0.691753 0.691722
0.400412 0.400412 0.400412
0.433768 0.433768 0.433768
0.513024 0.513054 0.513069
0.545251 0.545251 0.545266
0.553780 0.553719 0.553750
0.596155 0.596155 0.596155
0.664424 0.664408 0.664393
0.715969 0.715984 0.715984
0.437919 0.437888 0.437888
0.468956 0.468940 0.468986
0.542123 0.542123 0.542153
0.601206 0.601206 0.601206
0.629847 0.629831 0.629831
0.659541 0.659526 0.659510
0.699229 0.699245 0.699229
0.756344 0.756359 0.756359
0.448676 0.448676 0.448676
0.480095 0.480079 0.480079
0.579690 0.579644 0.579660
0.631296 0.631342 0.631342
0.671397 0.671428 0.671412
0.712215 0.712245 0.712230
0.745220 0.745174 0.745190
0.784772 0.784772 0.784772
0.517907 0.517891 0.517891
0.542687 0.542687 0.542672
0.606683 0.606714 0.606714
0.674678 0.674662 0.674678
0.727276 0.727276 0.727260
0.767697 0.767697 0.767697
0.789014 0.789029 0.789029
0.818860 0.818875 0.818875
0.588876 0.588907 0.588922
0.607706 0.607736 0.607752
0.655329 0.655329 0.655345
0.712978 0.712978 0.712978
0.767117 0.767102 0.767102
0.812863 0.812833 0.812848
0.856199 0.856184 0.856184
0.888029 0.888014 0.888014
