content/luts/b&w/black_and_white_12.cube
#Created by: inPixio
#Copyright: (C) Copyright 2022 inPixio
TITLE "Black & White 06"
#LUT size
LUT_3D_SIZE 5
#LUT data points
0.000000 0.000000 0.000000
0.115387 0.115387 0.115387
0.217194 0.216156 0.214905
0.312073 0.304474 0.296722
0.388336 0.373596 0.358765
0.104126 0.104126 0.104126
0.206207 0.205536 0.204712
0.302612 0.295807 0.288849
0.380798 0.366760 0.352631
0.447540 0.427216 0.406708
0.195526 0.195160 0.194763
0.293030 0.287018 0.280823
0.373047 0.359802 0.346436
0.440521 0.420868 0.401001
0.507935 0.482666 0.457245
0.283722 0.278473 0.273071
0.365356 0.352844 0.340179
0.433502 0.414429 0.395264
0.500519 0.475739 0.450897
0.571686 0.542511 0.509033
0.358246 0.346344 0.334412
0.426544 0.408173 0.389618
0.493134 0.468964 0.444611
0.563995 0.535187 0.503113
0.627991 0.596436 0.551636
0.095581 0.095581 0.095581
0.197937 0.197571 0.197052
0.295471 0.289215 0.282867
0.375031 0.361572 0.348022
0.442291 0.422394 0.402405
0.187042 0.186951 0.186676
0.285461 0.280029 0.274475
0.367096 0.354431 0.341614
0.435211 0.415985 0.396667
0.502350 0.477448 0.452484
0.275757 0.271088 0.266296
0.359222 0.347260 0.335205
0.428131 0.409576 0.390930
0.494904 0.470612 0.446167
0.565796 0.536896 0.504486
0.351471 0.340240 0.328918
0.421051 0.403198 0.385193
0.487488 0.463776 0.439880
0.557983 0.529572 0.498413
0.623535 0.592102 0.548279
0.414551 0.397308 0.379883
0.480164 0.457001 0.433716
0.550201 0.522217 0.492310
0.617584 0.586334 0.543762
0.661865 0.629608 0.577576
0.178833 0.178833 0.178741
0.278198 0.273346 0.268372
0.361298 0.349121 0.336853
0.429901 0.411194 0.392334
0.496735 0.472290 0.447693
0.268066 0.263916 0.259705
0.353088 0.341705 0.330231
0.422791 0.404724 0.386566
0.489319 0.465454 0.441406
0.559937 0.531372 0.499939
0.344971 0.334381 0.323639
0.415680 0.398315 0.380798
0.481995 0.458710 0.435303
0.552094 0.524017 0.493744
0.618988 0.587677 0.544830
0.408722 0.392059 0.375214
0.474670 0.451965 0.429138
0.544312 0.516693 0.487549
0.612610 0.581543 0.540009
0.658600 0.626373 0.575043
0.467834 0.445740 0.423462
0.536560 0.509430 0.481354
0.606171 0.575409 0.535187
0.654297 0.622162 0.571716
0.712097 0.680176 0.618469
0.260345 0.256744 0.253052
0.347046 0.336243 0.325348
0.417480 0.399933 0.382263
0.483765 0.460327 0.436737
0.554108 0.525848 0.495392
0.338654 0.328644 0.318512
0.410248 0.393433 0.376465
0.476440 0.453583 0.430603
0.546234 0.518494 0.489105
0.614410 0.583313 0.541412
0.403198 0.386993 0.370697
0.469147 0.446930 0.424561
0.538452 0.511230 0.482819
0.607697 0.576874 0.536316
0.655365 0.623169 0.572540
0.462158 0.440521 0.418762
0.530701 0.503967 0.476532
0.600952 0.570374 0.531250
0.651184 0.619080 0.569305
0.705353 0.673309 0.612793
0.523529 0.497162 0.470612
0.594147 0.563873 0.526123
0.646912 0.614868 0.566010
0.696838 0.664642 0.605713
0.821869 0.795837 0.723206
0.332275 0.322723 0.313293
0.404907 0.388580 0.372101
0.470917 0.448486 0.425964
0.540314 0.512939 0.484436
0.609711 0.578705 0.537811
0.397583 0.381989 0.366211
0.463654 0.441925 0.419983
0.532532 0.505676 0.478058
0.602814 0.572174 0.532654
0.652100 0.619995 0.570038
0.456635 0.435486 0.414185
0.524872 0.498474 0.471710
0.595703 0.565399 0.527313
0.647919 0.615875 0.566833
0.698456 0.666290 0.606995
0.517517 0.491638 0.465485
0.588623 0.558594 0.521912
0.643616 0.611633 0.563507
0.691010 0.658722 0.600891
0.807678 0.780579 0.708282
0.581879 0.552155 0.516846
0.639252 0.607391 0.560181
0.683624 0.651337 0.594879
0.789825 0.761505 0.690155
0.979340 0.968109 0.917938
