content/luts/b&w/black_and_white_03.cube
#Created by: inPixio
#Copyright: (C) Copyright 2019 inPixio
TITLE "B&W 3"
#LUT size
LUT_3D_SIZE 8
#data domain
#LUT data points
DOMAIN_MIN 0.000000 0.000000 0.000000
DOMAIN_MAX 0.903226 0.903226 0.903226
0.142153 0.142153 0.142153
0.159152 0.159152 0.159152
0.192004 0.192004 0.192004
0.233219 0.233249 0.233341
0.288685 0.288762 0.288731
0.359579 0.359594 0.359548
0.462303 0.462303 0.462303
0.582239 0.582239 0.582239
0.204486 0.204486 0.204440
0.192889 0.192889 0.192828
0.177112 0.177112 0.177112
0.221088 0.221134 0.221180
0.276371 0.276433 0.276402
0.348364 0.348379 0.348364
0.448570 0.448570 0.448570
0.578409 0.578378 0.578393
0.319295 0.319280 0.319280
0.332525 0.332464 0.332494
0.289632 0.289693 0.289662
0.224018 0.224064 0.224064
0.243122 0.243168 0.243168
0.313741 0.313726 0.313726
0.417456 0.417502 0.417502
0.540551 0.540551 0.540566
0.476997 0.476982 0.476982
0.485863 0.485847 0.485847
0.506249 0.506264 0.506264
0.430167 0.430213 0.430213
0.335760 0.335790 0.335790
0.275761 0.275837 0.275807
0.351583 0.351537 0.351553
0.478355 0.478340 0.478340
0.638773 0.638804 0.638804
0.641749 0.641764 0.641779
0.660426 0.660426 0.660426
0.662043 0.662058 0.662074
0.580819 0.580835 0.580819
0.488930 0.488945 0.488960
0.392981 0.392981 0.392981
0.374380 0.374365 0.374334
0.746120 0.746136 0.746136
0.749371 0.749386 0.749371
0.759106 0.759121 0.759121
0.775204 0.775189 0.775189
0.757397 0.757412 0.757397
0.699291 0.699321 0.699291
0.649149 0.649134 0.649149
0.598169 0.598169 0.598154
0.841352 0.841382 0.841367
0.842817 0.842802 0.842802
0.847791 0.847791 0.847776
0.857740 0.857740 0.857755
0.867063 0.867048 0.867048
0.846693 0.846708 0.846708
0.808118 0.808133 0.808133
0.783185 0.783215 0.783200
0.919905 0.919905 0.919921
0.920501 0.920501 0.920501
0.923644 0.923644 0.923659
0.929503 0.929488 0.929503
0.937743 0.937743 0.937743
0.941634 0.941604 0.941634
0.928496 0.928481 0.928481
0.907881 0.907912 0.907897
0.164859 0.164859 0.164859
0.174624 0.174624 0.174624
0.224064 0.224109 0.224109
0.276494 0.276570 0.276539
0.327138 0.327184 0.327138
0.394583 0.394583 0.394629
0.484489 0.484505 0.484505
0.600778 0.600794 0.600794
0.190204 0.190204 0.190204
0.199573 0.199573 0.199512
0.225452 0.225498 0.225498
0.265065 0.265095 0.265095
0.315175 0.315114 0.315145
0.382040 0.382025 0.381994
0.474601 0.474556 0.474540
0.594415 0.594415 0.594415
0.303578 0.303639 0.303609
0.310750 0.310811 0.310781
0.293980 0.294041 0.294011
0.248447 0.248478 0.248478
0.278965 0.279027 0.278965
0.349600 0.349538 0.349569
0.442603 0.442603 0.442603
0.564218 0.564187 0.564187
0.462745 0.462776 0.462776
0.469230 0.469245 0.469261
0.496422 0.496437 0.496437
0.428336 0.428336 0.428336
0.341207 0.341222 0.341222
0.300771 0.300771 0.300801
0.380331 0.380301 0.380285
0.501335 0.501320 0.501335
0.629786 0.629770 0.629770
0.632075 0.632059 0.632075
0.649180 0.649195 0.649195
0.655085 0.655085 0.655085
0.576074 0.576104 0.576104
0.489967 0.489983 0.489983
0.398520 0.398550 0.398520
0.399176 0.399176 0.399176
0.739773 0.739773 0.739788
0.742611 0.742626 0.742626
0.751080 0.751080 0.751080
0.768628 0.768628 0.768628
0.755917 0.755902 0.755902
0.702342 0.702327 0.702327
0.651865 0.651911 0.651896
0.598367 0.598367 0.598367
0.837110 0.837079 0.837079
0.838651 0.838651 0.838651
0.843595 0.843580 0.843580
0.854032 0.854017 0.854017
0.863966 0.863951 0.863951
0.845670 0.845686 0.845686
0.807141 0.807172 0.807157
0.782818 0.782834 0.782834
0.917495 0.917510 0.917510
0.917998 0.917998 0.917998
0.921523 0.921523 0.921538
0.928054 0.928039 0.928054
0.936736 0.936721 0.936736
0.941802 0.941787 0.941817
0.928527 0.928512 0.928512
0.907439 0.907424 0.907424
0.205570 0.205570 0.205524
0.212375 0.212421 0.212375
0.232120 0.232166 0.232166
0.296758 0.296727 0.296727
0.385885 0.385885 0.385885
0.495445 0.495461 0.495445
0.578470 0.578470 0.578470
0.663050 0.663035 0.663020
0.228138 0.228183 0.228183
0.236393 0.236439 0.236439
0.254048 0.254078 0.254078
0.312245 0.312215 0.312215
0.399893 0.399893 0.399893
0.488273 0.488258 0.488273
0.567208 0.567224 0.567208
0.658595 0.658610 0.658595
0.276463 0.276539 0.276494
0.283452 0.283513 0.283482
0.303059 0.303121 0.303090
0.336889 0.336843 0.336873
0.391653 0.391653 0.391653
0.454582 0.454612 0.454582
0.537408 0.537453 0.537453
0.636500 0.636500 0.636500
0.430839 0.430839 0.430839
0.436576 0.436576 0.436561
0.460777 0.460761 0.460777
0.440726 0.440772 0.440787
0.374716 0.374685 0.374716
0.393118 0.393118 0.393118
0.479103 0.479164 0.479149
0.590524 0.590478 0.590509
0.609384 0.609400 0.609400
0.611872 0.611902 0.611902
0.624765 0.624781 0.624781
0.646311 0.646296 0.646296
0.584482 0.584436 0.584451
0.506737 0.506752 0.506737
0.431571 0.431617 0.431601
0.499153 0.499138 0.499138
0.729534 0.729534 0.729519
0.730709 0.730709 0.730694
0.737926 0.737972 0.737972
0.756146 0.756146 0.756146
0.755627 0.755627 0.755642
0.704524 0.704509 0.704524
0.659449 0.659419 0.659419
0.605631 0.605600 0.605615
0.829480 0.829496 0.829496
0.830716 0.830701 0.830732
0.835126 0.835096 0.835111
0.846220 0.846189 0.846204
0.859937 0.859937 0.859922
0.846708 0.846693 0.846693
0.809323 0.809323 0.809308
0.786313 0.786328 0.786328
0.913634 0.913634 0.913649
0.914199 0.914199 0.914199
0.917693 0.917708 0.917708
0.924544 0.924544 0.924529
0.933898 0.933867 0.933883
0.941405 0.941405 0.941405
0.929320 0.929336 0.929336
0.909148 0.909133 0.909148
0.261250 0.261280 0.261326
0.267536 0.267567 0.267567
0.286381 0.286442 0.286412
0.311666 0.311635 0.311635
0.388922 0.388922 0.388922
0.499611 0.499596 0.499596
0.616968 0.616953 0.616968
0.722240 0.722255 0.722271
0.285832 0.285893 0.285863
0.290333 0.290395 0.290364
0.304402 0.304463 0.304433
0.326177 0.326116 0.326146
0.403021 0.403067 0.403067
0.509667 0.509651 0.509651
0.623636 0.623636 0.623621
0.725582 0.725612 0.725612
0.313954 0.313924 0.313924
0.323842 0.323812 0.323812
0.352651 0.352606 0.352651
0.377066 0.377035 0.377066
0.452064 0.452064 0.452064
0.550088 0.550057 0.550057
0.647852 0.647852 0.647837
0.720760 0.720760 0.720729
0.392905 0.392905 0.392905
0.398978 0.398978 0.398978
0.422126 0.422126 0.422126
0.454597 0.454627 0.454627
0.494286 0.494301 0.494301
0.551949 0.551965 0.551934
0.615061 0.615030 0.615030
0.689311 0.689311 0.689311
0.575341 0.575311 0.575311
0.578393 0.578393 0.578393
0.591638 0.591638 0.591623
0.617609 0.617594 0.617609
0.597025 0.597040 0.597055
0.536339 0.536309 0.536324
0.545586 0.545586 0.545571
0.632517 0.632532 0.632517
0.713344 0.713314 0.713329
0.714977 0.714931 0.714962
0.720928 0.720928 0.720928
0.734844 0.734859 0.734859
0.751003 0.751019 0.751003
0.709423 0.709438 0.709423
0.667750 0.667750 0.667765
0.613214 0.613199 0.613199
0.819745 0.819745 0.819760
0.820920 0.820935 0.820935
0.824857 0.824872 0.824857
0.834775 0.834806 0.834806
0.851515 0.851469 0.851499
0.849348 0.849363 0.849363
0.812955 0.812985 0.812985
0.790143 0.790127 0.790127
0.909651 0.909636 0.909651
0.910430 0.910430 0.910430
0.912963 0.912963 0.912963
0.919356 0.919356 0.919341
0.929137 0.929168 0.929137
0.939605 0.939620 0.939635
0.931472 0.931441 0.931472
0.910369 0.910399 0.910384
0.333120 0.333120 0.333089
0.338170 0.338125 0.338155
0.354223 0.354162 0.354192
0.380484 0.380469 0.380484
0.411185 0.411215 0.411215
0.503059 0.503044 0.503059
0.618128 0.618112 0.618128
0.723690 0.723690 0.723690
0.354894 0.354910 0.354864
0.358785 0.358724 0.358755
0.372381 0.372335 0.372335
0.394781 0.394781 0.394781
0.424506 0.424552 0.424552
0.513268 0.513298 0.513314
0.624857 0.624857 0.624857
0.728878 0.728878 0.728893
0.397025 0.397025 0.397025
0.403449 0.403449 0.403449
0.422248 0.422248 0.422248
0.443214 0.443214 0.443214
0.469001 0.469001 0.468986
0.550271 0.550286 0.550271
0.649119 0.649134 0.649134
0.742062 0.742077 0.742077
0.440345 0.440345 0.440345
0.445838 0.445884 0.445853
0.469505 0.469551 0.469520
0.514260 0.514275 0.514275
0.540414 0.540383 0.540398
0.606302 0.606302 0.606302
0.684749 0.684749 0.684733
0.763317 0.763287 0.763272
0.532403 0.532387 0.532387
0.537179 0.537179 0.537194
0.553124 0.553094 0.553094
0.579751 0.579736 0.579721
0.606134 0.606134 0.606134
0.638651 0.638636 0.638621
0.686397 0.686397 0.686397
0.741970 0.741955 0.741970
0.684489 0.684459 0.684474
0.686626 0.686595 0.686595
0.694408 0.694392 0.694392
0.708980 0.708995 0.708980
0.730495 0.730495 0.730495
0.717845 0.717845 0.717845
0.675288 0.675273 0.675273
0.679545 0.679545 0.679545
0.802564 0.802564 0.802548
0.803555 0.803555 0.803555
0.808469 0.808484 0.808469
0.818296 0.818311 0.818311
0.833814 0.833799 0.833814
0.848966 0.848966 0.848981
0.817716 0.817700 0.817716
0.792004 0.792004 0.791989
0.900496 0.900527 0.900511
0.901244 0.901259 0.901259
0.903838 0.903868 0.903853
0.910887 0.910887 0.910872
0.920913 0.920882 0.920897
0.934402 0.934356 0.934371
0.933700 0.933700 0.933715
0.912764 0.912795 0.912780
0.430640 0.430640 0.430640
0.434638 0.434684 0.434684
0.448234 0.448234 0.448234
0.472602 0.472618 0.472633
0.503166 0.503182 0.503182
0.530068 0.530053 0.530053
0.625422 0.625391 0.625376
0.726864 0.726864 0.726848
0.446906 0.446906 0.446906
0.449561 0.449561 0.449561
0.461677 0.461677 0.461677
0.483818 0.483833 0.483818
0.511986 0.512001 0.512001
0.538766 0.538766 0.538766
0.632181 0.632166 0.632151
0.731624 0.731624 0.731609
0.496101 0.496117 0.496132
0.499306 0.499321 0.499321
0.509224 0.509239 0.509239
0.527428 0.527413 0.527413
0.550225 0.550240 0.550210
0.571862 0.571893 0.571893
0.653361 0.653330 0.653346
0.743771 0.743771 0.743755
0.520348 0.520333 0.520333
0.525582 0.525567 0.525567
0.559503 0.559472 0.559487
0.586374 0.586328 0.586343
0.604105 0.604105 0.604120
0.622202 0.622202 0.622202
0.687236 0.687221 0.687221
0.766384 0.766354 0.766369
0.586420 0.586420 0.586420
0.589303 0.589303 0.589303
0.601755 0.601755 0.601755
0.621668 0.621668 0.621668
0.653498 0.653498 0.653498
0.671305 0.671290 0.671275
0.725506 0.725506 0.725506
0.795193 0.795193 0.795209
0.659083 0.659098 0.659098
0.662165 0.662150 0.662120
0.669856 0.669841 0.669810
0.685023 0.685023 0.685008
0.704402 0.704418 0.704402
0.725689 0.725689 0.725689
0.753689 0.753658 0.753658
0.799863 0.799863 0.799863
0.779232 0.779248 0.779248
0.780621 0.780621 0.780636
0.785946 0.785962 0.785946
0.797238 0.797223 0.797238
0.812650 0.812635 0.812650
0.834196 0.834180 0.834196
0.823529 0.823499 0.823499
0.788876 0.788876 0.788876
0.888411 0.888411 0.888426
0.889189 0.889220 0.889204
0.892317 0.892302 0.892317
0.899138 0.899168 0.899153
0.909285 0.909316 0.909300
0.923201 0.923217 0.923217
0.935058 0.935073 0.935073
0.915099 0.915099 0.915084
0.559106 0.559121 0.559106
0.561624 0.561639 0.561608
0.571649 0.571664 0.571649
0.588434 0.588434 0.588434
0.609369 0.609339 0.609354
0.630045 0.630045 0.630045
0.650584 0.650584 0.650584
0.734340 0.734325 0.734325
0.569558 0.569589 0.569589
0.571969 0.571984 0.571969
0.580530 0.580530 0.580530
0.595865 0.595865 0.595865
0.615259 0.615244 0.615259
0.635309 0.635325 0.635325
0.655268 0.655284 0.655284
0.736950 0.736950 0.736935
0.603128 0.603128 0.603143
0.605173 0.605158 0.605158
0.611658 0.611643 0.611643
0.623224 0.623255 0.623240
0.639063 0.639063 0.639063
0.656870 0.656855 0.656855
0.673838 0.673838 0.673854
0.749630 0.749645 0.749661
0.632548 0.632532 0.632548
0.637263 0.637247 0.637232
0.650782 0.650797 0.650782
0.661631 0.661631 0.661631
0.674052 0.674052 0.674067
0.688838 0.688869 0.688853
0.700908 0.700923 0.700893
0.770718 0.770703 0.770703
0.654505 0.654521 0.654505
0.656199 0.656184 0.656184
0.666331 0.666301 0.666316
0.690501 0.690471 0.690486
0.711910 0.711849 0.711879
0.724392 0.724407 0.724392
0.738537 0.738552 0.738567
0.797910 0.797940 0.797910
0.712551 0.712535 0.712551
0.713695 0.713695 0.713695
0.719493 0.719493 0.719493
0.728389 0.728389 0.728389
0.740154 0.740169 0.740169
0.765499 0.765454 0.765484
0.781094 0.781109 0.781109
0.833631 0.833600 0.833616
0.769040 0.769040 0.769024
0.770459 0.770474 0.770443
0.774090 0.774090 0.774105
0.781598 0.781613 0.781598
0.793652 0.793637 0.793652
0.810987 0.811017 0.810987
0.830640 0.830610 0.830610
0.857832 0.857801 0.857801
0.868833 0.868803 0.868803
0.869673 0.869673 0.869658
0.873442 0.873442 0.873426
0.881544 0.881560 0.881560
0.893248 0.893233 0.893233
0.907713 0.907698 0.907713
0.926162 0.926177 0.926177
0.919982 0.919967 0.919982
0.697353 0.697368 0.697353
0.698833 0.698833 0.698833
0.703426 0.703471 0.703471
0.712261 0.712245 0.712261
0.724254 0.724254 0.724254
0.738369 0.738354 0.738354
0.751827 0.751812 0.751812
0.763348 0.763363 0.763348
0.702861 0.702907 0.702907
0.703838 0.703868 0.703868
0.707958 0.707942 0.707958
0.716152 0.716167 0.716136
0.727337 0.727306 0.727337
0.741238 0.741238 0.741222
0.754391 0.754376 0.754376
0.765393 0.765393 0.765393
0.719631 0.719631 0.719631
0.720546 0.720546 0.720546
0.723720 0.723735 0.723751
0.731151 0.731151 0.731151
0.740795 0.740749 0.740765
0.753368 0.753384 0.753384
0.765744 0.765713 0.765728
0.777524 0.777524 0.777508
0.743206 0.743206 0.743206
0.744015 0.744015 0.744015
0.746914 0.746929 0.746914
0.753307 0.753323 0.753307
0.761822 0.761807 0.761822
0.772549 0.772534 0.772549
0.783948 0.783932 0.783932
0.795407 0.795407 0.795392
0.748119 0.748074 0.748089
0.749920 0.749935 0.749920
0.760617 0.760632 0.760632
0.776120 0.776089 0.776104
0.786389 0.786389 0.786389
0.795621 0.795682 0.795651
0.807172 0.807187 0.807187
0.816800 0.816815 0.816815
0.782620 0.782605 0.782605
0.783093 0.783093 0.783093
0.785184 0.785184 0.785184
0.790112 0.790112 0.790112
0.805707 0.805707 0.805707
0.825208 0.825177 0.825177
0.836942 0.836973 0.836973
0.850385 0.850385 0.850385
0.831540 0.831510 0.831510
0.832044 0.832013 0.832013
0.834089 0.834119 0.834104
0.837842 0.837873 0.837873
0.843595 0.843610 0.843610
0.851469 0.851453 0.851453
0.871840 0.871824 0.871824
0.885771 0.885756 0.885756
0.876387 0.876402 0.876387
0.877058 0.877043 0.877043
0.878706 0.878706 0.878691
0.882811 0.882765 0.882780
0.888701 0.888686 0.888686
0.897810 0.897841 0.897826
0.911391 0.911376 0.911391
0.927306 0.927306 0.927306
