content/luts/b&w/black_and_white_06.cube
#Created by: inPixio
#Copyright: (C) Copyright 2019 inPixio
TITLE "B&W 6"
#LUT size
LUT_3D_SIZE 5
#data domain
#LUT data points
DOMAIN_MIN 0.000000 0.000000 0.000000
DOMAIN_MAX 0.903226 0.903226 0.903226
0.022278 0.022278 0.022278
0.041230 0.041230 0.041230
0.063798 0.063798 0.063798
0.079912 0.079912 0.079912
0.127184 0.127184 0.127184
0.076738 0.076738 0.076738
0.104143 0.104143 0.104143
0.132723 0.132723 0.132723
0.168383 0.168383 0.168383
0.222782 0.222828 0.222782
0.143069 0.143069 0.143069
0.181170 0.181170 0.181170
0.222217 0.222263 0.222309
0.288853 0.288930 0.288899
0.394873 0.394873 0.394919
0.241749 0.241795 0.241795
0.277913 0.277989 0.277958
0.378576 0.378561 0.378576
0.456626 0.456626 0.456626
0.558587 0.558557 0.558557
0.381369 0.381354 0.381369
0.414115 0.414115 0.414115
0.544198 0.544198 0.544213
0.644297 0.644312 0.644312
0.746975 0.746990 0.746975
0.035920 0.035920 0.035920
0.081834 0.081834 0.081834
0.109819 0.109819 0.109819
0.109728 0.109728 0.109728
0.150088 0.150088 0.150088
0.097520 0.097520 0.097520
0.141451 0.141451 0.141451
0.162890 0.162890 0.162890
0.216068 0.216114 0.216068
0.288655 0.288624 0.288624
0.166903 0.166903 0.166903
0.199313 0.199313 0.199268
0.275029 0.275105 0.275059
0.337804 0.337835 0.337804
0.421668 0.421698 0.421698
0.256001 0.256046 0.256046
0.284001 0.284062 0.284031
0.409293 0.409293 0.409308
0.483391 0.483406 0.483406
0.593256 0.593286 0.593271
0.396323 0.396323 0.396323
0.431067 0.431067 0.431067
0.522881 0.522911 0.522896
0.659907 0.659922 0.659922
0.760098 0.760113 0.760128
0.061936 0.061936 0.061936
0.148730 0.148730 0.148730
0.232075 0.232120 0.232197
0.242695 0.242725 0.242802
0.253224 0.253254 0.253224
0.155551 0.155551 0.155551
0.213748 0.213794 0.213748
0.276631 0.276707 0.276661
0.316060 0.316106 0.316075
0.363256 0.363195 0.363226
0.213932 0.213977 0.213932
0.273289 0.273365 0.273365
0.357534 0.357443 0.357488
0.406683 0.406668 0.406653
0.490562 0.490547 0.490562
0.319127 0.319097 0.319097
0.353628 0.353582 0.353613
0.463722 0.463752 0.463767
0.551278 0.551293 0.551278
0.625132 0.625116 0.625116
0.473640 0.473655 0.473671
0.494133 0.494118 0.494118
0.564553 0.564523 0.564553
0.699992 0.700008 0.699992
0.782879 0.782879 0.782864
0.113115 0.113115 0.113115
0.187244 0.187244 0.187244
0.359899 0.359838 0.359869
0.417624 0.417624 0.417624
0.388663 0.388602 0.388617
0.254719 0.254765 0.254765
0.318074 0.318044 0.318044
0.400458 0.400458 0.400458
0.482414 0.482429 0.482429
0.498497 0.498528 0.498497
0.305547 0.305516 0.305516
0.389365 0.389288 0.389319
0.477760 0.477821 0.477791
0.536187 0.536172 0.536172
0.575113 0.575128 0.575113
0.373266 0.373175 0.373220
0.443504 0.443504 0.443504
0.554589 0.554559 0.554589
0.630381 0.630427 0.630411
0.693568 0.693568 0.693568
0.520165 0.520165 0.520180
0.556130 0.556146 0.556115
0.636133 0.636149 0.636149
0.753933 0.753964 0.753964
0.851652 0.851652 0.851652
0.185626 0.185626 0.185626
0.244175 0.244221 0.244175
0.408286 0.408286 0.408286
0.501518 0.501503 0.501518
0.552880 0.552850 0.552850
0.361929 0.361883 0.361929
0.416983 0.417029 0.417029
0.475181 0.475197 0.475212
0.609903 0.609934 0.609934
0.681148 0.681148 0.681148
0.426383 0.426429 0.426429
0.525261 0.525322 0.525292
0.598795 0.598795 0.598779
0.628931 0.628916 0.628916
0.709026 0.709026 0.709026
0.490105 0.490120 0.490120
0.570062 0.570077 0.570062
0.666056 0.666056 0.666072
0.735561 0.735531 0.735561
0.790219 0.790188 0.790188
0.576791 0.576791 0.576806
0.625895 0.625864 0.625849
0.741650 0.741650 0.741634
0.829007 0.828992 0.828992
0.890532 0.890517 0.890517
