content/luts/b&w/black_and_white_09.cube
#Created by: inPixio
#Copyright: (C) Copyright 2022 inPixio
TITLE "Black & White 04"
#LUT size
LUT_3D_SIZE 5
#LUT data points
0.000000 0.000000 0.000000
0.077362 0.077362 0.077362
0.162384 0.162384 0.162384
0.251587 0.251587 0.251587
0.336365 0.336426 0.336334
0.074707 0.074707 0.074707
0.159485 0.159485 0.159485
0.248596 0.248596 0.248596
0.333710 0.333771 0.333679
0.410675 0.410767 0.410675
0.156769 0.156769 0.156769
0.245697 0.245697 0.245697
0.330994 0.331024 0.330933
0.408325 0.408386 0.408325
0.479095 0.479187 0.479095
0.243164 0.243164 0.243164
0.328430 0.328461 0.328369
0.405853 0.405914 0.405853
0.476807 0.476898 0.476807
0.543457 0.543549 0.543427
0.326630 0.326691 0.326569
0.403656 0.403748 0.403656
0.474701 0.474762 0.474701
0.541382 0.541473 0.541351
0.605621 0.605713 0.605621
0.104858 0.104858 0.104858
0.192047 0.192047 0.192047
0.280670 0.280670 0.280670
0.362793 0.362885 0.362793
0.437286 0.437347 0.437286
0.189178 0.189178 0.189178
0.280579 0.280579 0.280548
0.362701 0.362793 0.362671
0.437195 0.437256 0.437195
0.506073 0.506134 0.506042
0.274994 0.274994 0.274994
0.360138 0.360199 0.360107
0.434814 0.434875 0.434814
0.503815 0.503906 0.503815
0.569244 0.569336 0.569214
0.355225 0.355316 0.355225
0.432495 0.432587 0.432495
0.501648 0.501709 0.501617
0.567139 0.567200 0.567108
0.630920 0.631012 0.630920
0.428436 0.428528 0.428436
0.499481 0.499542 0.499451
0.565002 0.565094 0.564972
0.628845 0.628937 0.628845
0.693176 0.693268 0.693146
0.221893 0.221893 0.221893
0.309021 0.309052 0.308990
0.388306 0.388397 0.388306
0.460724 0.460785 0.460724
0.528168 0.528229 0.528137
0.306274 0.306274 0.306244
0.388275 0.388367 0.388275
0.460632 0.460724 0.460632
0.528107 0.528168 0.528076
0.592682 0.592773 0.592682
0.383331 0.383423 0.383331
0.458344 0.458435 0.458344
0.528107 0.528168 0.528076
0.592682 0.592804 0.592682
0.656494 0.656586 0.656494
0.454010 0.454102 0.454010
0.523804 0.523865 0.523773
0.590607 0.590698 0.590576
0.654388 0.654480 0.654358
0.719513 0.719635 0.719513
0.519989 0.520050 0.519958
0.586426 0.586548 0.586426
0.652283 0.652405 0.652283
0.717346 0.717438 0.717316
0.785858 0.785980 0.785828
0.336456 0.336487 0.336395
0.413177 0.413269 0.413177
0.483643 0.483704 0.483643
0.549896 0.549988 0.549866
0.613953 0.614044 0.613953
0.410736 0.410828 0.410736
0.483612 0.483673 0.483612
0.549866 0.549957 0.549835
0.613953 0.614044 0.613953
0.677979 0.678070 0.677948
0.479218 0.479279 0.479218
0.547729 0.547821 0.547699
0.613953 0.614044 0.613953
0.678009 0.678131 0.678009
0.744202 0.744324 0.744171
0.543701 0.543762 0.543671
0.609772 0.609863 0.609772
0.675903 0.675995 0.675873
0.744263 0.744385 0.744263
0.814728 0.814850 0.814697
0.606018 0.606110 0.606018
0.671631 0.671722 0.671600
0.739716 0.739838 0.739716
0.812347 0.812469 0.812347
0.888733 0.888855 0.888702
0.437256 0.437347 0.437256
0.506104 0.506165 0.506073
0.571381 0.571472 0.571350
0.635162 0.635254 0.635132
0.699677 0.699799 0.699646
0.503876 0.503937 0.503815
0.571381 0.571472 0.571350
0.635162 0.635254 0.635132
0.699646 0.699768 0.699646
0.767029 0.767151 0.767029
0.567261 0.567352 0.567230
0.633057 0.633148 0.633026
0.699707 0.699799 0.699677
0.767090 0.767181 0.767059
0.839508 0.839630 0.839478
0.629028 0.629120 0.629028
0.695343 0.695465 0.695312
0.764771 0.764893 0.764771
0.839569 0.839691 0.839539
0.917999 0.918121 0.917969
0.691589 0.691711 0.691559
0.760254 0.760345 0.760223
0.834534 0.834656 0.834503
0.915375 0.915497 0.915344
0.999908 1.000000 0.999878
