content/luts/b&w/black_and_white_10.cube
#Created by: inPixio
#Copyright: (C) Copyright 2022 inPixio
TITLE "Black & White 12"
#LUT size
LUT_3D_SIZE 5
#LUT data points
0.000000 0.000000 0.000000
0.055817 0.055817 0.055817
0.152313 0.152313 0.152313
0.296967 0.290619 0.284119
0.469879 0.447540 0.425140
0.039307 0.039307 0.039307
0.130646 0.130646 0.130646
0.263245 0.259430 0.255493
0.437073 0.417725 0.398224
0.592682 0.562225 0.523254
0.110352 0.110352 0.110352
0.231476 0.229523 0.227600
0.402832 0.386688 0.370422
0.561096 0.532410 0.499939
0.716553 0.683136 0.613708
0.202545 0.201965 0.201385
0.367859 0.355072 0.342194
0.530365 0.503632 0.475891
0.686798 0.653351 0.590973
0.822571 0.793671 0.708221
0.334137 0.324463 0.314789
0.500854 0.476105 0.451202
0.656281 0.623352 0.568542
0.798218 0.767731 0.684296
0.906860 0.885681 0.804840
0.007233 0.007233 0.007233
0.072998 0.072998 0.072998
0.175873 0.175842 0.175812
0.332153 0.322723 0.313171
0.500610 0.475861 0.450958
0.055817 0.055817 0.055817
0.152527 0.152527 0.152527
0.297150 0.290710 0.284180
0.469635 0.447388 0.424988
0.624603 0.592682 0.545959
0.130585 0.130585 0.130585
0.263367 0.259491 0.255585
0.436859 0.417572 0.398132
0.592773 0.562347 0.523224
0.745087 0.712250 0.636902
0.231689 0.229828 0.227936
0.403015 0.386871 0.370636
0.561127 0.532471 0.499939
0.716461 0.683105 0.613800
0.845490 0.818359 0.732300
0.369415 0.356506 0.343414
0.530396 0.503632 0.476074
0.686920 0.653473 0.591003
0.822571 0.793671 0.708252
0.925507 0.906342 0.829285
0.014984 0.014984 0.014984
0.091003 0.091003 0.091003
0.202087 0.201538 0.200897
0.367767 0.354980 0.342102
0.530029 0.503296 0.475983
0.072876 0.072876 0.072876
0.176147 0.176056 0.175964
0.332184 0.322723 0.313141
0.500427 0.475739 0.450867
0.656097 0.623138 0.568390
0.152405 0.152405 0.152405
0.297180 0.290771 0.284210
0.469452 0.447266 0.424896
0.624603 0.592743 0.545990
0.772278 0.740479 0.660400
0.263672 0.259857 0.255951
0.437164 0.417816 0.398315
0.592804 0.562378 0.523224
0.744934 0.712158 0.636993
0.867065 0.841827 0.756409
0.404541 0.388214 0.371826
0.561249 0.532562 0.500183
0.716583 0.683228 0.613800
0.845520 0.818390 0.732361
0.943634 0.926483 0.854065
0.025024 0.025024 0.025024
0.110138 0.110138 0.110138
0.231201 0.229401 0.227509
0.402924 0.386780 0.370544
0.560944 0.532227 0.500031
0.091003 0.091003 0.091003
0.202332 0.201721 0.200989
0.367676 0.354919 0.342010
0.530304 0.503540 0.475861
0.686829 0.653351 0.590881
0.175995 0.175995 0.175934
0.332245 0.322784 0.313171
0.500305 0.475677 0.450806
0.656036 0.623138 0.568451
0.798157 0.767609 0.684204
0.297699 0.291290 0.284760
0.469757 0.447510 0.425110
0.624634 0.592804 0.545990
0.772156 0.740326 0.660492
0.887421 0.864197 0.780518
0.438599 0.419067 0.399414
0.593018 0.562531 0.523407
0.745148 0.712341 0.636993
0.867065 0.841888 0.756470
0.961517 0.946381 0.879333
0.039093 0.039093 0.039093
0.130493 0.130493 0.130493
0.263031 0.259308 0.255402
0.437164 0.417786 0.398254
0.592743 0.562286 0.523315
0.110138 0.110138 0.110138
0.231415 0.229553 0.227570
0.402863 0.386688 0.370453
0.561035 0.532349 0.499939
0.716522 0.683105 0.613678
0.202240 0.201691 0.201080
0.367706 0.354950 0.342072
0.530396 0.503662 0.475800
0.686768 0.653320 0.590942
0.822540 0.793610 0.708191
0.332764 0.323334 0.313690
0.500519 0.475830 0.450989
0.656097 0.623169 0.568451
0.798004 0.767548 0.684265
0.906830 0.885620 0.804779
0.471436 0.449005 0.426422
0.624908 0.592987 0.546143
0.772369 0.740540 0.660492
0.887482 0.864227 0.780579
0.979401 0.966187 0.905151
