content/luts/b&w/black_and_white_07.cube
#Created by: inPixio
#Copyright: (C) Copyright 2019 inPixio
TITLE "B&W 7"
#LUT size
LUT_3D_SIZE 5
#data domain
#LUT data points
DOMAIN_MIN 0.000000 0.000000 0.000000
DOMAIN_MAX 0.903226 0.903226 0.903226
0.111437 0.111437 0.111437
0.135531 0.135531 0.135531
0.229511 0.229557 0.229557
0.450080 0.450080 0.450080
0.753216 0.753201 0.753201
0.175464 0.175464 0.175464
0.203174 0.203174 0.203128
0.315114 0.315084 0.315084
0.516274 0.516289 0.516289
0.782788 0.782742 0.782773
0.454429 0.454398 0.454414
0.474144 0.474144 0.474113
0.552712 0.552728 0.552712
0.701167 0.701198 0.701167
0.858183 0.858183 0.858183
0.770291 0.770321 0.770321
0.778332 0.778332 0.778347
0.804959 0.804929 0.804929
0.846632 0.846632 0.846632
0.919539 0.919570 0.919554
0.929198 0.929213 0.929198
0.930831 0.930831 0.930816
0.937835 0.937804 0.937820
0.949752 0.949737 0.949737
0.964843 0.964859 0.964843
0.124804 0.124804 0.124804
0.143069 0.143069 0.143069
0.264179 0.264210 0.264210
0.484001 0.484016 0.484016
0.762921 0.762936 0.762936
0.169268 0.169268 0.169268
0.219577 0.219623 0.219669
0.344396 0.344427 0.344396
0.542336 0.542336 0.542321
0.790494 0.790494 0.790478
0.457603 0.457603 0.457603
0.490486 0.490532 0.490532
0.566659 0.566598 0.566613
0.710674 0.710658 0.710674
0.861036 0.861006 0.861006
0.771267 0.771267 0.771267
0.784619 0.784634 0.784619
0.810651 0.810666 0.810636
0.849775 0.849760 0.849760
0.920729 0.920699 0.920714
0.929610 0.929625 0.929625
0.931731 0.931716 0.931731
0.938781 0.938766 0.938781
0.950439 0.950408 0.950423
0.965393 0.965362 0.965377
0.168322 0.168322 0.168322
0.191898 0.191898 0.191898
0.279194 0.279271 0.279240
0.513420 0.513405 0.513405
0.776700 0.776700 0.776715
0.263645 0.263676 0.263645
0.293126 0.293095 0.293095
0.370260 0.370214 0.370214
0.574594 0.574579 0.574594
0.800794 0.800794 0.800794
0.426764 0.426764 0.426764
0.470146 0.470146 0.470131
0.609445 0.609445 0.609445
0.731884 0.731884 0.731868
0.863829 0.863829 0.863844
0.768277 0.768277 0.768277
0.781003 0.781003 0.780987
0.822019 0.822004 0.822019
0.860502 0.860487 0.860487
0.923384 0.923369 0.923384
0.929183 0.929183 0.929152
0.931441 0.931456 0.931456
0.941161 0.941131 0.941131
0.952606 0.952590 0.952590
0.966995 0.966995 0.967010
0.293858 0.293813 0.293813
0.319646 0.319616 0.319616
0.404929 0.404929 0.404929
0.538537 0.538537 0.538537
0.787823 0.787808 0.787823
0.403739 0.403739 0.403739
0.421836 0.421836 0.421836
0.488518 0.488579 0.488548
0.598947 0.598947 0.598947
0.811780 0.811795 0.811795
0.525826 0.525811 0.525811
0.579614 0.579599 0.579599
0.691707 0.691707 0.691722
0.752194 0.752194 0.752194
0.867338 0.867323 0.867323
0.746868 0.746883 0.746899
0.764294 0.764294 0.764324
0.814511 0.814527 0.814542
0.876539 0.876555 0.876555
0.923095 0.923095 0.923079
0.924102 0.924102 0.924102
0.927794 0.927810 0.927810
0.939223 0.939223 0.939223
0.955200 0.955200 0.955200
0.970657 0.970642 0.970657
0.578164 0.578164 0.578164
0.594949 0.594965 0.594949
0.655131 0.655131 0.655131
0.738384 0.738399 0.738415
0.823987 0.823957 0.823957
0.647288 0.647273 0.647273
0.660838 0.660823 0.660838
0.706416 0.706432 0.706416
0.771237 0.771222 0.771237
0.840345 0.840330 0.840330
0.786358 0.786343 0.786358
0.794049 0.794034 0.794034
0.815045 0.815061 0.815045
0.844907 0.844892 0.844892
0.881773 0.881773 0.881773
0.843229 0.843259 0.843259
0.847639 0.847654 0.847654
0.872404 0.872419 0.872419
0.909804 0.909834 0.909819
0.929625 0.929625 0.929595
0.925506 0.925536 0.925521
0.927825 0.927825 0.927794
0.936629 0.936675 0.936660
0.952316 0.952331 0.952300
0.977203 0.977218 0.977218
