content/luts/b&w/black_and_white_07.cube
#Created by: inPixio
#Copyright: (C) Copyright 2019 inPixio
TITLE "B&W 7"
#LUT size
LUT_3D_SIZE 32
#data domain
DOMAIN_MIN 0.0 0.0 0.0
DOMAIN_MAX 1.0 1.0 1.0
#LUT data points
0.111437 0.111437 0.111437
0.112505 0.112505 0.112505
0.113878 0.113878 0.113878
0.116808 0.116808 0.116808
0.120470 0.120470 0.120470
0.124712 0.124712 0.124712
0.129503 0.129503 0.129503
0.135531 0.135531 0.135531
0.142443 0.142443 0.142443
0.151125 0.151125 0.151125
0.161273 0.161273 0.161273
0.173129 0.173129 0.173129
0.189273 0.189273 0.189273
0.207553 0.207553 0.207507
0.229511 0.229557 0.229557
0.255100 0.255131 0.255177
0.281453 0.281529 0.281483
0.311772 0.311833 0.311803
0.342809 0.342840 0.342809
0.375235 0.375204 0.375174
0.413489 0.413489 0.413489
0.450080 0.450080 0.450080
0.490089 0.490074 0.490044
0.531502 0.531472 0.531487
0.571832 0.571847 0.571832
0.618189 0.618189 0.618174
0.662776 0.662791 0.662791
0.707591 0.707591 0.707591
0.753216 0.753201 0.753201
0.790204 0.790204 0.790188
0.824918 0.824888 0.824903
0.846906 0.846937 0.846937
0.113634 0.113634 0.113634
0.114046 0.114046 0.114046
0.115618 0.115618 0.115618
0.118257 0.118257 0.118257
0.121950 0.121950 0.121950
0.126314 0.126314 0.126314
0.131212 0.131212 0.131212
0.136996 0.136996 0.136996
0.143984 0.143984 0.143984
0.152483 0.152483 0.152483
0.162829 0.162829 0.162829
0.175357 0.175357 0.175357
0.190005 0.190005 0.190005
0.210117 0.210117 0.210071
0.232288 0.232319 0.232319
0.256550 0.256596 0.256626
0.284688 0.284749 0.284688
0.312902 0.312871 0.312871
0.344122 0.344060 0.344091
0.378744 0.378714 0.378744
0.414862 0.414862 0.414862
0.452537 0.452537 0.452537
0.491173 0.491157 0.491157
0.532372 0.532372 0.532387
0.574731 0.574716 0.574731
0.619333 0.619333 0.619333
0.663737 0.663752 0.663752
0.708583 0.708614 0.708583
0.753765 0.753750 0.753750
0.791592 0.791623 0.791608
0.825422 0.825452 0.825437
0.846952 0.846937 0.846937
0.116472 0.116472 0.116472
0.117052 0.117052 0.117052
0.117998 0.117998 0.117998
0.120714 0.120714 0.120714
0.124636 0.124636 0.124636
0.129183 0.129183 0.129183
0.134066 0.134066 0.134066
0.139635 0.139635 0.139635
0.146304 0.146304 0.146304
0.155291 0.155291 0.155291
0.165698 0.165698 0.165698
0.177798 0.177798 0.177798
0.194217 0.194217 0.194171
0.213794 0.213840 0.213886
0.235828 0.235859 0.235859
0.260304 0.260349 0.260349
0.288289 0.288365 0.288335
0.316075 0.316060 0.316060
0.348516 0.348455 0.348486
0.382818 0.382788 0.382788
0.416388 0.416342 0.416342
0.456092 0.456123 0.456123
0.494270 0.494255 0.494255
0.534188 0.534188 0.534203
0.578058 0.578058 0.578073
0.620630 0.620661 0.620646
0.666301 0.666301 0.666301
0.711055 0.711070 0.711070
0.754360 0.754360 0.754360
0.793439 0.793439 0.793423
0.826062 0.826032 0.826032
0.846967 0.846952 0.846952
0.122683 0.122683 0.122683
0.123003 0.123003 0.123003
0.124147 0.124147 0.124147
0.126238 0.126238 0.126238
0.129748 0.129748 0.129748
0.134295 0.134295 0.134295
0.139437 0.139437 0.139437
0.145083 0.145083 0.145083
0.151705 0.151705 0.151705
0.159823 0.159823 0.159823
0.171237 0.171237 0.171237
0.184970 0.184970 0.184970
0.201022 0.201022 0.200977
0.220340 0.220386 0.220432
0.243046 0.243076 0.243076
0.267674 0.267704 0.267704
0.293446 0.293507 0.293477
0.324010 0.323980 0.323980
0.355322 0.355261 0.355291
0.388479 0.388479 0.388479
0.423560 0.423514 0.423514
0.461204 0.461189 0.461204
0.499031 0.499046 0.499031
0.539208 0.539208 0.539223
0.582742 0.582742 0.582742
0.624537 0.624537 0.624521
0.670222 0.670222 0.670222
0.714595 0.714595 0.714595
0.756054 0.756054 0.756054
0.796109 0.796109 0.796094
0.827924 0.827894 0.827894
0.848768 0.848768 0.848768
0.131441 0.131441 0.131441
0.132113 0.132113 0.132113
0.132876 0.132876 0.132876
0.134737 0.134737 0.134737
0.138170 0.138170 0.138170
0.142443 0.142443 0.142443
0.147601 0.147601 0.147601
0.153796 0.153796 0.153796
0.161029 0.161029 0.161029
0.169574 0.169574 0.169574
0.180789 0.180789 0.180789
0.195071 0.195071 0.195010
0.212024 0.212024 0.211978
0.231708 0.231739 0.231739
0.253712 0.253742 0.253742
0.278584 0.278554 0.278554
0.305974 0.305943 0.305943
0.335317 0.335271 0.335287
0.366110 0.366125 0.366125
0.398550 0.398550 0.398550
0.433356 0.433356 0.433356
0.469139 0.469154 0.469169
0.507912 0.507942 0.507912
0.547921 0.547890 0.547921
0.588968 0.588968 0.588968
0.632044 0.632059 0.632044
0.675395 0.675425 0.675410
0.719432 0.719432 0.719432
0.760693 0.760708 0.760693
0.799588 0.799634 0.799634
0.830869 0.830854 0.830854
0.851331 0.851331 0.851347
0.142580 0.142580 0.142580
0.143069 0.143069 0.143069
0.143984 0.143984 0.143984
0.145708 0.145708 0.145708
0.148455 0.148455 0.148455
0.153735 0.153735 0.153735
0.159701 0.159701 0.159701
0.166247 0.166247 0.166247
0.174502 0.174502 0.174502
0.183780 0.183780 0.183780
0.195407 0.195407 0.195361
0.209934 0.209934 0.209888
0.226917 0.226963 0.226963
0.247074 0.247105 0.247105
0.270069 0.270100 0.270100
0.294987 0.294957 0.294957
0.321630 0.321569 0.321599
0.350469 0.350423 0.350439
0.380575 0.380560 0.380575
0.412665 0.412665 0.412680
0.446143 0.446098 0.446113
0.482002 0.482017 0.482017
0.519554 0.519539 0.519539
0.558862 0.558816 0.558831
0.599268 0.599237 0.599252
0.641474 0.641459 0.641444
0.684566 0.684535 0.684535
0.726467 0.726436 0.726452
0.767102 0.767086 0.767086
0.803983 0.803983 0.803967
0.834714 0.834714 0.834699
0.854185 0.854200 0.854200
0.157198 0.157198 0.157198
0.157656 0.157656 0.157656
0.158221 0.158221 0.158221
0.159945 0.159945 0.159945
0.162829 0.162829 0.162829
0.166903 0.166903 0.166903
0.174685 0.174685 0.174685
0.183398 0.183398 0.183398
0.192523 0.192523 0.192477
0.203235 0.203235 0.203174
0.215244 0.215290 0.215244
0.230304 0.230350 0.230350
0.247868 0.247898 0.247898
0.267491 0.267536 0.267536
0.290333 0.290395 0.290364
0.315175 0.315114 0.315145
0.341543 0.341573 0.341543
0.369314 0.369329 0.369284
0.398901 0.398901 0.398901
0.429999 0.430030 0.430015
0.463096 0.463096 0.463096
0.497566 0.497551 0.497551
0.534340 0.534325 0.534325
0.572168 0.572183 0.572168
0.612345 0.612329 0.612329
0.653117 0.653117 0.653101
0.695354 0.695323 0.695323
0.736034 0.736019 0.736019
0.774487 0.774502 0.774487
0.809659 0.809674 0.809674
0.839368 0.839353 0.839353
0.857771 0.857801 0.857801
0.175464 0.175464 0.175464
0.176013 0.176013 0.176013
0.177112 0.177112 0.177112
0.178729 0.178729 0.178729
0.181338 0.181338 0.181338
0.185992 0.185992 0.185992
0.191959 0.191959 0.191959
0.203174 0.203174 0.203128
0.215656 0.215702 0.215747
0.226963 0.226993 0.226993
0.240787 0.240833 0.240833
0.255787 0.255818 0.255818
0.273671 0.273732 0.273701
0.293477 0.293538 0.293477
0.315114 0.315084 0.315084
0.339559 0.339513 0.339544
0.365332 0.365271 0.365301
0.392310 0.392294 0.392264
0.420508 0.420508 0.420493
0.450904 0.450904 0.450904
0.482506 0.482536 0.482506
0.516274 0.516289 0.516289
0.551522 0.551537 0.551522
0.588907 0.588937 0.588937
0.627237 0.627237 0.627222
0.667445 0.667399 0.667399
0.708232 0.708217 0.708232
0.746838 0.746838 0.746838
0.782788 0.782742 0.782773
0.816388 0.816403 0.816373
0.845167 0.845167 0.845167
0.863325 0.863310 0.863294
0.199573 0.199619 0.199664
0.200351 0.200351 0.200290
0.201511 0.201511 0.201465
0.203281 0.203327 0.203372
0.206638 0.206638 0.206592
0.210956 0.211002 0.211048
0.217365 0.217411 0.217441
0.225711 0.225757 0.225757
0.239124 0.239170 0.239170
0.253895 0.253925 0.253971
0.269200 0.269245 0.269245
0.286839 0.286900 0.286870
0.304219 0.304280 0.304250
0.323507 0.323568 0.323537
0.344747 0.344778 0.344778
0.367605 0.367559 0.367559
0.392599 0.392584 0.392554
0.418418 0.418463 0.418448
0.445823 0.445823 0.445823
0.474479 0.474479 0.474449
0.505394 0.505409 0.505409
0.537453 0.537423 0.537438
0.571405 0.571389 0.571405
0.607187 0.607218 0.607233
0.645121 0.645121 0.645121
0.683055 0.683055 0.683055
0.722652 0.722652 0.722652
0.758511 0.758511 0.758511
0.792935 0.792966 0.792935
0.823514 0.823484 0.823499
0.851392 0.851362 0.851392
0.868895 0.868895 0.868895
0.230732 0.230777 0.230777
0.231403 0.231449 0.231449
0.232197 0.232242 0.232242
0.234134 0.234180 0.234180
0.237278 0.237324 0.237324
0.242069 0.242100 0.242100
0.248173 0.248219 0.248219
0.256550 0.256596 0.256596
0.266682 0.266728 0.266728
0.281529 0.281590 0.281529
0.297566 0.297627 0.297597
0.316976 0.316945 0.316945
0.338582 0.338598 0.338582
0.357961 0.357916 0.357931
0.378286 0.378256 0.378286
0.400519 0.400519 0.400519
0.423636 0.423636 0.423636
0.448341 0.448341 0.448341
0.473472 0.473503 0.473472
0.500557 0.500572 0.500572
0.529549 0.529534 0.529534
0.560739 0.560708 0.560708
0.593271 0.593240 0.593256
0.628229 0.628214 0.628245
0.664118 0.664149 0.664164
0.701335 0.701366 0.701351
0.737789 0.737743 0.737774
0.771923 0.771939 0.771923
0.802472 0.802472 0.802472
0.831846 0.831830 0.831846
0.857466 0.857481 0.857481
0.876097 0.876097 0.876097
0.267811 0.267842 0.267842
0.268421 0.268467 0.268467
0.269200 0.269245 0.269245
0.271275 0.271305 0.271336
0.274449 0.274510 0.274479
0.279240 0.279301 0.279271
0.285328 0.285405 0.285359
0.293095 0.293156 0.293126
0.303304 0.303273 0.303273
0.315328 0.315297 0.315297
0.331075 0.331106 0.331106
0.348867 0.348821 0.348852
0.370855 0.370810 0.370810
0.394644 0.394644 0.394644
0.415396 0.415351 0.415351
0.435416 0.435416 0.435416
0.457176 0.457176 0.457176
0.479255 0.479255 0.479240
0.503334 0.503410 0.503365
0.528542 0.528527 0.528527
0.556649 0.556619 0.556619
0.586206 0.586206 0.586206
0.618067 0.618097 0.618082
0.651103 0.651103 0.651087
0.685527 0.685512 0.685527
0.718944 0.718944 0.718944
0.753262 0.753277 0.753292
0.785626 0.785611 0.785611
0.814191 0.814160 0.814191
0.839750 0.839780 0.839765
0.863935 0.863920 0.863920
0.883833 0.883848 0.883848
0.309102 0.309102 0.309133
0.310369 0.310338 0.310338
0.311803 0.311772 0.311772
0.313863 0.313832 0.313832
0.316762 0.316747 0.316747
0.321340 0.321325 0.321325
0.327291 0.327276 0.327276
0.334615 0.334630 0.334615
0.343526 0.343465 0.343496
0.355123 0.355139 0.355093
0.368246 0.368277 0.368246
0.384939 0.384939 0.384939
0.403525 0.403525 0.403525
0.426825 0.426825 0.426825
0.452262 0.452293 0.452277
0.472923 0.472953 0.472923
0.492531 0.492546 0.492531
0.513542 0.513527 0.513527
0.535561 0.535561 0.535576
0.560052 0.560006 0.560052
0.585519 0.585550 0.585550
0.613764 0.613794 0.613779
0.643290 0.643275 0.643275
0.674907 0.674907 0.674907
0.707317 0.707332 0.707317
0.738888 0.738888 0.738888
0.768704 0.768704 0.768719
0.798947 0.798962 0.798962
0.825513 0.825498 0.825528
0.849470 0.849470 0.849470
0.870848 0.870832 0.870832
0.889326 0.889326 0.889326
0.355932 0.355886 0.355917
0.356451 0.356405 0.356451
0.357336 0.357290 0.357321
0.359152 0.359106 0.359121
0.362554 0.362509 0.362554
0.366857 0.366812 0.366842
0.372458 0.372473 0.372458
0.379583 0.379599 0.379553
0.388052 0.388022 0.388006
0.398077 0.398077 0.398077
0.410620 0.410620 0.410620
0.424445 0.424445 0.424445
0.441566 0.441566 0.441566
0.462455 0.462455 0.462455
0.485664 0.485679 0.485679
0.509438 0.509453 0.509453
0.529824 0.529824 0.529839
0.548547 0.548547 0.548562
0.568841 0.568795 0.568826
0.591272 0.591226 0.591257
0.615961 0.615992 0.615976
0.642054 0.642084 0.642069
0.670451 0.670466 0.670451
0.699260 0.699245 0.699229
0.729625 0.729625 0.729656
0.758557 0.758557 0.758557
0.786297 0.786313 0.786313
0.811856 0.811872 0.811872
0.836973 0.836942 0.836973
0.858091 0.858122 0.858122
0.878492 0.878508 0.878508
0.894011 0.894011 0.893996
0.406165 0.406165 0.406165
0.406867 0.406867 0.406867
0.407538 0.407584 0.407584
0.408637 0.408682 0.408682
0.411017 0.411017 0.411017
0.414969 0.414969 0.414969
0.420325 0.420325 0.420325
0.426627 0.426627 0.426627
0.434180 0.434211 0.434196
0.443549 0.443549 0.443549
0.454093 0.454093 0.454093
0.466850 0.466896 0.466880
0.480568 0.480598 0.480598
0.498329 0.498314 0.498299
0.519646 0.519631 0.519631
0.542229 0.542229 0.542214
0.565042 0.564981 0.564996
0.584741 0.584695 0.584726
0.603296 0.603265 0.603281
0.624048 0.624033 0.624033
0.647150 0.647150 0.647150
0.672145 0.672160 0.672160
0.698482 0.698482 0.698482
0.724834 0.724804 0.724819
0.750897 0.750897 0.750912
0.777539 0.777539 0.777554
0.801923 0.801923 0.801923
0.825788 0.825803 0.825773
0.847379 0.847395 0.847395
0.867460 0.867491 0.867475
0.885481 0.885496 0.885496
0.898100 0.898131 0.898116
0.454429 0.454398 0.454414
0.455436 0.455421 0.455467
0.456581 0.456596 0.456611
0.458335 0.458290 0.458290
0.460578 0.460548 0.460578
0.463630 0.463645 0.463676
0.468284 0.468284 0.468269
0.474144 0.474144 0.474113
0.480873 0.480842 0.480842
0.488640 0.488624 0.488624
0.498390 0.498360 0.498360
0.509407 0.509422 0.509407
0.521920 0.521950 0.521950
0.535561 0.535561 0.535576
0.552712 0.552728 0.552712
0.575052 0.575036 0.575052
0.597406 0.597360 0.597391
0.618067 0.618067 0.618082
0.638483 0.638483 0.638499
0.657328 0.657328 0.657343
0.678447 0.678447 0.678431
0.701167 0.701198 0.701167
0.725231 0.725231 0.725216
0.749416 0.749386 0.749371
0.772396 0.772396 0.772381
0.795193 0.795193 0.795209
0.817746 0.817762 0.817777
0.838193 0.838209 0.838209
0.858183 0.858183 0.858183
0.876509 0.876494 0.876494
0.893126 0.893111 0.893126
0.904479 0.904463 0.904479
0.503716 0.503731 0.503731
0.503914 0.503975 0.503960
0.504204 0.504219 0.504234
0.505425 0.505440 0.505455
0.508202 0.508217 0.508232
0.511696 0.511681 0.511696
0.515831 0.515862 0.515877
0.520867 0.520867 0.520882
0.527138 0.527138 0.527153
0.534218 0.534188 0.534203
0.541970 0.541970 0.541955
0.552270 0.552239 0.552239
0.563394 0.563409 0.563409
0.575799 0.575814 0.575799
0.588983 0.588983 0.588983
0.605570 0.605539 0.605539
0.626429 0.626429 0.626429
0.648158 0.648203 0.648188
0.669444 0.669444 0.669444
0.690501 0.690471 0.690486
0.709423 0.709453 0.709438
0.729290 0.729290 0.729275
0.750317 0.750317 0.750317
0.771878 0.771862 0.771862
0.792798 0.792798 0.792783
0.812619 0.812619 0.812589
0.832319 0.832334 0.832334
0.850614 0.850599 0.850599
0.867872 0.867887 0.867872
0.884764 0.884779 0.884779
0.900527 0.900527 0.900542
0.910903 0.910903 0.910903
0.553323 0.553338 0.553323
0.553811 0.553811 0.553811
0.554376 0.554345 0.554376
0.555245 0.555261 0.555245
0.556436 0.556451 0.556436
0.558831 0.558801 0.558831
0.562753 0.562768 0.562753
0.567422 0.567407 0.567422
0.572808 0.572824 0.572808
0.579126 0.579080 0.579095
0.586236 0.586267 0.586252
0.594263 0.594217 0.594232
0.604334 0.604303 0.604318
0.615396 0.615381 0.615396
0.627314 0.627344 0.627329
0.639963 0.640009 0.639994
0.654978 0.654994 0.654994
0.675059 0.675090 0.675044
0.695827 0.695842 0.695811
0.717540 0.717540 0.717540
0.738460 0.738460 0.738445
0.756222 0.756207 0.756207
0.773800 0.773785 0.773770
0.792523 0.792554 0.792538
0.811170 0.811185 0.811185
0.828931 0.828946 0.828946
0.845686 0.845716 0.845716
0.862318 0.862318 0.862303
0.877592 0.877638 0.877607
0.892729 0.892744 0.892744
0.907103 0.907088 0.907103
0.918441 0.918410 0.918425
0.597574 0.597589 0.597589
0.598383 0.598413 0.598413
0.599329 0.599329 0.599329
0.600717 0.600717 0.600717
0.602487 0.602503 0.602503
0.604746 0.604746 0.604761
0.607508 0.607492 0.607492
0.611719 0.611734 0.611750
0.616922 0.616892 0.616877
0.622690 0.622675 0.622660
0.629236 0.629206 0.629191
0.636851 0.636835 0.636820
0.645060 0.645060 0.645060
0.655070 0.655070 0.655085
0.665995 0.666026 0.666026
0.677485 0.677516 0.677470
0.689616 0.689647 0.689632
0.703075 0.703090 0.703075
0.721340 0.721340 0.721340
0.740169 0.740139 0.740154
0.760357 0.760357 0.760357
0.780194 0.780209 0.780209
0.796094 0.796094 0.796078
0.811215 0.811231 0.811231
0.827543 0.827558 0.827543
0.843137 0.843107 0.843122
0.858320 0.858320 0.858335
0.872831 0.872831 0.872847
0.887114 0.887144 0.887129
0.900633 0.900633 0.900649
0.914168 0.914153 0.914153
0.926284 0.926238 0.926253
0.644465 0.644480 0.644480
0.644617 0.644663 0.644648
0.644892 0.644877 0.644877
0.645502 0.645457 0.645472
0.647486 0.647501 0.647501
0.650156 0.650156 0.650156
0.653361 0.653376 0.653376
0.657176 0.657145 0.657160
0.661585 0.661585 0.661585
0.666865 0.666865 0.666880
0.672831 0.672801 0.672786
0.679103 0.679072 0.679103
0.686748 0.686717 0.686717
0.694972 0.694987 0.694972
0.704128 0.704173 0.704173
0.714412 0.714412 0.714412
0.724544 0.724559 0.724575
0.735515 0.735531 0.735546
0.746578 0.746593 0.746578
0.762249 0.762264 0.762264
0.777249 0.777264 0.777264
0.796552 0.796582 0.796567
0.815488 0.815503 0.815503
0.829282 0.829313 0.829297
0.842268 0.842268 0.842252
0.856367 0.856382 0.856382
0.869581 0.869596 0.869596
0.882994 0.883009 0.883009
0.895949 0.895933 0.895918
0.908537 0.908568 0.908553
0.920638 0.920623 0.920623
0.930159 0.930175 0.930175
0.690623 0.690654 0.690639
0.691035 0.691066 0.691051
0.691539 0.691508 0.691524
0.692180 0.692210 0.692195
0.693111 0.693156 0.693126
0.694392 0.694408 0.694392
0.697337 0.697337 0.697322
0.700893 0.700877 0.700893
0.704982 0.704952 0.704952
0.709468 0.709453 0.709468
0.714504 0.714504 0.714504
0.720134 0.720134 0.720134
0.726024 0.726024 0.726009
0.733166 0.733166 0.733150
0.740887 0.740902 0.740902
0.748913 0.748928 0.748928
0.758038 0.758053 0.758053
0.766629 0.766644 0.766659
0.776242 0.776211 0.776227
0.785290 0.785290 0.785290
0.798337 0.798337 0.798352
0.811215 0.811231 0.811231
0.827894 0.827909 0.827894
0.844648 0.844648 0.844648
0.856825 0.856809 0.856809
0.868177 0.868162 0.868147
0.880446 0.880446 0.880446
0.892073 0.892088 0.892088
0.904173 0.904204 0.904189
0.915892 0.915908 0.915908
0.927230 0.927214 0.927214
0.935088 0.935103 0.935103
0.732219 0.732250 0.732250
0.732723 0.732723 0.732708
0.733364 0.733364 0.733349
0.734340 0.734340 0.734325
0.735699 0.735699 0.735699
0.737423 0.737423 0.737423
0.739529 0.739529 0.739529
0.742107 0.742123 0.742123
0.745632 0.745647 0.745663
0.749630 0.749645 0.749630
0.753918 0.753933 0.753933
0.758450 0.758419 0.758404
0.763394 0.763363 0.763348
0.768628 0.768643 0.768643
0.774624 0.774609 0.774624
0.781491 0.781476 0.781476
0.788174 0.788159 0.788159
0.795972 0.795941 0.795941
0.802960 0.802976 0.802976
0.811063 0.811093 0.811093
0.818570 0.818616 0.818616
0.829267 0.829252 0.829252
0.839628 0.839597 0.839597
0.853880 0.853864 0.853864
0.868711 0.868681 0.868666
0.879850 0.879835 0.879820
0.890242 0.890242 0.890242
0.901289 0.901320 0.901305
0.911894 0.911894 0.911910
0.922866 0.922866 0.922866
0.933578 0.933562 0.933562
0.940642 0.940642 0.940642
0.770291 0.770321 0.770321
0.770443 0.770474 0.770474
0.770626 0.770642 0.770626
0.771191 0.771206 0.771206
0.772396 0.772381 0.772396
0.773968 0.773968 0.773983
0.775967 0.775967 0.775982
0.778332 0.778332 0.778347
0.781048 0.781064 0.781064
0.784360 0.784360 0.784360
0.787976 0.787976 0.787991
0.791928 0.791928 0.791943
0.795941 0.795956 0.795972
0.800259 0.800275 0.800290
0.804959 0.804929 0.804929
0.809979 0.809949 0.809964
0.815839 0.815854 0.815854
0.821439 0.821424 0.821424
0.827863 0.827878 0.827863
0.833814 0.833799 0.833814
0.840574 0.840574 0.840574
0.846632 0.846632 0.846632
0.855100 0.855085 0.855085
0.864057 0.864042 0.864042
0.876127 0.876112 0.876112
0.889357 0.889357 0.889357
0.899901 0.899886 0.899901
0.909545 0.909529 0.909545
0.919539 0.919570 0.919554
0.929305 0.929305 0.929305
0.938964 0.938979 0.938994
0.947936 0.947936 0.947936
0.804227 0.804242 0.804242
0.804486 0.804501 0.804501
0.804791 0.804791 0.804807
0.805173 0.805219 0.805203
0.805737 0.805783 0.805768
0.806470 0.806485 0.806485
0.807996 0.808042 0.808026
0.810040 0.810071 0.810071
0.812329 0.812360 0.812360
0.814893 0.814939 0.814923
0.817884 0.817899 0.817899
0.821149 0.821164 0.821164
0.824643 0.824628 0.824674
0.828244 0.828214 0.828244
0.831876 0.831846 0.831846
0.835752 0.835767 0.835767
0.839872 0.839902 0.839902
0.844770 0.844755 0.844755
0.849409 0.849393 0.849393
0.854749 0.854734 0.854734
0.859754 0.859724 0.859709
0.865156 0.865156 0.865141
0.870207 0.870192 0.870176
0.877272 0.877257 0.877241
0.884794 0.884810 0.884810
0.895384 0.895369 0.895384
0.907546 0.907530 0.907546
0.917510 0.917525 0.917525
0.926574 0.926574 0.926543
0.935760 0.935744 0.935760
0.944701 0.944717 0.944717
0.951766 0.951766 0.951751
0.832670 0.832685 0.832685
0.832883 0.832853 0.832883
0.833097 0.833112 0.833112
0.833539 0.833524 0.833539
0.834196 0.834196 0.834196
0.834989 0.835004 0.835004
0.835996 0.836027 0.836027
0.837339 0.837308 0.837308
0.839216 0.839200 0.839200
0.841321 0.841321 0.841306
0.843549 0.843549 0.843549
0.846052 0.846037 0.846037
0.848905 0.848905 0.848905
0.851835 0.851804 0.851820
0.854978 0.854948 0.854948
0.858076 0.858061 0.858061
0.861402 0.861418 0.861418
0.864958 0.864942 0.864942
0.869032 0.869047 0.869047
0.873121 0.873106 0.873106
0.877485 0.877485 0.877485
0.881727 0.881743 0.881727
0.886229 0.886244 0.886244
0.890578 0.890578 0.890578
0.896483 0.896513 0.896498
0.903594 0.903578 0.903578
0.912718 0.912718 0.912718
0.923735 0.923720 0.923735
0.933272 0.933242 0.933257
0.941741 0.941711 0.941726
0.950118 0.950103 0.950103
0.955871 0.955856 0.955856
0.856764 0.856764 0.856779
0.856840 0.856825 0.856825
0.856886 0.856886 0.856886
0.857298 0.857282 0.857282
0.857847 0.857832 0.857832
0.858564 0.858549 0.858534
0.859541 0.859510 0.859510
0.860685 0.860670 0.860655
0.862013 0.862013 0.862013
0.863569 0.863569 0.863554
0.865522 0.865538 0.865538
0.867521 0.867536 0.867536
0.869703 0.869719 0.869719
0.872160 0.872190 0.872190
0.874739 0.874785 0.874769
0.877501 0.877516 0.877516
0.880324 0.880339 0.880339
0.883314 0.883360 0.883345
0.886442 0.886458 0.886458
0.890044 0.890044 0.890059
0.893629 0.893629 0.893645
0.897383 0.897368 0.897368
0.901091 0.901122 0.901106
0.904936 0.904967 0.904952
0.908782 0.908766 0.908766
0.913909 0.913909 0.913924
0.920180 0.920195 0.920195
0.928267 0.928252 0.928252
0.938338 0.938308 0.938338
0.947326 0.947280 0.947311
0.955032 0.955032 0.955032
0.960937 0.960906 0.960922
0.878279 0.878264 0.878264
0.878370 0.878370 0.878355
0.878508 0.878508 0.878492
0.878706 0.878706 0.878691
0.879011 0.878996 0.878996
0.879347 0.879347 0.879347
0.880049 0.880095 0.880079
0.881117 0.881132 0.881132
0.882292 0.882307 0.882307
0.883604 0.883619 0.883619
0.885069 0.885084 0.885084
0.886809 0.886839 0.886824
0.888686 0.888716 0.888701
0.890639 0.890654 0.890654
0.892836 0.892821 0.892821
0.895140 0.895125 0.895125
0.897582 0.897566 0.897566
0.900130 0.900114 0.900114
0.902831 0.902831 0.902846
0.905669 0.905669 0.905654
0.908751 0.908751 0.908736
0.911879 0.911879 0.911894
0.915099 0.915099 0.915084
0.918380 0.918380 0.918364
0.921691 0.921706 0.921706
0.925063 0.925048 0.925063
0.929336 0.929351 0.929351
0.935180 0.935180 0.935180
0.942092 0.942092 0.942092
0.951309 0.951324 0.951324
0.959579 0.959579 0.959594
0.966049 0.966049 0.966049
0.897108 0.897108 0.897078
0.897185 0.897215 0.897200
0.897307 0.897337 0.897322
0.897475 0.897505 0.897490
0.897719 0.897765 0.897734
0.898161 0.898192 0.898177
0.898726 0.898756 0.898741
0.899397 0.899397 0.899413
0.900267 0.900298 0.900267
0.901442 0.901473 0.901457
0.902724 0.902724 0.902739
0.904067 0.904051 0.904067
0.905562 0.905592 0.905577
0.907301 0.907332 0.907317
0.909056 0.909087 0.909072
0.910979 0.910979 0.910964
0.913100 0.913100 0.913085
0.915267 0.915267 0.915267
0.917586 0.917601 0.917601
0.920073 0.920089 0.920089
0.922698 0.922652 0.922667
0.925353 0.925353 0.925353
0.928176 0.928176 0.928145
0.930968 0.930953 0.930968
0.933913 0.933883 0.933913
0.936767 0.936797 0.936782
0.939773 0.939803 0.939803
0.943374 0.943374 0.943374
0.948592 0.948608 0.948608
0.954620 0.954635 0.954635
0.962982 0.963027 0.962997
0.969131 0.969146 0.969146
0.913634 0.913665 0.913649
0.913680 0.913710 0.913695
0.913832 0.913863 0.913848
0.914076 0.914061 0.914061
0.914382 0.914382 0.914366
0.914778 0.914778 0.914778
0.915267 0.915267 0.915267
0.915892 0.915877 0.915892
0.916671 0.916671 0.916655
0.917571 0.917571 0.917556
0.918654 0.918639 0.918639
0.919860 0.919890 0.919875
0.921157 0.921157 0.921141
0.922561 0.922561 0.922545
0.924163 0.924163 0.924163
0.925811 0.925811 0.925795
0.927550 0.927535 0.927535
0.929458 0.929458 0.929458
