content/luts/b&w/black_and_white_06.cube
#Created by: inPixio
#Copyright: (C) Copyright 2019 inPixio
TITLE "B&W 6"
#LUT size
LUT_3D_SIZE 32
#data domain
DOMAIN_MIN 0.0 0.0 0.0
DOMAIN_MAX 1.0 1.0 1.0
#LUT data points
0.022278 0.022278 0.022278
0.027955 0.027955 0.027955
0.032883 0.032883 0.032883
0.036316 0.036316 0.036316
0.035706 0.035706 0.035706
0.035508 0.035508 0.035508
0.036118 0.036118 0.036118
0.041230 0.041230 0.041230
0.039887 0.039887 0.039887
0.045823 0.045823 0.045823
0.051316 0.051316 0.051316
0.051972 0.051972 0.051972
0.061799 0.061799 0.061799
0.060929 0.060929 0.060929
0.063798 0.063798 0.063798
0.072251 0.072251 0.072251
0.065354 0.065354 0.065354
0.074403 0.074403 0.074403
0.075029 0.075029 0.075029
0.072511 0.072511 0.072511
0.088518 0.088518 0.088518
0.079912 0.079912 0.079912
0.087968 0.087968 0.087968
0.095903 0.095903 0.095903
0.085496 0.085496 0.085496
0.107164 0.107164 0.107164
0.102937 0.102937 0.102937
0.105974 0.105974 0.105974
0.127184 0.127184 0.127184
0.109361 0.109361 0.109361
0.132265 0.132265 0.132265
0.136324 0.136324 0.136324
0.043427 0.043427 0.043427
0.046555 0.046555 0.046555
0.048142 0.048142 0.048142
0.049348 0.049348 0.049348
0.049683 0.049683 0.049683
0.050660 0.050660 0.050660
0.050996 0.050996 0.050996
0.050996 0.050996 0.050996
0.053925 0.053925 0.053925
0.056931 0.056931 0.056931
0.060197 0.060197 0.060197
0.063523 0.063523 0.063523
0.068849 0.068849 0.068849
0.069780 0.069780 0.069780
0.073167 0.073167 0.073167
0.077958 0.077958 0.077958
0.074540 0.074540 0.074540
0.081132 0.081132 0.081132
0.080888 0.080888 0.080888
0.082170 0.082170 0.082170
0.095598 0.095598 0.095598
0.087968 0.087968 0.087968
0.095003 0.095003 0.095003
0.101671 0.101671 0.101671
0.095598 0.095598 0.095598
0.114824 0.114824 0.114824
0.109087 0.109087 0.109087
0.114138 0.114138 0.114138
0.133471 0.133471 0.133471
0.119188 0.119188 0.119188
0.140597 0.140597 0.140597
0.143145 0.143145 0.143145
0.058808 0.058808 0.058808
0.061357 0.061357 0.061357
0.063798 0.063798 0.063798
0.064652 0.064652 0.064652
0.064378 0.064378 0.064378
0.063951 0.063951 0.063951
0.064378 0.064378 0.064378
0.064805 0.064805 0.064805
0.066468 0.066468 0.066468
0.067735 0.067735 0.067735
0.070954 0.070954 0.070954
0.075151 0.075151 0.075151
0.077226 0.077226 0.077226
0.080888 0.080888 0.080888
0.083909 0.083909 0.083909
0.086961 0.086961 0.086961
0.084611 0.084611 0.084611
0.090806 0.090806 0.090806
0.091981 0.091981 0.091981
0.093202 0.093202 0.093202
0.103212 0.103212 0.103212
0.098344 0.098344 0.098344
0.105196 0.105196 0.105196
0.109453 0.109453 0.109453
0.107256 0.107256 0.107256
0.123323 0.123323 0.123323
0.120073 0.120073 0.120073
0.125689 0.125689 0.125689
0.140749 0.140749 0.140749
0.131212 0.131212 0.131212
0.150149 0.150149 0.150149
0.150744 0.150744 0.150744
0.070161 0.070161 0.070161
0.072786 0.072786 0.072786
0.074403 0.074403 0.074403
0.075517 0.075517 0.075517
0.075883 0.075883 0.075883
0.075883 0.075883 0.075883
0.076127 0.076127 0.076127
0.076493 0.076493 0.076493
0.077104 0.077104 0.077104
0.079301 0.079301 0.079301
0.081483 0.081483 0.081483
0.084367 0.084367 0.084367
0.086732 0.086732 0.086732
0.091127 0.091127 0.091127
0.093294 0.093294 0.093294
0.094896 0.094896 0.094896
0.098436 0.098436 0.098436
0.100588 0.100588 0.100588
0.105379 0.105379 0.105379
0.108446 0.108446 0.108446
0.111971 0.111971 0.111971
0.112764 0.112764 0.112764
0.119753 0.119753 0.119753
0.125124 0.125124 0.125124
0.123491 0.123491 0.123491
0.137301 0.137301 0.137301
0.136172 0.136172 0.136172
0.142016 0.142016 0.142016
0.154131 0.154131 0.154131
0.149142 0.149142 0.149142
0.166735 0.166735 0.166735
0.168216 0.168216 0.168216
0.074159 0.074159 0.074159
0.076982 0.076982 0.076982
0.080034 0.080034 0.080034
0.081834 0.081834 0.081834
0.083452 0.083452 0.083452
0.084718 0.084718 0.084718
0.085283 0.085283 0.085283
0.086275 0.086275 0.086275
0.087068 0.087068 0.087068
0.088624 0.088624 0.088624
0.090913 0.090913 0.090913
0.093400 0.093400 0.093400
0.095903 0.095903 0.095903
0.098634 0.098634 0.098634
0.101564 0.101564 0.101564
0.104601 0.104601 0.104601
0.108080 0.108080 0.108080
0.112139 0.112139 0.112139
0.116396 0.116396 0.116396
0.120317 0.120317 0.120317
0.122606 0.122606 0.122606
0.128039 0.128039 0.128039
0.131441 0.131441 0.131441
0.137743 0.137743 0.137743
0.144610 0.144610 0.144610
0.148333 0.148333 0.148333
0.157137 0.157137 0.157137
0.163012 0.163012 0.163012
0.169635 0.169635 0.169635
0.172671 0.172671 0.172671
0.187732 0.187732 0.187732
0.192004 0.192004 0.192004
0.076005 0.076005 0.076005
0.078080 0.078080 0.078080
0.081010 0.081010 0.081010
0.084947 0.084947 0.084947
0.087968 0.087968 0.087968
0.090593 0.090593 0.090593
0.092897 0.092897 0.092897
0.094255 0.094255 0.094255
0.095796 0.095796 0.095796
0.096986 0.096986 0.096986
0.099031 0.099031 0.099031
0.101473 0.101473 0.101473
0.104234 0.104234 0.104234
0.107256 0.107256 0.107256
0.110903 0.110903 0.110903
0.114824 0.114824 0.114824
0.118944 0.118944 0.118944
0.122850 0.122850 0.122850
0.126940 0.126940 0.126940
0.131060 0.131060 0.131060
0.135531 0.135531 0.135531
0.139498 0.139498 0.139498
0.145907 0.145907 0.145907
0.151583 0.151583 0.151583
0.157198 0.157198 0.157198
0.161898 0.161898 0.161898
0.171008 0.171008 0.171008
0.178073 0.178073 0.178073
0.186252 0.186252 0.186252
0.200198 0.200198 0.200153
0.204898 0.204898 0.204852
0.212329 0.212375 0.212421
0.076738 0.076738 0.076738
0.079912 0.079912 0.079912
0.083223 0.083223 0.083223
0.086610 0.086610 0.086610
0.091020 0.091020 0.091020
0.094789 0.094789 0.094789
0.097520 0.097520 0.097520
0.100099 0.100099 0.100099
0.101869 0.101869 0.101869
0.104234 0.104234 0.104234
0.106249 0.106249 0.106249
0.109545 0.109545 0.109545
0.113207 0.113207 0.113207
0.117311 0.117311 0.117311
0.121370 0.121370 0.121370
0.125689 0.125689 0.125689
0.129992 0.129992 0.129992
0.134661 0.134661 0.134661
0.139010 0.139010 0.139010
0.143771 0.143771 0.143771
0.148516 0.148516 0.148516
0.154192 0.154192 0.154192
0.159152 0.159152 0.159152
0.164736 0.164736 0.164736
0.170886 0.170886 0.170886
0.177676 0.177676 0.177676
0.184756 0.184756 0.184756
0.195117 0.195117 0.195071
0.204944 0.204944 0.204898
0.215152 0.215198 0.215152
0.225361 0.225406 0.225406
0.231540 0.231571 0.231571
0.076738 0.076738 0.076738
0.079301 0.079301 0.079301
0.083680 0.083680 0.083680
0.089616 0.089616 0.089616
0.094148 0.094148 0.094148
0.097826 0.097826 0.097826
0.101564 0.101564 0.101564
0.104143 0.104143 0.104143
0.106889 0.106889 0.106889
0.110094 0.110094 0.110094
0.114046 0.114046 0.114046
0.117907 0.117907 0.117907
0.123079 0.123079 0.123079
0.127657 0.127657 0.127657
0.132723 0.132723 0.132723
0.137148 0.137148 0.137148
0.141939 0.141939 0.141939
0.146365 0.146365 0.146365
0.151843 0.151843 0.151843
0.157595 0.157595 0.157595
0.163134 0.163134 0.163134
0.168383 0.168383 0.168383
0.174685 0.174685 0.174685
0.180575 0.180575 0.180575
0.187091 0.187091 0.187091
0.193759 0.193759 0.193713
0.202640 0.202640 0.202594
0.211978 0.211978 0.211933
0.222782 0.222828 0.222782
0.234012 0.234058 0.234058
0.244419 0.244450 0.244450
0.249500 0.249531 0.249531
0.081239 0.081239 0.081239
0.084260 0.084260 0.084260
0.088304 0.088304 0.088304
0.093507 0.093507 0.093507
0.099413 0.099413 0.099413
0.104143 0.104143 0.104143
0.107713 0.107713 0.107713
0.110811 0.110811 0.110811
0.113878 0.113878 0.113878
0.117220 0.117220 0.117220
0.121782 0.121782 0.121782
0.126940 0.126940 0.126940
0.131746 0.131746 0.131746
0.137453 0.137453 0.137453
0.142290 0.142290 0.142290
0.147860 0.147860 0.147860
0.153536 0.153536 0.153536
0.159579 0.159579 0.159579
0.165515 0.165515 0.165515
0.172274 0.172274 0.172274
0.178393 0.178393 0.178393
0.184970 0.184970 0.184970
0.190570 0.190570 0.190570
0.197803 0.197803 0.197757
0.205142 0.205142 0.205097
0.213138 0.213184 0.213230
0.221607 0.221653 0.221607
0.232609 0.232654 0.232654
0.243427 0.243473 0.243473
0.253773 0.253819 0.253819
0.263279 0.263310 0.263310
0.271168 0.271214 0.271214
0.091890 0.091890 0.091890
0.094362 0.094362 0.094362
0.097093 0.097093 0.097093
0.101274 0.101274 0.101274
0.106432 0.106432 0.106432
0.110811 0.110811 0.110811
0.114992 0.114992 0.114992
0.117739 0.117739 0.117739
0.120638 0.120638 0.120638
0.124224 0.124224 0.124224
0.128420 0.128420 0.128420
0.134447 0.134447 0.134447
0.141100 0.141100 0.141100
0.147601 0.147601 0.147601
0.154315 0.154315 0.154315
0.160388 0.160388 0.160388
0.166842 0.166842 0.166842
0.172854 0.172854 0.172854
0.179263 0.179263 0.179263
0.185138 0.185138 0.185138
0.192828 0.192828 0.192783
0.199619 0.199619 0.199573
0.208209 0.208209 0.208164
0.216648 0.216693 0.216739
0.226368 0.226398 0.226368
0.235050 0.235096 0.235096
0.244572 0.244602 0.244602
0.253971 0.254002 0.253971
0.264134 0.264179 0.264179
0.274723 0.274785 0.274754
0.285893 0.285969 0.285924
0.294926 0.294896 0.294896
0.101274 0.101274 0.101274
0.103304 0.103304 0.103304
0.105669 0.105669 0.105669
0.110185 0.110185 0.110185
0.115877 0.115877 0.115877
0.119997 0.119997 0.119997
0.124804 0.124804 0.124804
0.128649 0.128649 0.128649
0.132189 0.132189 0.132189
0.136324 0.136324 0.136324
0.141390 0.141390 0.141390
0.147128 0.147128 0.147128
0.153277 0.153277 0.153277
0.159457 0.159457 0.159457
0.165271 0.165271 0.165271
0.171130 0.171130 0.171130
0.176700 0.176700 0.176700
0.183063 0.183063 0.183063
0.189838 0.189838 0.189838
0.198978 0.199023 0.199069
0.208438 0.208484 0.208530
0.218967 0.219013 0.218967
0.227924 0.227970 0.227970
0.238087 0.238117 0.238117
0.246677 0.246723 0.246723
0.256931 0.256977 0.256977
0.265705 0.265751 0.265751
0.275868 0.275929 0.275898
0.287877 0.287846 0.287846
0.301411 0.301473 0.301442
0.313497 0.313466 0.313466
0.322988 0.322942 0.322972
0.109728 0.109728 0.109728
0.112413 0.112413 0.112413
0.115435 0.115435 0.115435
0.119753 0.119753 0.119753
0.125292 0.125292 0.125292
0.131518 0.131518 0.131518
0.136172 0.136172 0.136172
0.140002 0.140002 0.140002
0.144122 0.144122 0.144122
0.147860 0.147860 0.147860
0.152224 0.152224 0.152224
0.157519 0.157519 0.157519
0.163378 0.163378 0.163378
0.169390 0.169390 0.169390
0.175631 0.175631 0.175631
0.182467 0.182467 0.182467
0.190051 0.190051 0.190051
0.197757 0.197757 0.197711
0.207095 0.207095 0.207050
0.216434 0.216480 0.216526
0.226368 0.226398 0.226398
0.235584 0.235615 0.235615
0.246250 0.246281 0.246250
0.255573 0.255604 0.255573
0.266346 0.266377 0.266377
0.277623 0.277684 0.277653
0.290974 0.290944 0.290944
0.302724 0.302785 0.302754
0.316564 0.316533 0.316533
0.329381 0.329320 0.329351
0.339376 0.339330 0.339345
0.345953 0.345907 0.345937
0.123568 0.123568 0.123568
0.125124 0.125124 0.125124
0.127565 0.127565 0.127565
0.131060 0.131060 0.131060
0.135821 0.135821 0.135821
0.141665 0.141665 0.141665
0.147936 0.147936 0.147936
0.153277 0.153277 0.153277
0.157595 0.157595 0.157595
0.162036 0.162036 0.162036
0.166674 0.166674 0.166674
0.172168 0.172168 0.172168
0.178348 0.178348 0.178348
0.184863 0.184863 0.184863
0.191653 0.191653 0.191653
0.197940 0.197940 0.197894
0.204944 0.204944 0.204898
0.212207 0.212253 0.212299
0.220203 0.220249 0.220203
0.229770 0.229801 0.229801
0.240238 0.240284 0.240284
0.251331 0.251362 0.251362
0.263020 0.263066 0.263066
0.276631 0.276600 0.276600
0.289052 0.289021 0.289021
0.302968 0.302968 0.302998
0.315740 0.315709 0.315709
0.329381 0.329381 0.329351
0.341634 0.341573 0.341604
0.354559 0.354498 0.354528
0.364508 0.364462 0.364492
0.372046 0.372000 0.372000
0.135241 0.135241 0.135241
0.137072 0.137072 0.137072
0.139223 0.139223 0.139223
0.142153 0.142153 0.142153
0.147936 0.147936 0.147936
0.154315 0.154315 0.154315
0.160067 0.160067 0.160067
0.166735 0.166735 0.166735
0.173083 0.173083 0.173083
0.177173 0.177173 0.177173
0.181872 0.181872 0.181872
0.186923 0.186923 0.186923
0.192783 0.192783 0.192721
0.198917 0.198917 0.198871
0.205615 0.205615 0.205570
0.212421 0.212467 0.212421
0.219577 0.219623 0.219669
0.227466 0.227512 0.227512
0.235905 0.235950 0.235950
0.246479 0.246525 0.246525
0.258671 0.258701 0.258701
0.271046 0.271077 0.271077
0.284520 0.284581 0.284550
0.296986 0.297047 0.297017
0.310582 0.310643 0.310613
0.323644 0.323583 0.323613
0.338796 0.338735 0.338766
0.353338 0.353292 0.353307
0.368231 0.368170 0.368170
0.382284 0.382254 0.382239
0.394431 0.394431 0.394431
0.401526 0.401526 0.401526
0.143069 0.143069 0.143069
0.145708 0.145708 0.145708
0.148791 0.148791 0.148791
0.153140 0.153140 0.153140
0.158770 0.158770 0.158770
0.166186 0.166186 0.166186
0.174792 0.174792 0.174792
0.181170 0.181170 0.181170
0.187778 0.187778 0.187778
0.193805 0.193805 0.193759
0.198093 0.198093 0.198047
0.203082 0.203082 0.203037
0.208438 0.208484 0.208530
0.215152 0.215198 0.215152
0.222217 0.222263 0.222309
0.230060 0.230091 0.230091
0.238468 0.238514 0.238514
0.246601 0.246647 0.246601
0.255680 0.255711 0.255680
0.265126 0.265171 0.265171
0.276341 0.276402 0.276371
0.288853 0.288930 0.288899
0.302266 0.302327 0.302297
0.316365 0.316335 0.316335
0.330724 0.330724 0.330694
0.345724 0.345678 0.345708
0.361502 0.361456 0.361486
0.378836 0.378805 0.378836
0.394873 0.394873 0.394919
0.411124 0.411063 0.411093
0.423453 0.423453 0.423453
0.429709 0.429709 0.429709
0.158770 0.158770 0.158770
0.159579 0.159579 0.159579
0.160571 0.160571 0.160571
0.163806 0.163806 0.163806
0.169574 0.169574 0.169574
0.176700 0.176700 0.176700
0.185245 0.185245 0.185245
0.195956 0.195956 0.195911
0.203037 0.203037 0.202991
0.209186 0.209232 0.209278
0.216342 0.216388 0.216434
0.221515 0.221561 0.221653
0.227466 0.227512 0.227512
0.233967 0.234012 0.234012
0.241749 0.241795 0.241795
0.249577 0.249607 0.249577
0.258518 0.258549 0.258549
0.267353 0.267384 0.267384
0.276127 0.276204 0.276173
0.285435 0.285496 0.285466
0.295399 0.295460 0.295430
0.306767 0.306737 0.306737
0.319982 0.319966 0.319966
0.335073 0.335027 0.335058
0.351934 0.351873 0.351904
0.368078 0.368032 0.368032
0.385229 0.385229 0.385229
0.403098 0.403037 0.403082
0.421088 0.421088 0.421088
0.438087 0.438087 0.438087
0.453010 0.453040 0.453010
0.459266 0.459251 0.459266
0.172625 0.172625 0.172625
0.174044 0.174044 0.174044
0.175891 0.175891 0.175891
0.178561 0.178561 0.178561
0.182147 0.182147 0.182147
0.188769 0.188769 0.188769
0.198047 0.198047 0.198001
0.208438 0.208484 0.208530
0.219196 0.219226 0.219196
0.228016 0.228061 0.228061
0.234516 0.234562 0.234562
0.240711 0.240757 0.240833
0.246525 0.246555 0.246555
0.252918 0.252949 0.252949
0.260121 0.260166 0.260166
0.267918 0.267948 0.267948
0.276204 0.276265 0.276234
0.285176 0.285237 0.285206
0.295140 0.295201 0.295171
0.305074 0.305043 0.305043
0.316167 0.316106 0.316136
0.328450 0.328450 0.328420
0.342123 0.342077 0.342107
0.357336 0.357290 0.357321
0.373663 0.373693 0.373663
0.391012 0.391012 0.391012
0.408637 0.408667 0.408637
0.426139 0.426169 0.426169
0.444846 0.444877 0.444877
0.462852 0.462867 0.462882
0.478813 0.478798 0.478828
0.488167 0.488182 0.488167
0.181064 0.181064 0.181064
0.183612 0.183612 0.183612
0.186557 0.186557 0.186557
0.190723 0.190723 0.190723
0.196216 0.196216 0.196170
0.203037 0.203037 0.202991
0.211246 0.211246 0.211200
0.221134 0.221180 0.221134
0.231235 0.231281 0.231235
0.242451 0.242496 0.242496
0.253147 0.253178 0.253178
0.259541 0.259587 0.259541
0.266728 0.266758 0.266758
0.273930 0.274006 0.273976
0.281926 0.281895 0.281895
0.290578 0.290654 0.290608
0.300435 0.300404 0.300404
0.310552 0.310521 0.310521
0.321401 0.321370 0.321370
0.332281 0.332281 0.332250
0.342657 0.342550 0.342596
0.352941 0.352880 0.352911
0.364492 0.364447 0.364492
0.377157 0.377127 0.377157
0.392035 0.392050 0.392035
0.408270 0.408270 0.408286
0.427207 0.427207 0.427222
0.447257 0.447257 0.447272
0.468086 0.468132 0.468116
0.488167 0.488182 0.488167
0.504906 0.504891 0.504891
0.517235 0.517220 0.517220
0.197162 0.197162 0.197116
0.197803 0.197803 0.197757
0.198581 0.198581 0.198535
0.200488 0.200488 0.200443
0.206592 0.206592 0.206531
0.214389 0.214435 0.214389
0.224109 0.224155 0.224155
0.235660 0.235706 0.235706
0.249073 0.249119 0.249195
0.261646 0.261677 0.261677
0.272206 0.272267 0.272236
0.282872 0.282933 0.282902
0.289723 0.289799 0.289769
0.297017 0.296986 0.296986
0.305013 0.305074 0.305043
0.313222 0.313283 0.313252
0.322484 0.322454 0.322454
0.332021 0.331975 0.331991
0.342214 0.342153 0.342184
0.352056 0.352087 0.352041
0.362631 0.362585 0.362600
0.373556 0.373510 0.373556
0.385733 0.385733 0.385733
0.399710 0.399756 0.399756
0.414954 0.414954 0.414954
0.432792 0.432746 0.432761
0.452033 0.452033 0.452033
0.472129 0.472129 0.472114
0.492912 0.492927 0.492927
0.512017 0.512001 0.512001
0.528450 0.528435 0.528435
0.538232 0.538232 0.538232
0.213748 0.213794 0.213840
0.215061 0.215106 0.215061
0.216480 0.216526 0.216571
0.218570 0.218616 0.218662
0.221347 0.221393 0.221439
0.225132 0.225177 0.225177
0.235004 0.235050 0.235050
0.247746 0.247791 0.247791
0.262333 0.262379 0.262379
0.278554 0.278630 0.278584
0.289891 0.289952 0.289921
0.300435 0.300404 0.300404
0.311116 0.311086 0.311086
0.319127 0.319097 0.319097
0.327581 0.327581 0.327550
0.336889 0.336843 0.336873
0.346456 0.346487 0.346456
0.357260 0.357214 0.357244
0.368444 0.368399 0.368444
0.380667 0.380652 0.380621
0.392584 0.392584 0.392584
0.404776 0.404776 0.404807
0.416342 0.416388 0.416388
0.427665 0.427634 0.427634
0.440848 0.440848 0.440848
0.455238 0.455238 0.455238
0.472404 0.472389 0.472419
0.491249 0.491234 0.491234
0.511482 0.511467 0.511482
0.532464 0.532448 0.532448
0.549996 0.550027 0.549981
0.560891 0.560922 0.560906
0.223331 0.223377 0.223377
0.224918 0.224964 0.224964
0.227207 0.227253 0.227253
0.230396 0.230442 0.230533
0.235737 0.235782 0.235737
0.242420 0.242451 0.242451
0.250507 0.250553 0.250553
0.260380 0.260411 0.260411
0.275380 0.275456 0.275410
0.291096 0.291066 0.291066
0.308110 0.308080 0.308080
0.323583 0.323568 0.323568
0.334127 0.334066 0.334096
0.344289 0.344320 0.344289
0.353826 0.353780 0.353811
0.362722 0.362676 0.362722
0.372915 0.372854 0.372915
0.382864 0.382834 0.382834
0.393759 0.393759 0.393759
0.404959 0.404883 0.404929
0.416800 0.416846 0.416846
0.428412 0.428443 0.428443
0.440314 0.440269 0.440284
0.452155 0.452125 0.452140
0.464210 0.464241 0.464241
0.478965 0.478950 0.478981
0.495674 0.495659 0.495674
0.515145 0.515114 0.515114
0.536019 0.535988 0.535988
0.556802 0.556771 0.556771
0.577432 0.577432 0.577432
0.584894 0.584894 0.584894
0.241749 0.241795 0.241795
0.242451 0.242496 0.242496
0.243275 0.243320 0.243275
0.245747 0.245777 0.245777
0.250706 0.250752 0.250752
0.257847 0.257878 0.257878
0.267109 0.267140 0.267109
0.277913 0.277989 0.277958
0.291173 0.291234 0.291173
0.306523 0.306584 0.306554
0.323507 0.323476 0.323476
0.341955 0.341894 0.341924
0.357244 0.357198 0.357214
0.367819 0.367773 0.367773
0.378576 0.378561 0.378576
0.388388 0.388388 0.388388
0.398123 0.398123 0.398123
0.408545 0.408545 0.408545
0.419089 0.419089 0.419089
0.431235 0.431235 0.431235
0.443320 0.443275 0.443275
0.456626 0.456626 0.456626
0.469276 0.469307 0.469276
0.482155 0.482139 0.482170
0.495003 0.495018 0.495018
0.507515 0.507500 0.507515
0.522728 0.522759 0.522728
0.539483 0.539483 0.539483
0.558587 0.558557 0.558557
0.578790 0.578805 0.578790
0.596140 0.596140 0.596124
0.608759 0.608789 0.608789
0.260639 0.260670 0.260639
0.261936 0.261967 0.261967
0.263462 0.263493 0.263493
0.265644 0.265675 0.265675
0.268528 0.268574 0.268574
0.272160 0.272236 0.272206
0.279698 0.279759 0.279728
0.290578 0.290654 0.290608
0.306966 0.306951 0.306951
0.325322 0.325292 0.325292
0.345037 0.344976 0.345007
0.362051 0.362005 0.362020
0.376761 0.376761 0.376806
0.392630 0.392630 0.392630
0.403388 0.403388 0.403388
0.413626 0.413565 0.413596
0.424704 0.424674 0.424674
0.435096 0.435096 0.435096
0.446403 0.446403 0.446403
0.458305 0.458290 0.458305
0.470573 0.470573 0.470558
0.483497 0.483513 0.483497
0.496147 0.496132 0.496147
0.508980 0.508995 0.508995
0.521782 0.521767 0.521767
0.535271 0.535256 0.535256
0.549020 0.549020 0.549004
0.565164 0.565194 0.565194
0.582620 0.582620 0.582620
0.601648 0.601648 0.601648
0.618143 0.618128 0.618158
0.629343 0.629358 0.629358
0.274205 0.274281 0.274235
0.275380 0.275456 0.275410
0.276738 0.276799 0.276768
0.279667 0.279728 0.279698
0.284169 0.284230 0.284199
0.289830 0.289891 0.289860
0.296925 0.296986 0.296956
0.306767 0.306737 0.306737
0.321263 0.321233 0.321233
0.338415 0.338445 0.338415
0.357458 0.357412 0.357458
0.379416 0.379416 0.379461
0.396750 0.396750 0.396750
0.414786 0.414786 0.414786
0.429496 0.429496 0.429496
0.441032 0.441032 0.441032
0.452232 0.452201 0.452216
0.462959 0.462974 0.463005
0.473793 0.473777 0.473808
0.485313 0.485298 0.485328
0.496803 0.496819 0.496819
0.509957 0.509941 0.509957
0.522576 0.522561 0.522561
0.536248 0.536248 0.536263
0.549783 0.549783 0.549798
0.563302 0.563317 0.563302
0.577585 0.577539 0.577554
0.591684 0.591684 0.591684
0.608255 0.608255 0.608255
0.625773 0.625773 0.625773
0.642466 0.642451 0.642451
0.651820 0.651835 0.651835
0.293980 0.294041 0.294011
0.294759 0.294820 0.294789
0.295705 0.295674 0.295674
0.298802 0.298772 0.298772
0.303029 0.302998 0.302998
0.308919 0.308888 0.308888
0.317784 0.317754 0.317754
0.329381 0.329381 0.329351
0.342702 0.342733 0.342733
0.358007 0.358038 0.358038
0.376928 0.376898 0.376928
0.397314 0.397314 0.397314
0.419486 0.419486 0.419486
0.439353 0.439353 0.439353
0.451362 0.451331 0.451331
0.464057 0.464057 0.464057
0.476021 0.476021 0.476005
0.487053 0.487083 0.487083
0.498985 0.499062 0.499031
0.510979 0.511055 0.511009
0.523293 0.523293 0.523308
0.536797 0.536782 0.536782
0.549844 0.549859 0.549828
0.563882 0.563867 0.563867
0.577234 0.577188 0.577218
0.591058 0.591058 0.591058
0.605631 0.605631 0.605631
0.620584 0.620554 0.620539
0.636210 0.636225 0.636210
0.651606 0.651621 0.651606
0.666880 0.666865 0.666850
0.674678 0.674723 0.674693
0.316762 0.316747 0.316747
0.318364 0.318334 0.318334
0.320165 0.320134 0.320134
0.322774 0.322744 0.322744
0.326238 0.326177 0.326207
0.330617 0.330617 0.330587
0.338415 0.338369 0.338384
0.349264 0.349203 0.349233
0.360983 0.361013 0.360952
0.373007 0.372961 0.372961
0.393103 0.393072 0.393057
0.413565 0.413565 0.413596
0.435569 0.435569 0.435569
0.457191 0.457206 0.457237
0.475670 0.475685 0.475731
0.491661 0.491676 0.491676
0.505409 0.505394 0.505394
0.517342 0.517327 0.517327
0.528817 0.528801 0.528801
0.540230 0.540230 0.540230
0.551415 0.551370 0.551415
0.563989 0.564004 0.564004
0.576211 0.576227 0.576211
0.590372 0.590372 0.590372
0.604257 0.604288 0.604288
0.618647 0.618647 0.618631
0.633204 0.633249 0.633249
0.647288 0.647318 0.647318
0.661967 0.661967 0.661982
0.676387 0.676387 0.676387
0.689220 0.689189 0.689204
0.699397 0.699428 0.699397
0.333928 0.333883 0.333898
0.335348 0.335287 0.335317
0.336950 0.336889 0.336919
0.339239 0.339193 0.339223
0.342626 0.342657 0.342626
0.349081 0.349035 0.349050
0.356939 0.356848 0.356893
0.366156 0.366110 0.366156
0.376669 0.376638 0.376669
0.392874 0.392874 0.392874
0.413352 0.413352 0.413367
0.436713 0.436759 0.436774
0.461677 0.461692 0.461708
0.480415 0.480430 0.480476
0.498329 0.498344 0.498344
0.517433 0.517403 0.517403
0.529000 0.529030 0.529015
0.540719 0.540719 0.540734
0.552636 0.552590 0.552636
0.563867 0.563836 0.563851
0.575876 0.575830 0.575860
0.588907 0.588907 0.588922
0.602182 0.602167 0.602167
0.616785 0.616800 0.616800
0.631098 0.631113 0.631098
0.646311 0.646326 0.646326
0.661082 0.661097 0.661082
0.676066 0.676036 0.676066
0.691463 0.691463 0.691463
0.705715 0.705699 0.705715
0.717952 0.717952 0.717952
0.725185 0.725185 0.725185
0.353368 0.353307 0.353338
0.354421 0.354376 0.354406
0.356848 0.356802 0.356817
0.360479 0.360433 0.360479
0.365423 0.365377 0.365423
0.371649 0.371542 0.371603
0.379126 0.379156 0.379187
0.387930 0.387930 0.387930
0.399497 0.399497 0.399527
0.413306 0.413306 0.413306
0.431800 0.431800 0.431815
0.453956 0.453986 0.454017
0.474815 0.474846 0.474861
0.500572 0.500557 0.500572
0.519783 0.519768 0.519753
0.540902 0.540871 0.540887
0.555810 0.555795 0.555840
0.569360 0.569345 0.569360
