content/luts/b&w/black_and_white_12.cube
#Created by: inPixio
#Copyright: (C) Copyright 2022 inPixio
TITLE "Black & White 06"
#LUT size
LUT_3D_SIZE 9
#LUT data points
0.000000 0.000000 0.000000
0.062531 0.062531 0.062531
0.115387 0.115387 0.115387
0.166565 0.166565 0.166565
0.217194 0.216156 0.214905
0.266815 0.262726 0.258636
0.312073 0.304474 0.296722
0.352234 0.341003 0.329620
0.388336 0.373596 0.358765
0.056885 0.056885 0.056885
0.109741 0.109741 0.109741
0.161102 0.161102 0.161102
0.211731 0.210785 0.209808
0.261536 0.257843 0.254059
0.307343 0.300140 0.292786
0.348083 0.337189 0.326172
0.384583 0.370209 0.355743
0.418335 0.400757 0.382935
0.104126 0.104126 0.104126
0.155670 0.155670 0.155670
0.206207 0.205536 0.204712
0.256287 0.252960 0.249542
0.302612 0.295807 0.288849
0.343872 0.333374 0.322723
0.380798 0.366760 0.352631
0.414795 0.397522 0.380096
0.447540 0.427216 0.406708
0.150360 0.150360 0.150360
0.200836 0.200317 0.199677
0.251007 0.248016 0.244904
0.297821 0.291321 0.284851
0.339600 0.329529 0.319305
0.376923 0.363312 0.349518
0.411194 0.394257 0.377197
0.444061 0.424042 0.403870
0.477295 0.454376 0.431305
0.195526 0.195160 0.194763
0.245758 0.243103 0.240356
0.293030 0.287018 0.280823
0.335358 0.325653 0.315826
0.373047 0.359802 0.346436
0.407593 0.390991 0.374268
0.440521 0.420868 0.401001
0.473663 0.451050 0.428284
0.507935 0.482666 0.457245
0.240692 0.238342 0.235962
0.288361 0.282654 0.276886
0.331116 0.321777 0.312347
0.369202 0.356293 0.343292
0.404022 0.387756 0.371368
0.436981 0.417664 0.398163
0.470001 0.447754 0.425293
0.504242 0.479248 0.454102
0.539368 0.512085 0.483704
0.283722 0.278473 0.273071
0.326904 0.317963 0.308899
0.365356 0.352844 0.340179
0.400391 0.384521 0.368469
0.433502 0.414429 0.395264
0.466400 0.444427 0.422272
0.500519 0.475739 0.450897
0.535522 0.508453 0.480530
0.571686 0.542511 0.509033
0.322815 0.314270 0.305573
0.361572 0.349365 0.337097
0.396820 0.381256 0.365570
0.429932 0.411255 0.392395
0.462830 0.441162 0.419312
0.496826 0.472382 0.447754
0.531647 0.504852 0.477356
0.567841 0.538879 0.506073
0.602142 0.571442 0.532135
0.358246 0.346344 0.334412
0.393341 0.378143 0.362732
0.426544 0.408173 0.389618
0.459290 0.437897 0.416382
0.493134 0.468964 0.444611
0.527832 0.501282 0.474213
0.563995 0.535187 0.503113
0.598602 0.568146 0.529480
0.627991 0.596436 0.551636
0.052429 0.052429 0.052429
0.105469 0.105469 0.105469
0.157013 0.157013 0.157013
0.207611 0.206848 0.206024
0.257599 0.254242 0.250702
0.303864 0.296906 0.289886
0.345001 0.334381 0.323669
0.381775 0.367645 0.353455
0.415680 0.398346 0.380859
0.099701 0.099701 0.099701
0.151489 0.151489 0.151489
0.202148 0.201569 0.200928
0.252228 0.249176 0.246033
0.298981 0.292511 0.285797
0.340668 0.330475 0.320129
0.377869 0.364136 0.350311
0.412079 0.395050 0.377930
0.444916 0.424774 0.404572
0.146057 0.146057 0.146057
0.196564 0.196228 0.195679
0.247009 0.244202 0.241364
0.294159 0.287994 0.281769
0.336365 0.326538 0.316620
0.374023 0.360657 0.347168
0.408478 0.391815 0.374969
0.441406 0.421631 0.401703
0.474548 0.451843 0.428986
0.191254 0.190948 0.190643
0.241669 0.239227 0.236755
0.289337 0.283539 0.277710
0.332031 0.322571 0.313049
0.370087 0.357117 0.344025
0.404846 0.388519 0.372070
0.437866 0.418427 0.398834
0.470917 0.448517 0.425995
0.505127 0.480072 0.454865
0.236542 0.234406 0.232239
0.284454 0.279083 0.273621
0.327698 0.318665 0.309540
0.366211 0.353577 0.340851
0.401215 0.385223 0.369110
0.434326 0.415192 0.395966
0.467285 0.445251 0.423004
0.501434 0.476624 0.451660
0.536407 0.509308 0.481262
0.279755 0.274811 0.269745
0.323395 0.314758 0.306030
0.362274 0.350067 0.337708
0.397552 0.381927 0.366180
0.430817 0.412018 0.393097
0.463715 0.441956 0.420044
0.497711 0.473175 0.448517
0.532562 0.505676 0.478119
0.568726 0.539673 0.506744
0.319183 0.310974 0.302582
0.358459 0.346527 0.334564
0.393921 0.378632 0.363251
0.427307 0.408813 0.390228
0.460144 0.438690 0.417084
0.493988 0.469757 0.445374
0.528748 0.502106 0.474915
0.564850 0.536041 0.503754
0.599396 0.568878 0.530090
0.354858 0.343292 0.331696
0.390381 0.375458 0.360413
0.423798 0.405640 0.387390
0.456573 0.435425 0.414124
0.490295 0.466339 0.442261
0.524902 0.498535 0.471710
0.560974 0.532379 0.500763
0.595856 0.565491 0.527405
0.625763 0.594269 0.549957
0.386993 0.372437 0.357666
0.420410 0.402618 0.384613
0.453125 0.432220 0.411255
0.486603 0.462952 0.439117
0.521149 0.494995 0.468567
0.557098 0.528687 0.497742
0.592316 0.562134 0.524780
0.622925 0.591492 0.547791
0.645874 0.613831 0.565216
0.095581 0.095581 0.095581
0.147400 0.147400 0.147400
0.197937 0.197571 0.197052
0.248352 0.245544 0.242615
0.295471 0.289215 0.282867
0.337524 0.327606 0.317596
0.375031 0.361572 0.348022
0.409424 0.392609 0.375732
0.442291 0.422394 0.402405
0.141907 0.141907 0.141907
0.192566 0.192261 0.191803
0.243011 0.240387 0.237854
0.290497 0.284668 0.278717
0.333130 0.323608 0.313995
0.371124 0.358002 0.344818
0.405762 0.389343 0.372803
0.438751 0.419189 0.399536
0.471771 0.449310 0.426697
0.187042 0.186951 0.186676
0.237549 0.235321 0.233124
0.285461 0.280029 0.274475
0.328674 0.319550 0.310333
0.367096 0.354431 0.341614
0.402069 0.386047 0.369843
0.435211 0.415985 0.396667
0.468170 0.446014 0.423767
0.502350 0.477448 0.452484
0.232300 0.230438 0.228485
0.280701 0.275574 0.270416
0.324280 0.315552 0.306732
0.363068 0.350830 0.338379
0.398407 0.382721 0.366882
0.431641 0.412781 0.393799
0.464600 0.442749 0.420776
0.498596 0.474030 0.449310
0.533508 0.506592 0.478882
0.275757 0.271088 0.266296
0.319946 0.311615 0.303162
0.359222 0.347260 0.335205
0.394775 0.379395 0.363922
0.428131 0.409576 0.390930
0.461029 0.439484 0.417816
0.494904 0.470612 0.446167
0.529694 0.502991 0.475708
0.565796 0.536896 0.504486
0.315674 0.307709 0.299652
0.355286 0.343689 0.332001
0.391083 0.376068 0.360931
0.424591 0.406372 0.388031
0.457428 0.436218 0.414886
0.491180 0.467163 0.443024
0.525879 0.499451 0.472473
0.561890 0.533234 0.501465
0.596710 0.566315 0.528046
0.351471 0.340240 0.328918
0.387451 0.372833 0.358063
0.421051 0.403198 0.385193
0.453888 0.432953 0.411957
0.487488 0.463776 0.439880
0.522095 0.495880 0.469299
0.557983 0.529572 0.498413
0.593109 0.562866 0.525330
0.623535 0.592102 0.548279
0.384186 0.369812 0.355377
0.417603 0.400085 0.382385
0.450348 0.429779 0.409027
0.483826 0.460388 0.436798
0.518311 0.492340 0.466125
0.554108 0.525879 0.495392
0.589478 0.559387 0.522583
0.620514 0.589203 0.546021
0.644196 0.612213 0.563965
0.414551 0.397308 0.379883
0.446960 0.426697 0.406250
0.480164 0.457001 0.433716
0.514526 0.488861 0.462952
0.550201 0.522217 0.492310
0.585846 0.555969 0.519806
0.617584 0.586334 0.543762
0.642029 0.610077 0.562286
0.661865 0.629608 0.577576
0.137756 0.137756 0.137756
0.188385 0.188171 0.187927
0.238983 0.236694 0.234406
0.286896 0.281311 0.275696
0.329926 0.320679 0.311371
0.368225 0.355408 0.342468
0.403046 0.386902 0.370636
0.436096 0.416809 0.397400
0.469086 0.446808 0.424438
0.182892 0.182861 0.182648
0.233582 0.231659 0.229584
0.281860 0.276672 0.271423
0.325439 0.316589 0.307648
0.364197 0.351776 0.339264
0.399384 0.383545 0.367645
0.432526 0.413574 0.394501
0.465485 0.443542 0.421478
0.499573 0.474854 0.450073
0.228088 0.226532 0.224731
0.276886 0.272095 0.267181
0.320923 0.312500 0.303955
0.360077 0.348114 0.335968
0.395660 0.380219 0.364655
0.428986 0.410370 0.391632
0.461884 0.440308 0.418518
0.495789 0.471436 0.446930
0.530640 0.503845 0.476471
0.271912 0.267395 0.262970
0.316498 0.308441 0.300293
0.356171 0.344452 0.332672
0.391846 0.376831 0.361633
0.425415 0.407166 0.388733
0.458313 0.437042 0.415619
0.492096 0.468048 0.443787
0.526825 0.500336 0.473297
0.562866 0.534149 0.502228
0.312134 0.304504 0.296722
0.352173 0.340881 0.329498
0.388245 0.373535 0.358673
0.421906 0.403961 0.385864
0.454773 0.433807 0.412689
0.488434 0.464630 0.440674
0.523041 0.496796 0.470093
0.558960 0.530487 0.499176
0.594025 0.563721 0.526001
0.348236 0.337341 0.326324
0.384583 0.370209 0.355713
0.418365 0.400757 0.382996
0.451172 0.430573 0.409760
0.484741 0.461243 0.437561
0.519257 0.493256 0.466888
0.555054 0.526794 0.496094
0.590332 0.560242 0.523254
0.621277 0.589935 0.546570
0.381073 0.367004 0.352875
0.414917 0.397644 0.380219
0.447662 0.427338 0.406860
0.481049 0.457825 0.434479
0.515472 0.489746 0.463715
0.551117 0.523102 0.493011
0.586639 0.556702 0.520416
0.618195 0.586945 0.544250
0.642487 0.610596 0.562683
0.411591 0.394623 0.377502
0.444214 0.424225 0.404022
0.477417 0.454468 0.431427
0.511719 0.486237 0.460510
0.547272 0.519440 0.489929
0.582977 0.553223 0.517639
0.615112 0.583954 0.541901
0.640228 0.608368 0.560944
0.660217 0.627960 0.576324
0.441010 0.421295 0.401398
0.473846 0.451202 0.428436
0.508026 0.482819 0.457367
0.543335 0.515808 0.486847
0.579285 0.549683 0.514832
0.612000 0.580994 0.539551
0.637939 0.606140 0.559204
0.658020 0.625854 0.574615
0.681885 0.649628 0.593475
0.178833 0.178833 0.178741
0.229462 0.227783 0.225952
0.278198 0.273346 0.268372
0.322174 0.313660 0.305023
0.361298 0.349121 0.336853
0.396606 0.381104 0.365448
0.429901 0.411194 0.392334
0.462799 0.441101 0.419250
0.496735 0.472290 0.447693
0.224121 0.222626 0.221130
0.273102 0.268585 0.263977
0.317627 0.309479 0.301270
0.357208 0.345428 0.333557
0.392883 0.377747 0.362427
0.426361 0.407990 0.389465
0.459167 0.437836 0.416290
0.493042 0.468842 0.444550
0.527679 0.501129 0.474091
0.268066 0.263916 0.259705
0.313080 0.305359 0.297516
0.353088 0.341705 0.330231
0.389160 0.374359 0.359406
0.422791 0.404724 0.386566
0.455627 0.434601 0.413391
0.489319 0.465454 0.441406
0.523926 0.497589 0.470886
0.559937 0.531372 0.499939
0.308533 0.301178 0.293732
0.349030 0.338074 0.326935
0.385437 0.370972 0.356384
0.419189 0.401520 0.383698
0.452087 0.431366 0.410492
0.485657 0.462036 0.438354
0.520172 0.494110 0.467682
0.556030 0.527710 0.496857
0.591248 0.561127 0.523956
0.344971 0.334381 0.323639
0.381714 0.367615 0.353394
0.415680 0.398315 0.380798
0.448517 0.428131 0.407562
0.481995 0.458710 0.435303
0.516449 0.490631 0.464478
0.552094 0.524017 0.493744
0.587555 0.557587 0.521118
0.618988 0.587677 0.544830
0.378174 0.364410 0.350525
0.412140 0.395081 0.377960
0.444977 0.424927 0.404663
0.478302 0.455322 0.432190
0.512665 0.487122 0.461304
0.548187 0.520325 0.490631
0.583801 0.554047 0.518280
0.615814 0.584656 0.542450
0.640808 0.608887 0.561340
0.408722 0.392059 0.375214
0.441528 0.421753 0.401825
0.474670 0.451965 0.429138
0.508911 0.483612 0.458130
0.544312 0.516693 0.487549
0.580109 0.550476 0.515442
0.612610 0.581543 0.540009
0.638458 0.606598 0.559570
0.658600 0.626373 0.575043
0.438293 0.418823 0.399170
0.471069 0.448669 0.426147
0.505219 0.480164 0.454956
0.540405 0.513062 0.484467
0.576355 0.546936 0.512573
0.609436 0.578522 0.537628
0.636047 0.604248 0.557739
0.656464 0.624329 0.573425
0.679688 0.647369 0.591675
0.467834 0.445740 0.423462
0.501648 0.476837 0.451843
0.536560 0.509430 0.481354
0.572632 0.543396 0.509735
0.606171 0.575409 0.535187
0.633636 0.601898 0.555908
0.654297 0.622162 0.571716
0.676727 0.644379 0.589325
0.712097 0.680176 0.618469
0.220001 0.218781 0.217468
0.269318 0.265137 0.260834
0.314301 0.306488 0.298523
0.354218 0.342743 0.331146
0.390137 0.375244 0.360199
0.423706 0.405548 0.387329
0.456512 0.435394 0.414093
0.490234 0.466278 0.442169
0.524841 0.498444 0.471710
0.264191 0.260376 0.256439
0.309662 0.302246 0.294647
0.350067 0.338989 0.327789
0.386414 0.371857 0.357178
0.420105 0.402344 0.384430
0.452972 0.432098 0.411163
0.486511 0.462891 0.439056
0.521057 0.494904 0.468475
0.557007 0.528595 0.497650
0.305054 0.298035 0.290863
0.345917 0.335236 0.324432
0.382599 0.368439 0.354095
0.416534 0.399109 0.381531
0.449402 0.428925 0.408264
0.482849 0.459503 0.436005
0.517334 0.491455 0.465302
0.553070 0.524933 0.494568
0.588562 0.558533 0.521912
0.341797 0.331543 0.321106
0.378845 0.365021 0.351074
0.412933 0.395844 0.378632
0.445862 0.425690 0.405365
0.479187 0.456146 0.432922
0.513580 0.487976 0.462097
0.549133 0.521240 0.491425
0.584808 0.554962 0.519043
0.616730 0.585541 0.543121
0.375122 0.361664 0.348083
0.409424 0.392670 0.375763
0.442322 0.422455 0.402496
0.475525 0.452789 0.429871
0.509827 0.484497 0.458893
0.545258 0.517609 0.488312
0.581055 0.551361 0.516174
0.613464 0.582397 0.540680
0.639069 0.607208 0.560059
0.406006 0.389557 0.373016
0.438812 0.419281 0.399597
0.471893 0.449432 0.426819
0.506104 0.481018 0.455688
0.541382 0.513947 0.485168
0.577209 0.547729 0.513184
0.610107 0.579193 0.538147
0.636597 0.604797 0.558136
0.656982 0.624786 0.573822
0.435425 0.416229 0.396851
0.468323 0.446167 0.423859
0.502411 0.477539 0.452545
0.537476 0.510284 0.482056
0.573456 0.544189 0.510376
0.606842 0.576019 0.535675
0.634033 0.602325 0.556244
0.654907 0.622711 0.572174
0.677521 0.645203 0.589966
0.464996 0.443146 0.421112
0.498779 0.474182 0.449432
0.533630 0.506683 0.478973
0.569672 0.540619 0.507477
0.603607 0.572876 0.533234
0.631561 0.599884 0.554321
0.652740 0.620605 0.570557
0.674805 0.642456 0.587799
0.708649 0.676666 0.615540
0.495575 0.471161 0.446686
0.529907 0.503204 0.475952
0.565918 0.537048 0.504608
0.600281 0.569702 0.530731
0.629089 0.597443 0.552460
0.650604 0.618500 0.568878
0.671906 0.639587 0.585510
0.704102 0.672028 0.611725
0.757721 0.727509 0.659149
0.260345 0.256744 0.253052
0.306244 0.299133 0.291901
0.347046 0.336243 0.325348
0.383606 0.369354 0.354919
0.417480 0.399933 0.382263
0.450287 0.429688 0.408997
0.483765 0.460327 0.436737
0.518250 0.492279 0.466095
0.554108 0.525848 0.495392
0.301605 0.294769 0.287964
0.342834 0.332458 0.321899
0.379822 0.365875 0.351868
0.413849 0.396698 0.379364
0.446716 0.426483 0.406067
0.480072 0.456940 0.433655
0.514526 0.488800 0.462860
0.550140 0.522156 0.492249
0.585846 0.555908 0.519836
0.338654 0.328644 0.318512
0.375977 0.362457 0.348785
0.410248 0.393433 0.376465
0.443176 0.423248 0.403168
0.476440 0.453583 0.430603
0.510773 0.485321 0.459686
0.546234 0.518494 0.489105
0.582031 0.552307 0.516937
0.614410 0.583313 0.541412
0.372192 0.359039 0.345734
0.406708 0.390198 0.373566
0.439636 0.420044 0.400299
0.472778 0.450256 0.427582
0.507019 0.481873 0.456512
0.542328 0.514832 0.485962
0.578186 0.548706 0.514008
0.611115 0.580109 0.538910
0.637329 0.605530 0.558746
0.403198 0.386993 0.370697
0.436127 0.416840 0.397430
0.469147 0.446930 0.424561
0.503296 0.478394 0.453308
0.538452 0.511230 0.482819
0.574402 0.545074 0.511078
0.607697 0.576874 0.536316
0.634796 0.603058 0.556793
0.655365 0.623169 0.572540
0.432770 0.413727 0.394653
0.465576 0.443634 0.421570
0.499573 0.474945 0.450134
0.534576 0.507568 0.479675
0.570557 0.541473 0.508148
0.604309 0.573578 0.533752
0.632141 0.600433 0.554749
0.653290 0.621155 0.570953
0.675323 0.643005 0.588226
0.462158 0.440521 0.418762
0.495972 0.471527 0.447021
0.530701 0.503967 0.476532
0.566742 0.537842 0.505219
0.600952 0.570374 0.531250
0.629486 0.597900 0.552795
0.651184 0.619080 0.569305
0.672791 0.640503 0.586212
0.705353 0.673309 0.612793
0.492462 0.468323 0.444092
0.527008 0.500458 0.473480
0.562958 0.534241 0.502258
0.597565 0.567139 0.528687
0.626923 0.595398 0.550842
0.649017 0.616943 0.567688
0.670105 0.637848 0.584137
0.701172 0.669098 0.609344
0.752594 0.722137 0.654449
0.523529 0.497162 0.470612
0.559235 0.530762 0.499451
0.594147 0.563873 0.526123
0.624268 0.592804 0.548828
0.646912 0.614868 0.566010
0.667389 0.635071 0.581940
0.696838 0.664642 0.605713
0.745789 0.715057 0.648193
0.821869 0.795837 0.723206
0.298035 0.291565 0.284973
0.339691 0.329620 0.319397
0.377014 0.363373 0.349609
0.411224 0.394257 0.377197
0.444061 0.424042 0.403900
0.477325 0.454376 0.431305
0.511688 0.486176 0.460480
0.547211 0.519440 0.489960
0.583099 0.553284 0.517792
0.335510 0.325745 0.315948
0.373138 0.359833 0.346466
0.407593 0.390991 0.374298
0.440521 0.420837 0.401001
0.473663 0.451050 0.428284
0.507935 0.482697 0.457275
0.543274 0.515717 0.486786
0.579254 0.549652 0.514832
0.612061 0.581024 0.539581
0.369263 0.356354 0.343353
0.403961 0.387726 0.371368
0.436981 0.417633 0.398132
0.470032 0.447723 0.425262
0.504211 0.479218 0.454102
0.539368 0.512085 0.483612
0.575409 0.546021 0.511871
0.608704 0.577789 0.537079
0.635620 0.603851 0.557404
0.400391 0.384491 0.368469
0.433472 0.414459 0.395264
0.466431 0.444427 0.422272
0.500488 0.475769 0.450897
0.535522 0.508423 0.480469
0.571564 0.542389 0.508911
0.605316 0.574524 0.534515
0.632996 0.601257 0.555420
0.653748 0.621582 0.571289
0.430023 0.411316 0.392456
0.462860 0.441162 0.419312
0.496765 0.472351 0.447723
0.531647 0.504822 0.477295
0.567688 0.538727 0.505951
0.601837 0.571228 0.531921
0.630310 0.598663 0.553375
0.651642 0.619568 0.569702
0.673126 0.640808 0.586456
0.459290 0.437927 0.416351
0.493103 0.468933 0.444611
0.527802 0.501221 0.474121
0.563873 0.535095 0.502960
0.598389 0.567902 0.529297
0.627502 0.595978 0.551270
0.649567 0.617462 0.568054
0.670685 0.638367 0.584534
0.701782 0.669708 0.609833
0.489716 0.465790 0.441711
0.524017 0.497742 0.471008
0.559998 0.531464 0.500000
0.594879 0.564575 0.526672
0.624786 0.593353 0.549225
0.647369 0.615356 0.566437
0.668213 0.635895 0.582581
0.698059 0.665863 0.606720
0.747437 0.716736 0.649689
0.520416 0.494324 0.467987
0.556183 0.527863 0.497040
0.591370 0.561218 0.524017
0.622009 0.590637 0.547119
0.645264 0.613251 0.564789
0.665619 0.633362 0.580566
0.693970 0.661804 0.603394
0.741333 0.710419 0.644318
0.814819 0.788330 0.715942
0.552643 0.524597 0.494293
0.587982 0.557953 0.521454
0.619202 0.587921 0.544983
0.643127 0.611176 0.563141
0.663116 0.630859 0.578583
0.689911 0.657654 0.599976
0.734558 0.703369 0.638092
0.805634 0.778442 0.706390
0.898254 0.879150 0.811584
0.332275 0.322723 0.313293
0.370209 0.357269 0.344147
0.404907 0.388580 0.372101
0.437897 0.418396 0.398804
0.470917 0.448486 0.425964
0.505127 0.480072 0.454834
0.540314 0.512939 0.484436
0.576477 0.546997 0.512665
0.609711 0.578705 0.537811
0.366302 0.353699 0.340973
0.401154 0.385254 0.369110
0.434296 0.415161 0.395905
0.467255 0.445190 0.422974
0.501404 0.476593 0.451660
0.536377 0.509277 0.481232
0.572571 0.543335 0.509705
0.606262 0.575439 0.535248
0.633789 0.602051 0.556030
0.397583 0.381989 0.366211
0.430725 0.411926 0.393036
0.463654 0.441925 0.419983
0.497681 0.473175 0.448517
0.532532 0.505676 0.478058
0.568695 0.539642 0.506744
0.602814 0.572174 0.532654
0.631134 0.599487 0.554016
0.652100 0.619995 0.570038
0.427307 0.408813 0.390259
0.460052 0.438599 0.416992
0.493927 0.469727 0.445343
0.528717 0.502075 0.474884
0.564789 0.535980 0.503723
0.599304 0.568787 0.529999
0.628387 0.596832 0.551941
0.650024 0.617950 0.568451
0.671021 0.638672 0.584778
0.456635 0.435486 0.414185
0.490265 0.466309 0.442200
0.524872 0.498474 0.471710
0.560913 0.532349 0.500702
0.595703 0.565399 0.527313
0.625549 0.594055 0.549805
0.647919 0.615875 0.566833
0.668518 0.636230 0.582825
0.698456 0.666290 0.606995
0.486572 0.462921 0.439117
0.521088 0.494965 0.468536
0.557037 0.528656 0.497681
0.592194 0.561981 0.524628
0.622711 0.591278 0.547607
0.645752 0.613739 0.565155
0.666138 0.633881 0.580963
0.694611 0.662384 0.603851
0.742157 0.711212 0.644806
0.517517 0.491638 0.465485
0.553192 0.525024 0.494720
0.588623 0.558594 0.521912
0.619812 0.588501 0.545471
0.643616 0.611633 0.563507
0.663727 0.631500 0.579071
0.691010 0.658722 0.600891
0.736084 0.704926 0.639435
0.807678 0.780579 0.708282
0.549591 0.521637 0.491852
0.585114 0.555206 0.519257
0.616852 0.585663 0.543243
0.641418 0.609528 0.561859
0.661407 0.629150 0.577240
0.687195 0.654907 0.597778
0.730011 0.698669 0.634064
0.798828 0.771118 0.699371
0.890259 0.870361 0.801758
0.581879 0.552155 0.516846
0.613892 0.582794 0.541016
0.639252 0.607391 0.560181
0.659119 0.626892 0.575470
0.683624 0.651337 0.594879
0.724030 0.692474 0.628784
0.789825 0.761505 0.690155
0.879852 0.858978 0.789154
0.979340 0.968109 0.917938
