content/luts/b&w/black_and_white_01.cube
#Created by: inPixio
#Copyright: (C) Copyright 2019 inPixio
TITLE "B&W 1"
#LUT size
LUT_3D_SIZE 5
#data domain
#LUT data points
DOMAIN_MIN 0.000000 0.000000 0.000000
DOMAIN_MAX 0.903226 0.903226 0.903226
0.142855 0.133700 0.164614
0.173587 0.162402 0.198337
0.292561 0.273732 0.318792
0.537255 0.505287 0.515526
0.774151 0.743755 0.709987
0.234272 0.219150 0.261799
0.262226 0.245228 0.289860
0.337301 0.315679 0.359396
0.570245 0.537255 0.539925
0.786343 0.756634 0.722026
0.542168 0.510063 0.519188
0.566522 0.533822 0.537331
0.636194 0.602335 0.590219
0.693187 0.659785 0.636744
0.821881 0.794690 0.758785
0.798123 0.769192 0.733974
0.803021 0.774395 0.738888
0.820462 0.793195 0.757305
0.837079 0.811200 0.775387
0.875105 0.853208 0.819425
0.889769 0.869688 0.837522
0.890532 0.870512 0.838499
0.893645 0.874037 0.842435
0.898116 0.879118 0.848142
0.902358 0.883909 0.853590
0.157839 0.147601 0.181003
0.171237 0.160266 0.195911
0.307500 0.287678 0.332631
0.555673 0.523018 0.529076
0.777234 0.746975 0.713069
0.208759 0.195407 0.235737
0.237324 0.222034 0.265278
0.367407 0.343862 0.384878
0.586313 0.553002 0.551995
0.786236 0.756558 0.722087
0.525429 0.493919 0.506813
0.546120 0.513954 0.522118
0.607233 0.573587 0.567865
0.682689 0.649119 0.628000
0.821134 0.793942 0.758099
0.792203 0.762860 0.727932
0.798688 0.769726 0.734447
0.816358 0.788693 0.752895
0.833448 0.807279 0.771344
0.873518 0.851392 0.817472
0.888319 0.868055 0.835752
0.889052 0.868879 0.836606
0.892775 0.873060 0.841306
0.897719 0.878660 0.847608
0.902449 0.884062 0.853742
0.206867 0.193454 0.233753
0.218616 0.204624 0.246052
0.276539 0.258671 0.303609
0.519326 0.487984 0.502281
0.773938 0.743511 0.709880
0.285664 0.267247 0.312459
0.303945 0.284352 0.329152
0.350362 0.327825 0.370382
0.578775 0.545632 0.546304
0.792310 0.762890 0.727871
0.451835 0.423453 0.451957
0.482063 0.452293 0.474693
0.568551 0.535531 0.538521
0.705043 0.671855 0.646708
0.828489 0.801846 0.765896
0.770977 0.740292 0.706844
0.776562 0.746181 0.712169
0.799069 0.770153 0.734890
0.827527 0.800794 0.764828
0.867613 0.844862 0.810437
0.885573 0.864912 0.832258
0.886427 0.865873 0.833310
0.890608 0.870573 0.838560
0.896635 0.877409 0.846189
0.901595 0.883040 0.852613
0.324254 0.303426 0.347814
0.334585 0.312993 0.356893
0.367529 0.343938 0.385168
0.477562 0.447959 0.471382
0.731426 0.699092 0.670237
0.418463 0.391959 0.426093
0.423636 0.396857 0.430335
0.445182 0.417227 0.446952
0.531502 0.499687 0.511315
0.752133 0.720653 0.689220
0.545281 0.513008 0.521416
0.569894 0.536980 0.539696
0.642466 0.608621 0.595224
0.678065 0.644373 0.623880
0.812589 0.784665 0.748928
0.725444 0.692836 0.664454
0.733333 0.700923 0.671565
0.763531 0.732509 0.699733
0.809232 0.781064 0.745235
0.867033 0.844205 0.809690
0.879652 0.858290 0.824949
0.880888 0.859693 0.826490
0.886030 0.865385 0.832776
0.893355 0.873732 0.842054
0.900755 0.882078 0.851499
0.577707 0.544686 0.545586
0.582528 0.549325 0.549172
0.597391 0.563943 0.560372
0.616648 0.582940 0.575067
0.716121 0.683223 0.656443
0.635126 0.601389 0.589700
0.637873 0.604089 0.591760
0.645533 0.611734 0.597864
0.656916 0.623148 0.606867
0.738415 0.706279 0.676417
0.732876 0.700542 0.671275
0.743130 0.711208 0.680751
0.752758 0.721233 0.689708
0.754604 0.723186 0.691356
0.796552 0.767468 0.732326
0.808423 0.780163 0.744472
0.810605 0.782513 0.746822
0.821073 0.793805 0.757839
0.844953 0.819791 0.784115
0.859327 0.835630 0.800595
0.872755 0.850599 0.816571
0.873915 0.851896 0.817975
0.878691 0.857206 0.823758
0.886809 0.866362 0.833860
0.898314 0.879347 0.848386
