content/luts/b&w/black_and_white_02.cube
#Created by: inPixio
#Copyright: (C) Copyright 2019 inPixio
TITLE "B&W 2"
#LUT size
LUT_3D_SIZE 32
#data domain
DOMAIN_MIN 0.0 0.0 0.0
DOMAIN_MAX 1.0 1.0 1.0
#LUT data points
0.000000 0.000000 0.000000
0.003525 0.002731 0.004883
0.007630 0.006455 0.010834
0.016419 0.012711 0.022477
0.028733 0.021897 0.037522
0.041779 0.032883 0.050660
0.054093 0.044724 0.062226
0.064378 0.057389 0.070817
0.073548 0.066331 0.079667
0.084031 0.076005 0.089723
0.096895 0.087297 0.101762
0.112139 0.100984 0.115618
0.132342 0.118853 0.132723
0.156512 0.140383 0.152819
0.184802 0.165393 0.176120
0.217090 0.193759 0.202503
0.252873 0.225452 0.231708
0.291768 0.260639 0.263752
0.333898 0.299428 0.298802
0.378180 0.341207 0.336339
0.425284 0.387060 0.377585
0.472953 0.435798 0.422416
0.520363 0.485908 0.469810
0.566140 0.536034 0.518639
0.609995 0.585672 0.568322
0.648570 0.631357 0.615854
0.685191 0.675456 0.662791
0.719493 0.717220 0.708156
0.751247 0.755764 0.751080
0.779843 0.789639 0.789960
0.806134 0.819303 0.824491
0.823499 0.838468 0.846922
0.005478 0.004105 0.007630
0.007630 0.005661 0.010636
0.011872 0.009186 0.016419
0.018570 0.013886 0.025223
0.029908 0.022873 0.039490
0.042878 0.033890 0.051804
0.054749 0.045823 0.062654
0.065080 0.057710 0.071336
0.073793 0.066606 0.079912
0.084489 0.076493 0.090150
0.097307 0.087739 0.102159
0.112856 0.101473 0.116136
0.132265 0.118776 0.132647
0.157458 0.141177 0.153536
0.185840 0.166430 0.177112
0.217899 0.194522 0.203128
0.253559 0.226032 0.232242
0.291905 0.260777 0.263890
0.334203 0.299764 0.299092
0.378882 0.341970 0.337057
0.425345 0.387076 0.377585
0.473335 0.436149 0.422721
0.520485 0.486000 0.469856
0.566156 0.536080 0.518731
0.610361 0.586099 0.568795
0.648615 0.631373 0.615839
0.685130 0.675410 0.662730
0.719616 0.717372 0.708309
0.751232 0.755764 0.751095
0.780331 0.790204 0.790616
0.806104 0.819318 0.824521
0.823148 0.838071 0.846494
0.011246 0.008789 0.015244
0.013886 0.010636 0.018570
0.017792 0.013291 0.024048
0.025803 0.019165 0.033494
0.034302 0.026780 0.044724
0.044907 0.035508 0.054414
0.056001 0.047272 0.063951
0.065766 0.058335 0.072251
0.074540 0.067445 0.080522
0.085161 0.077104 0.090913
0.098238 0.088518 0.102831
0.113802 0.102342 0.116808
0.133776 0.120150 0.133852
0.158908 0.142290 0.154711
0.187457 0.167681 0.178180
0.219013 0.195499 0.204013
0.254459 0.226825 0.232929
0.292882 0.261616 0.264653
0.335348 0.300801 0.300099
0.379828 0.342901 0.337881
0.425422 0.387121 0.377585
0.474037 0.436790 0.423285
0.520989 0.486534 0.470375
0.566308 0.536263 0.518959
0.610788 0.586648 0.569406
0.648692 0.631418 0.615869
0.685664 0.676036 0.663401
0.720027 0.717861 0.708873
0.751202 0.755703 0.751049
0.781003 0.791043 0.791562
0.806119 0.819349 0.824552
0.822767 0.837690 0.846037
0.024048 0.018372 0.031876
0.025605 0.019745 0.033890
0.030488 0.023270 0.039292
0.039094 0.030488 0.049516
0.047105 0.037522 0.057237
0.052781 0.043427 0.061646
0.059281 0.051164 0.067033
0.068009 0.060777 0.074159
0.076127 0.068986 0.081941
0.086275 0.078325 0.092088
0.099992 0.090257 0.104418
0.116396 0.104799 0.119097
0.136172 0.122515 0.135958
0.161273 0.144747 0.156756
0.189792 0.169741 0.180087
0.221347 0.197650 0.205997
0.255970 0.228183 0.234226
0.295674 0.264103 0.266926
0.337514 0.302815 0.301869
0.381460 0.344503 0.339330
0.427604 0.389471 0.379736
0.475166 0.437888 0.424170
0.521660 0.487312 0.471168
0.567437 0.537560 0.520226
0.611429 0.587427 0.570275
0.649256 0.632120 0.616602
0.686549 0.677104 0.664530
0.720623 0.718578 0.709697
0.751614 0.756191 0.751629
0.781888 0.792142 0.792813
0.806653 0.819944 0.825254
0.823514 0.838499 0.846952
0.039490 0.031281 0.049348
0.042145 0.033494 0.051484
0.045274 0.036118 0.054414
0.052140 0.042512 0.060639
0.061067 0.053269 0.068421
0.067872 0.060929 0.073915
0.069780 0.062516 0.076127
0.072908 0.065629 0.079057
0.080400 0.072648 0.086061
0.089281 0.080644 0.094789
0.103670 0.093202 0.107622
0.120470 0.108354 0.122347
0.140230 0.126162 0.139284
0.164614 0.147601 0.159457
0.193240 0.172961 0.183063
0.225361 0.201175 0.209278
0.260929 0.232578 0.238270
0.300191 0.268132 0.270604
0.341787 0.306798 0.305455
0.385092 0.348043 0.342519
0.430915 0.392874 0.382925
0.477287 0.440009 0.426108
0.526497 0.492485 0.476158
0.571420 0.542046 0.524620
0.612345 0.588632 0.571557
0.652003 0.635340 0.619944
0.687755 0.678584 0.666087
0.721645 0.719844 0.711101
0.753292 0.758175 0.753887
0.783139 0.793637 0.794522
0.807462 0.820890 0.826352
0.824674 0.839719 0.848371
0.055375 0.046738 0.063233
0.057237 0.048142 0.064378
0.059754 0.050828 0.066606
0.063371 0.055222 0.070039
0.069505 0.062379 0.075517
0.079667 0.071870 0.085389
0.087404 0.078813 0.092897
0.087739 0.079179 0.093095
0.090150 0.081361 0.095399
0.097932 0.088411 0.102647
0.107622 0.096788 0.111437
0.125124 0.112764 0.126635
0.145831 0.131136 0.144045
0.169909 0.152300 0.163928
0.199313 0.178241 0.187930
0.232075 0.207187 0.214740
0.267628 0.238804 0.243946
0.306050 0.273472 0.275456
0.347021 0.311681 0.309865
0.390631 0.353384 0.347326
0.435889 0.398001 0.387594
0.483391 0.446189 0.431785
0.532006 0.498482 0.481895
0.576257 0.547463 0.530022
0.615732 0.592599 0.575692
0.655650 0.639612 0.624338
0.691020 0.682490 0.670268
0.724071 0.722759 0.714336
0.755428 0.760708 0.756817
0.784482 0.795224 0.796368
0.808286 0.821866 0.827482
0.825330 0.840421 0.849195
0.068711 0.061067 0.074907
0.069505 0.061646 0.075639
0.070558 0.062806 0.076616
0.073671 0.066468 0.079667
0.079545 0.071733 0.085283
0.087175 0.078813 0.092790
0.103029 0.092897 0.107164
0.116640 0.104891 0.119341
0.116472 0.104799 0.118944
0.116304 0.104799 0.118944
0.124147 0.111879 0.125917
0.132952 0.119661 0.133242
0.154192 0.138445 0.150927
0.178607 0.159823 0.171008
0.207004 0.184970 0.194217
0.239811 0.213977 0.220996
0.275624 0.245930 0.250431
0.314061 0.280858 0.282170
0.354482 0.318608 0.316106
0.397803 0.360403 0.353658
0.443214 0.405356 0.394385
0.490654 0.453712 0.438773
0.536812 0.503578 0.486641
0.580209 0.551965 0.534539
0.619898 0.597559 0.580835
0.659449 0.644205 0.629191
0.694118 0.686244 0.674266
0.727001 0.726314 0.718288
0.757504 0.763165 0.759594
0.784466 0.795117 0.796262
0.809522 0.823240 0.829145
0.826230 0.841367 0.850309
0.080644 0.073045 0.086610
0.081239 0.073671 0.087175
0.082872 0.075029 0.088624
0.085283 0.077104 0.090806
0.090043 0.081239 0.095308
0.099809 0.090043 0.104234
0.112322 0.101076 0.115526
0.135958 0.122271 0.135607
0.159518 0.143145 0.155352
0.157076 0.141039 0.153277
0.154772 0.139010 0.151324
0.161471 0.144945 0.156954
0.165393 0.148257 0.160128
0.189334 0.169329 0.179706
0.216114 0.192981 0.201663
0.249302 0.222309 0.228702
0.285008 0.254459 0.258106
0.322744 0.288960 0.289387
0.362600 0.326177 0.322850
0.405997 0.368429 0.360830
0.449699 0.412009 0.400504
0.495399 0.458915 0.443824
0.540658 0.507607 0.490410
0.583383 0.555551 0.538155
0.624018 0.602487 0.585962
0.662547 0.648020 0.633341
0.697963 0.690898 0.679255
0.729107 0.728847 0.721019
0.757992 0.763775 0.760311
0.785046 0.795651 0.796948
0.810926 0.824842 0.831006
0.828641 0.843885 0.853223
0.095796 0.086503 0.100786
0.096681 0.087297 0.101671
0.098436 0.088746 0.103029
0.100877 0.090913 0.105196
0.105486 0.095216 0.109361
0.113298 0.101869 0.116304
0.127565 0.114641 0.128573
0.146853 0.131746 0.144671
0.179538 0.160571 0.171588
0.217227 0.193866 0.202503
0.213016 0.190417 0.199268
0.206912 0.184863 0.194110
0.209140 0.186923 0.196063
0.207507 0.185306 0.194568
0.232898 0.207782 0.215381
0.259144 0.230869 0.236683
0.295293 0.263676 0.266545
0.332769 0.298329 0.297810
0.372213 0.335500 0.331212
0.413916 0.376043 0.367666
0.457206 0.419593 0.407416
0.502007 0.466117 0.450858
0.547112 0.514595 0.497200
0.589105 0.562051 0.544610
0.629145 0.608469 0.592142
0.665812 0.652049 0.637614
0.700343 0.693813 0.682307
0.730663 0.730785 0.723140
0.759442 0.765438 0.762234
0.787030 0.797849 0.799512
0.813184 0.827405 0.834043
0.830930 0.846311 0.856046
0.116228 0.104601 0.118853
0.117311 0.105379 0.119661
0.118334 0.106523 0.120638
0.121050 0.108995 0.123079
0.125368 0.112856 0.126787
0.133104 0.119585 0.133166
0.144534 0.129671 0.142718
0.165209 0.148058 0.159884
0.191241 0.170947 0.181216
0.232807 0.207782 0.215290
0.280491 0.250141 0.254383
0.277577 0.247700 0.252094
0.271824 0.242649 0.247379
0.268681 0.240162 0.244877
0.264942 0.236606 0.241718
0.289387 0.258396 0.261677
0.307988 0.275105 0.277012
0.344823 0.309606 0.307958
0.383688 0.346670 0.341283
0.424155 0.385977 0.376638
0.467491 0.430091 0.417136
0.511269 0.476097 0.460411
0.554772 0.523262 0.505867
0.596124 0.569879 0.552422
0.633784 0.613870 0.597726
0.669307 0.656260 0.642191
0.703151 0.697231 0.686076
0.734127 0.734997 0.727794
0.762829 0.769451 0.766842
0.790097 0.801251 0.803494
0.815335 0.829725 0.836713
0.834455 0.849973 0.860319
0.141802 0.127489 0.140597
0.142641 0.128267 0.141390
0.143832 0.129183 0.142290
0.146777 0.132036 0.144884
0.151782 0.136248 0.148867
0.159335 0.142931 0.155169
0.170428 0.152819 0.164279
0.187350 0.167559 0.178119
0.213657 0.190875 0.199664
0.245899 0.219410 0.225986
0.291463 0.260456 0.263493
0.340627 0.305577 0.304372
0.347128 0.311742 0.309957
0.345541 0.310674 0.308888
0.343023 0.308751 0.307088
0.338338 0.304158 0.302998
0.353246 0.317815 0.315358
0.358846 0.322881 0.319936
0.395850 0.358450 0.351904
0.436637 0.398657 0.388235
0.479835 0.442664 0.428595
0.521614 0.487297 0.471183
0.563485 0.533135 0.515770
0.603143 0.577798 0.560327
0.640223 0.621363 0.605448
0.675013 0.663127 0.649592
0.708110 0.703288 0.692836
0.738933 0.740932 0.734279
0.766796 0.774212 0.772244
0.792798 0.804318 0.807065
0.817044 0.831464 0.838697
0.838148 0.853849 0.864820
0.171527 0.153735 0.165148
0.173190 0.155352 0.166674
0.175357 0.157198 0.168383
0.178668 0.160006 0.171008
0.183124 0.163974 0.174731
0.190921 0.170779 0.181064
0.202243 0.180789 0.190417
0.218296 0.194965 0.203525
0.239887 0.214160 0.221180
0.271519 0.242374 0.247074
0.308690 0.276204 0.277791
0.355917 0.320424 0.317723
0.409598 0.371923 0.363958
0.424826 0.386877 0.377508
0.425116 0.387732 0.378485
0.421317 0.384375 0.375631
0.415992 0.379034 0.370764
0.421378 0.384115 0.375296
0.422370 0.384711 0.375662
0.455726 0.418097 0.406027
0.494469 0.457832 0.442756
0.533532 0.499901 0.483116
0.572915 0.543801 0.526467
0.611521 0.587732 0.570611
0.648692 0.631296 0.615641
0.681819 0.671321 0.658274
0.713329 0.709651 0.699901
0.743252 0.746120 0.740230
0.770794 0.779065 0.777752
0.795972 0.807965 0.811307
0.819745 0.834272 0.841947
0.840238 0.856077 0.867323
0.209049 0.186709 0.195911
0.209842 0.187518 0.196628
0.211475 0.188922 0.197894
0.214557 0.191592 0.200534
0.220523 0.196872 0.205234
0.227726 0.203174 0.211154
0.237888 0.212253 0.219501
0.253178 0.225895 0.231998
0.273732 0.244251 0.248890
0.302297 0.270497 0.272618
0.337591 0.302815 0.301961
0.378012 0.341573 0.336706
0.425681 0.387915 0.378515
0.475303 0.438254 0.424689
0.496208 0.459846 0.444709
0.498024 0.462257 0.447303
0.495018 0.459434 0.444938
0.489555 0.453727 0.439689
0.488914 0.453040 0.439017
0.491524 0.455268 0.440726
0.516854 0.481804 0.465614
0.548028 0.515511 0.498070
0.582971 0.555001 0.537530
0.619745 0.597452 0.580728
0.655314 0.639307 0.624140
0.688121 0.678981 0.666377
0.718425 0.715908 0.706737
0.746899 0.750530 0.745251
0.773587 0.782498 0.781598
0.798550 0.810971 0.814786
0.822141 0.836790 0.844862
0.841154 0.856992 0.868376
0.253483 0.226062 0.232242
0.254765 0.227176 0.233219
0.256107 0.228321 0.234302
0.258030 0.230060 0.235905
0.262409 0.234058 0.239521
0.269841 0.240757 0.245625
0.279759 0.249683 0.253819
0.291798 0.260487 0.263706
0.309102 0.276539 0.278111
0.335531 0.300862 0.300191
0.367880 0.331762 0.327916
0.405860 0.368170 0.360571
0.445731 0.408179 0.397055
0.490501 0.453941 0.439277
0.536233 0.503121 0.486412
0.559655 0.528649 0.511086
0.561791 0.531319 0.514061
0.560952 0.530724 0.513771
0.557275 0.526803 0.510079
0.557488 0.527047 0.510277
0.559625 0.529152 0.512032
0.577386 0.548592 0.530999
0.599100 0.573190 0.555718
0.627314 0.606149 0.589685
0.660243 0.645319 0.630549
0.691875 0.683543 0.671168
0.721828 0.720089 0.711254
0.749828 0.754009 0.749249
0.776806 0.786130 0.785855
0.802091 0.815076 0.819562
0.825223 0.840101 0.848707
0.841016 0.856794 0.868116
0.296422 0.264653 0.267536
0.298558 0.266590 0.269276
0.300923 0.268772 0.271214
0.304250 0.271824 0.274006
0.308751 0.275959 0.277714
0.314794 0.281529 0.282734
0.324422 0.290684 0.290944
0.336538 0.301869 0.301045
0.350683 0.315084 0.312932
0.370214 0.334096 0.329992
0.401007 0.363546 0.356466
0.436408 0.398901 0.388663
0.474601 0.437324 0.423667
0.512230 0.477272 0.461616
0.553307 0.521538 0.504128
0.593317 0.567010 0.549783
0.618921 0.596231 0.579278
0.620920 0.598764 0.582040
0.621042 0.599115 0.582544
0.617716 0.595422 0.578943
0.617731 0.595422 0.578927
0.619638 0.597528 0.581003
0.630579 0.609934 0.593515
0.642817 0.624369 0.608438
0.667765 0.654368 0.640208
0.699229 0.692531 0.681025
0.728542 0.728283 0.720256
0.755978 0.761318 0.757565
0.782132 0.792126 0.792905
0.806409 0.819989 0.825315
0.828550 0.843641 0.852903
0.843565 0.859373 0.871046
0.347799 0.312184 0.310369
0.348211 0.312627 0.310735
0.348745 0.313161 0.311193
0.351232 0.315618 0.313405
0.357168 0.321202 0.318410
0.364508 0.328176 0.324682
0.373312 0.336568 0.332219
0.384009 0.346975 0.341573
0.398871 0.361502 0.354635
0.415900 0.378134 0.369574
0.436454 0.398932 0.388647
0.469627 0.432380 0.419226
0.503151 0.467460 0.452186
0.538125 0.504936 0.487984
0.570764 0.541222 0.523751
0.605554 0.580652 0.563241
0.640284 0.621592 0.605753
0.665950 0.652140 0.637614
0.668940 0.655818 0.641688
0.670543 0.657847 0.643961
0.669718 0.656947 0.643229
0.671611 0.659220 0.645655
0.675273 0.663630 0.650248
0.683970 0.673991 0.661112
0.694530 0.686793 0.674662
0.711879 0.707912 0.697856
0.737621 0.739315 0.732509
0.761700 0.768292 0.765377
0.786130 0.796750 0.798276
0.809674 0.823270 0.829175
0.831952 0.847379 0.857267
0.846845 0.862684 0.874800
0.401343 0.363546 0.356374
0.402350 0.364538 0.357260
0.403632 0.365789 0.358389
0.405585 0.367697 0.360113
0.408194 0.370245 0.362448
0.413748 0.375891 0.367575
0.422690 0.384711 0.375586
0.433188 0.395148 0.384985
0.445197 0.407187 0.395956
0.460548 0.423056 0.410681
0.480247 0.443259 0.429252
0.502876 0.467292 0.452064
0.532769 0.499275 0.482582
0.563516 0.533074 0.515618
0.593668 0.567086 0.549630
0.622171 0.600107 0.583368
0.651484 0.634714 0.619226
0.684291 0.674403 0.661677
0.711437 0.707393 0.697185
0.713878 0.710369 0.700496
0.716320 0.713329 0.703853
0.716518 0.713573 0.704311
0.719387 0.717037 0.708125
0.723293 0.721828 0.713344
0.729686 0.729595 0.721798
0.736370 0.737820 0.730831
0.749050 0.753109 0.748150
0.771603 0.780118 0.778866
0.790906 0.802350 0.804700
0.813748 0.827726 0.834348
0.835233 0.850813 0.861234
0.852277 0.868177 0.880980
0.448005 0.409659 0.398123
0.450126 0.411887 0.400137
0.452567 0.414359 0.402411
0.456031 0.417929 0.405692
0.460578 0.422614 0.409979
0.466331 0.428473 0.415381
0.473152 0.435569 0.421866
0.482231 0.445121 0.430930
0.493065 0.456535 0.441627
0.505119 0.469261 0.453620
0.519692 0.485115 0.468986
0.540871 0.508080 0.491066
0.563409 0.532982 0.515480
0.589731 0.562707 0.545281
0.616709 0.593668 0.576684
0.642145 0.623697 0.607813
0.667033 0.653437 0.639063
0.691936 0.683650 0.671351
0.722103 0.720378 0.711727
0.749981 0.754360 0.749447
0.752453 0.757260 0.752819
0.754040 0.759045 0.754940
0.755612 0.760800 0.757061
0.759136 0.764996 0.761822
0.763470 0.770199 0.767712
0.769268 0.777173 0.775662
0.776379 0.785702 0.785367
0.785855 0.796658 0.798062
0.802335 0.815351 0.819867
0.818631 0.832990 0.840482
0.839857 0.855451 0.866392
0.858518 0.874434 0.888029
0.500633 0.464302 0.448798
0.501167 0.464836 0.449287
0.501778 0.465446 0.449851
0.503304 0.467063 0.451331
0.507698 0.471733 0.455818
0.513222 0.477699 0.461479
0.519997 0.485023 0.468528
0.528008 0.493660 0.476844
0.536919 0.503441 0.486351
0.547387 0.514992 0.497688
0.558984 0.527855 0.510353
0.571572 0.542077 0.524559
0.592462 0.565774 0.548333
0.615045 0.591730 0.574685
0.638285 0.619089 0.603082
0.661753 0.647044 0.632273
0.683955 0.673976 0.661036
0.705669 0.700282 0.689464
0.726635 0.725948 0.717647
0.755077 0.760174 0.756298
0.782956 0.793484 0.794308
0.784436 0.795041 0.796201
0.786862 0.797726 0.799344
0.789288 0.800397 0.802518
0.793103 0.804685 0.807492
0.797650 0.809812 0.813458
0.803510 0.816465 0.821195
0.810544 0.824384 0.830503
0.818769 0.833372 0.840955
0.831647 0.846998 0.856779
0.844358 0.859968 0.871534
0.859419 0.875273 0.888884
0.548486 0.516152 0.498802
0.549340 0.517128 0.499748
0.550362 0.518242 0.500832
0.551812 0.519860 0.502419
0.553811 0.522011 0.504524
0.556573 0.525048 0.507485
0.562341 0.531426 0.513741
0.568963 0.538903 0.521172
0.576623 0.547509 0.529748
0.585412 0.557443 0.539696
0.595651 0.569253 0.551766
0.607095 0.582437 0.565164
0.619486 0.596933 0.580072
0.639536 0.620691 0.604746
0.661494 0.646754 0.631891
0.681819 0.671351 0.658351
0.703090 0.697154 0.686015
0.721813 0.720012 0.711269
0.740978 0.743313 0.737072
0.758053 0.763882 0.760403
0.782666 0.792798 0.793668
0.805280 0.818708 0.823819
0.810452 0.824430 0.830503
0.814725 0.828946 0.835782
0.818448 0.832807 0.840284
0.822751 0.837354 0.845518
0.827802 0.842802 0.851835
0.833951 0.849256 0.859297
0.841108 0.856764 0.868040
0.848737 0.864653 0.877028
0.858640 0.874403 0.887755
0.865675 0.881239 0.895201
0.591714 0.564813 0.547295
0.592737 0.565927 0.548425
0.593988 0.567392 0.549905
0.595895 0.569543 0.552102
0.598810 0.572900 0.555520
0.602533 0.577127 0.559808
0.606958 0.582300 0.565042
0.612390 0.588556 0.571359
0.619410 0.596735 0.579751
0.627359 0.606043 0.589319
0.635981 0.616205 0.599847
0.645472 0.627497 0.611658
0.656764 0.641062 0.625925
0.669108 0.655894 0.641611
0.685649 0.676036 0.663264
0.704814 0.699291 0.688289
0.721752 0.719936 0.711162
0.739635 0.741772 0.735317
0.755444 0.760708 0.756832
0.771664 0.780118 0.778897
0.786557 0.797345 0.798917
0.806790 0.820127 0.825467
0.826795 0.841932 0.850950
0.834958 0.850568 0.860975
0.840589 0.856260 0.867460
0.845090 0.860761 0.872511
0.849775 0.865446 0.877684
0.855131 0.870848 0.883726
0.861738 0.877333 0.890868
0.869062 0.884535 0.898833
0.876875 0.892119 0.907012
0.882246 0.897124 0.912032
0.633631 0.613581 0.597299
0.633936 0.613962 0.597711
0.634272 0.614374 0.598138
0.635523 0.615839 0.599634
0.638163 0.618921 0.602747
0.641505 0.622858 0.606851
0.645609 0.627695 0.611948
0.650385 0.633402 0.617914
0.656001 0.640101 0.624949
0.662837 0.648280 0.633509
0.670527 0.657588 0.643397
0.678904 0.667750 0.654185
0.687877 0.678630 0.665904
0.699001 0.692210 0.680629
0.711101 0.706966 0.696681
0.725292 0.724224 0.715892
0.741543 0.744060 0.737926
0.756466 0.761822 0.758175
0.771954 0.780407 0.779309
0.786053 0.796643 0.798123
0.800641 0.813458 0.817655
0.813611 0.827619 0.834272
0.831006 0.846311 0.856001
0.848234 0.864042 0.876265
0.857679 0.873564 0.887022
0.863844 0.879545 0.893538
0.869139 0.884596 0.898848
0.874067 0.889296 0.903761
0.879744 0.894728 0.909453
0.886275 0.900801 0.915648
0.893233 0.907301 0.922332
0.900298 0.913893 0.928893
0.674144 0.662043 0.648310
0.674708 0.662745 0.649043
0.675395 0.663554 0.649928
0.676295 0.664653 0.651087
0.677531 0.666163 0.652689
0.679103 0.668055 0.654688
0.682429 0.672023 0.658915
0.686854 0.677379 0.664622
0.691829 0.683452 0.671183
0.697429 0.690333 0.678599
0.703868 0.698192 0.687068
0.710872 0.706722 0.696376
0.718227 0.715709 0.706233
0.725994 0.725200 0.716686
0.736965 0.738506 0.731609
0.748928 0.753033 0.747951
0.761441 0.767895 0.764981
0.775372 0.784405 0.783917
0.788449 0.799466 0.801389
0.801816 0.814710 0.819150
0.814206 0.828321 0.835004
0.826688 0.841856 0.850874
0.837995 0.853575 0.864378
0.852613 0.868483 0.881239
0.867872 0.883436 0.897597
0.877974 0.893141 0.907988
0.884627 0.899397 0.914397
0.890333 0.904646 0.919600
0.895537 0.909407 0.924300
0.901473 0.914839 0.929610
0.908293 0.920989 0.935424
0.913771 0.925979 0.940200
0.709102 0.704509 0.694133
0.709560 0.705089 0.694743
0.710124 0.705776 0.695476
0.711162 0.707027 0.696864
0.712703 0.708888 0.698924
0.714611 0.711254 0.701518
0.717037 0.714153 0.704738
0.720027 0.717891 0.708858
0.724376 0.723186 0.714611
0.729244 0.729107 0.721157
0.734463 0.735439 0.728252
0.740124 0.742336 0.735943
0.746426 0.749996 0.744503
0.752804 0.757702 0.753231
0.759747 0.766140 0.762783
0.769680 0.777813 0.776242
0.780911 0.790967 0.791470
0.792340 0.803998 0.806622
0.804532 0.817716 0.822660
0.816281 0.830549 0.837629
0.827909 0.843122 0.852293
0.838972 0.854582 0.865446
0.849943 0.865812 0.878309
0.859999 0.875731 0.889250
0.872648 0.888075 0.902663
0.886458 0.901015 0.915908
0.896834 0.910643 0.925658
0.903563 0.916793 0.931609
0.909743 0.922347 0.936782
0.915221 0.927276 0.941329
0.921492 0.932845 0.946380
0.926207 0.937026 0.950118
0.740536 0.742748 0.736523
0.740673 0.742901 0.736721
0.740841 0.743114 0.736935
0.741817 0.744320 0.738262
0.743206 0.745998 0.740154
0.745052 0.748211 0.742611
0.747417 0.751110 0.745876
0.750210 0.754513 0.749737
0.753491 0.758434 0.754223
0.757321 0.762997 0.759381
0.762097 0.768765 0.765896
0.766873 0.774395 0.772381
0.772046 0.780575 0.779431
0.777844 0.787472 0.787335
0.784146 0.794736 0.795789
0.790799 0.802472 0.804807
0.799527 0.812238 0.816236
0.809964 0.823789 0.829755
0.820462 0.835142 0.843000
0.831174 0.846494 0.856199
0.841718 0.857435 0.868788
0.851911 0.867750 0.880415
0.861799 0.877546 0.891234
0.871382 0.886809 0.901289
0.880415 0.895430 0.910277
0.891386 0.905699 0.920806
0.903960 0.917128 0.931823
0.914519 0.926696 0.940856
0.921340 0.932769 0.946349
0.927565 0.938262 0.951186
0.933227 0.943191 0.955490
0.938201 0.947555 0.959182
0.770352 0.778393 0.777020
0.770611 0.778714 0.777401
0.770932 0.779065 0.777813
0.771435 0.779660 0.778485
0.772137 0.780530 0.779492
0.773083 0.781598 0.780728
0.774914 0.783764 0.783215
0.777569 0.786923 0.786847
0.780530 0.790478 0.790921
0.783887 0.794232 0.795285
0.787564 0.798489 0.800229
0.791898 0.803540 0.806088
0.796445 0.808728 0.812100
0.801129 0.814008 0.818296
0.806424 0.819883 0.825208
0.812345 0.826444 0.832853
0.818769 0.833494 0.841093
0.826764 0.841932 0.850935
0.836515 0.852079 0.862669
0.846265 0.862043 0.874022
0.855863 0.871702 0.884840
0.865293 0.880964 0.895003
0.874342 0.889632 0.904219
0.883162 0.897948 0.912902
0.891630 0.905821 0.920882
0.899611 0.913176 0.928084
0.908995 0.921752 0.936324
0.920836 0.932250 0.945800
0.931136 0.941390 0.953964
0.937636 0.947051 0.958785
0.943923 0.952499 0.963317
0.949279 0.957122 0.967147
0.796368 0.808484 0.811887
0.796643 0.808805 0.812268
0.796948 0.809186 0.812696
0.797406 0.809705 0.813306
0.798093 0.810483 0.814221
0.799344 0.811856 0.815808
0.800855 0.813520 0.817746
0.802655 0.815503 0.820066
0.805066 0.818174 0.823194
0.808118 0.821714 0.827253
0.811566 0.825467 0.831663
0.815305 0.829496 0.836362
0.819440 0.833951 0.841566
0.823865 0.838758 0.847227
0.828412 0.843580 0.852842
0.833280 0.848768 0.858824
0.839628 0.855375 0.866468
0.846387 0.862287 0.874373
0.853773 0.869719 0.882780
0.862272 0.878019 0.891829
0.870909 0.886458 0.900969
0.879118 0.894163 0.908949
0.887404 0.901991 0.917037
0.895216 0.909072 0.924056
0.903014 0.916228 0.931075
0.910308 0.922835 0.937255
0.917449 0.929320 0.943221
0.925475 0.936431 0.949599
0.936507 0.946059 0.957885
0.946929 0.955108 0.965484
0.953124 0.960433 0.969787
0.957733 0.964355 0.972931
0.820523 0.835020 0.842863
0.820646 0.835142 0.843000
0.821103 0.835630 0.843549
0.821790 0.836362 0.844419
0.822705 0.837400 0.845594
0.823896 0.838666 0.847089
0.825345 0.840238 0.848905
0.827115 0.842115 0.851072
0.829267 0.844358 0.853636
0.831754 0.846937 0.856565
0.834852 0.850202 0.860365
0.838483 0.854048 0.864866
0.841810 0.857450 0.868711
0.845396 0.861036 0.872770
0.849622 0.865461 0.877852
0.853742 0.869535 0.882445
0.858122 0.873884 0.887221
0.863935 0.879637 0.893599
