content/luts/b&w/black_and_white_09.cube
#Created by: inPixio
#Copyright: (C) Copyright 2022 inPixio
TITLE "Black & White 04"
#LUT size
LUT_3D_SIZE 9
#LUT data points
0.000000 0.000000 0.000000
0.038086 0.038086 0.038086
0.077362 0.077362 0.077362
0.118866 0.118866 0.118866
0.162384 0.162384 0.162384
0.207001 0.207001 0.207001
0.251587 0.251587 0.251587
0.295013 0.295013 0.294983
0.336365 0.336426 0.336334
0.036926 0.036926 0.036926
0.075928 0.075928 0.075928
0.117462 0.117462 0.117462
0.160919 0.160919 0.160919
0.205444 0.205444 0.205444
0.250061 0.250061 0.250061
0.293579 0.293579 0.293549
0.335052 0.335114 0.334991
0.374359 0.374451 0.374359
0.074707 0.074707 0.074707
0.116058 0.116058 0.116058
0.159485 0.159485 0.159485
0.204010 0.204010 0.204010
0.248596 0.248596 0.248596
0.292145 0.292145 0.292114
0.333710 0.333771 0.333679
0.373138 0.373230 0.373138
0.410675 0.410767 0.410675
0.114838 0.114838 0.114838
0.158081 0.158081 0.158081
0.202484 0.202484 0.202484
0.247131 0.247131 0.247131
0.290741 0.290741 0.290710
0.332336 0.332397 0.332306
0.371826 0.371918 0.371826
0.409515 0.409607 0.409515
0.445557 0.445618 0.445557
0.156769 0.156769 0.156769
0.201050 0.201050 0.201050
0.245697 0.245697 0.245697
0.289337 0.289337 0.289337
0.330994 0.331024 0.330933
0.370544 0.370636 0.370544
0.408325 0.408386 0.408325
0.444427 0.444489 0.444427
0.479095 0.479187 0.479095
0.199799 0.199799 0.199799
0.244293 0.244293 0.244293
0.287964 0.287964 0.287964
0.329651 0.329712 0.329590
0.369293 0.369415 0.369293
0.407074 0.407166 0.407074
0.443237 0.443329 0.443237
0.478027 0.478088 0.478027
0.511688 0.511749 0.511658
0.243164 0.243164 0.243164
0.286713 0.286713 0.286713
0.328430 0.328461 0.328369
0.368103 0.368195 0.368103
0.405853 0.405914 0.405853
0.442047 0.442139 0.442047
0.476807 0.476898 0.476807
0.510590 0.510651 0.510559
0.543457 0.543549 0.543427
0.285645 0.285645 0.285645
0.327209 0.327271 0.327148
0.366852 0.366943 0.366852
0.404663 0.404755 0.404663
0.440948 0.441040 0.440948
0.475800 0.475861 0.475800
0.509552 0.509613 0.509521
0.542480 0.542572 0.542450
0.574738 0.574799 0.574707
0.326630 0.326691 0.326569
0.365875 0.365997 0.365875
0.403656 0.403748 0.403656
0.439819 0.439911 0.439819
0.474701 0.474762 0.474701
0.508545 0.508606 0.508484
0.541382 0.541473 0.541351
0.573639 0.573730 0.573608
0.605621 0.605713 0.605621
0.050873 0.050873 0.050873
0.090942 0.090942 0.090942
0.133270 0.133270 0.133270
0.177185 0.177185 0.177185
0.221863 0.221863 0.221863
0.266205 0.266205 0.266205
0.309052 0.309052 0.309021
0.349731 0.349823 0.349731
0.388367 0.388458 0.388367
0.089691 0.089691 0.089691
0.133301 0.133301 0.133301
0.177216 0.177216 0.177216
0.221863 0.221863 0.221863
0.266174 0.266174 0.266174
0.309021 0.309021 0.308960
0.349640 0.349731 0.349640
0.388336 0.388428 0.388336
0.425201 0.425293 0.425201
0.130463 0.130463 0.130463
0.175720 0.175720 0.175720
0.220367 0.220367 0.220367
0.264740 0.264740 0.264740
0.307587 0.307587 0.307526
0.348328 0.348389 0.348297
0.387054 0.387146 0.387054
0.424072 0.424164 0.424072
0.459534 0.459625 0.459534
0.172821 0.172821 0.172821
0.218903 0.218903 0.218903
0.263306 0.263306 0.263306
0.306152 0.306183 0.306122
0.346985 0.347046 0.346954
0.385803 0.385895 0.385803
0.422852 0.422943 0.422852
0.458374 0.458466 0.458374
0.492645 0.492706 0.492645
0.216125 0.216125 0.216125
0.261841 0.261841 0.261841
0.304810 0.304810 0.304749
0.345673 0.345764 0.345673
0.384521 0.384613 0.384521
0.421631 0.421722 0.421631
0.457245 0.457306 0.457245
0.491547 0.491608 0.491547
0.524841 0.524902 0.524811
0.259186 0.259186 0.259186
0.303497 0.303497 0.303467
0.344391 0.344482 0.344391
0.383270 0.383362 0.383270
0.420471 0.420532 0.420471
0.456055 0.456116 0.456055
0.490417 0.490479 0.490417
0.523773 0.523834 0.523743
0.556366 0.556458 0.556335
0.300995 0.300995 0.300934
0.343231 0.343262 0.343170
0.382111 0.382202 0.382111
0.419281 0.419373 0.419281
0.454926 0.455017 0.454926
0.489288 0.489380 0.489288
0.522705 0.522766 0.522675
0.555328 0.555389 0.555298
0.587433 0.587524 0.587402
0.341034 0.341095 0.340973
0.381012 0.381073 0.381012
0.418152 0.418213 0.418152
0.453796 0.453857 0.453796
0.488220 0.488312 0.488220
0.521606 0.521667 0.521576
0.554260 0.554352 0.554230
0.586395 0.586487 0.586395
0.618225 0.618317 0.618225
0.378845 0.378967 0.378845
0.417084 0.417175 0.417084
0.452759 0.452820 0.452759
0.487152 0.487213 0.487152
0.520569 0.520630 0.520538
0.553223 0.553314 0.553192
0.585358 0.585449 0.585358
0.617188 0.617279 0.617188
0.649017 0.649109 0.648987
0.104858 0.104858 0.104858
0.147827 0.147827 0.147827
0.192047 0.192047 0.192047
0.236725 0.236725 0.236725
0.280670 0.280670 0.280670
0.322815 0.322845 0.322754
0.362793 0.362885 0.362793
0.400848 0.400940 0.400848
0.437286 0.437347 0.437286
0.146301 0.146301 0.146301
0.192078 0.192078 0.192078
0.236694 0.236694 0.236694
0.280640 0.280640 0.280609
0.322754 0.322784 0.322693
0.362732 0.362823 0.362701
0.400818 0.400879 0.400818
0.437225 0.437286 0.437225
0.472198 0.472260 0.472198
0.189178 0.189178 0.189178
0.235199 0.235199 0.235199
0.280579 0.280579 0.280548
0.322723 0.322754 0.322662
0.362701 0.362793 0.362671
0.400787 0.400848 0.400787
0.437195 0.437256 0.437195
0.472168 0.472260 0.472168
0.506073 0.506134 0.506042
0.232361 0.232361 0.232361
0.277802 0.277802 0.277802
0.321350 0.321381 0.321289
0.361359 0.361450 0.361359
0.399506 0.399597 0.399506
0.436005 0.436066 0.436005
0.471039 0.471130 0.471039
0.504944 0.505005 0.504913
0.537933 0.538025 0.537903
0.274994 0.274994 0.274994
0.318726 0.318726 0.318665
0.360138 0.360199 0.360107
0.398285 0.398376 0.398285
0.434814 0.434875 0.434814
0.469910 0.469971 0.469910
0.503815 0.503906 0.503815
0.536865 0.536957 0.536835
0.569244 0.569336 0.569214
0.316162 0.316193 0.316132
0.357605 0.357697 0.357605
0.397095 0.397156 0.397095
0.433655 0.433716 0.433655
0.468750 0.468811 0.468750
0.502686 0.502777 0.502686
0.535767 0.535828 0.535736
0.568176 0.568237 0.568146
0.600128 0.600250 0.600128
0.355225 0.355316 0.355225
0.394745 0.394806 0.394745
0.432495 0.432587 0.432495
0.467651 0.467712 0.467651
0.501648 0.501709 0.501617
0.534698 0.534760 0.534668
0.567139 0.567200 0.567108
0.599091 0.599213 0.599091
0.630920 0.631012 0.630920
0.392700 0.392792 0.392700
0.430298 0.430389 0.430298
0.466553 0.466614 0.466553
0.500549 0.500610 0.500519
0.533630 0.533722 0.533600
0.566040 0.566132 0.566040
0.598053 0.598145 0.598053
0.629883 0.629974 0.629883
0.661865 0.661957 0.661835
0.428436 0.428528 0.428436
0.464508 0.464569 0.464508
0.499481 0.499542 0.499451
0.532593 0.532654 0.532562
0.565002 0.565094 0.564972
0.596985 0.597107 0.596985
0.628845 0.628937 0.628845
0.660797 0.660889 0.660797
0.693176 0.693268 0.693146
0.162445 0.162445 0.162445
0.206970 0.206970 0.206970
0.251526 0.251526 0.251526
0.294952 0.294952 0.294891
0.336365 0.336395 0.336304
0.375641 0.375732 0.375641
0.413147 0.413239 0.413147
0.449066 0.449127 0.449066
0.483643 0.483704 0.483643
0.205475 0.205475 0.205475
0.251556 0.251556 0.251556
0.294922 0.294922 0.294891
0.336273 0.336334 0.336243
0.375580 0.375671 0.375580
0.413116 0.413177 0.413116
0.449005 0.449066 0.449005
0.483582 0.483673 0.483582
0.517151 0.517212 0.517120
0.248596 0.248596 0.248596
0.293518 0.293518 0.293488
0.336273 0.336304 0.336212
0.375549 0.375641 0.375519
0.413086 0.413177 0.413086
0.448975 0.449066 0.448975
0.483582 0.483643 0.483582
0.517120 0.517181 0.517090
0.549896 0.549957 0.549866
0.290680 0.290680 0.290680
0.333618 0.333649 0.333557
0.374329 0.374420 0.374329
0.413025 0.413116 0.413025
0.448975 0.449036 0.448975
0.483582 0.483643 0.483582
0.517120 0.517181 0.517090
0.549866 0.549957 0.549835
0.582031 0.582123 0.582001
0.331146 0.331177 0.331085
0.371826 0.371918 0.371826
0.410645 0.410736 0.410645
0.447815 0.447876 0.447815
0.482422 0.482513 0.482422
0.516022 0.516083 0.515991
0.548798 0.548859 0.548767
0.580994 0.581085 0.580994
0.612854 0.612976 0.612854
0.369415 0.369507 0.369415
0.408295 0.408386 0.408295
0.445496 0.445587 0.445496
0.481323 0.481384 0.481323
0.514923 0.514984 0.514893
0.547699 0.547791 0.547668
0.579926 0.580017 0.579895
0.611816 0.611908 0.611816
0.643677 0.643768 0.643646
0.406067 0.406158 0.406067
0.443298 0.443390 0.443298
0.479095 0.479156 0.479095
0.513824 0.513885 0.513794
0.546631 0.546722 0.546600
0.578857 0.578949 0.578857
0.610779 0.610870 0.610779
0.642639 0.642731 0.642609
0.674744 0.674835 0.674713
0.441254 0.441315 0.441254
0.476990 0.477081 0.476990
0.511719 0.511780 0.511688
0.545593 0.545685 0.545563
0.577820 0.577911 0.577789
0.609741 0.609833 0.609741
0.641602 0.641693 0.641571
0.673676 0.673798 0.673676
0.706268 0.706390 0.706268
0.475098 0.475159 0.475098
0.509613 0.509674 0.509583
0.543518 0.543579 0.543457
0.576813 0.576874 0.576782
0.608673 0.608795 0.608673
0.640533 0.640625 0.640503
0.672638 0.672729 0.672607
0.705200 0.705322 0.705200
0.738525 0.738617 0.738495
0.221893 0.221893 0.221893
0.266205 0.266205 0.266205
0.309021 0.309052 0.308990
0.349670 0.349762 0.349640
0.388306 0.388397 0.388306
0.425262 0.425323 0.425262
0.460724 0.460785 0.460724
0.494904 0.494965 0.494904
0.528168 0.528229 0.528137
0.264801 0.264801 0.264801
0.308990 0.309021 0.308929
0.349640 0.349701 0.349609
0.388275 0.388367 0.388275
0.425232 0.425293 0.425232
0.460693 0.460754 0.460693
0.494873 0.494934 0.494843
0.528107 0.528198 0.528076
0.560638 0.560730 0.560608
0.306274 0.306274 0.306244
0.348297 0.348389 0.348297
0.388275 0.388367 0.388275
0.425201 0.425293 0.425201
0.460632 0.460724 0.460632
0.494873 0.494934 0.494843
0.528107 0.528168 0.528076
0.560638 0.560730 0.560608
0.592682 0.592773 0.592682
0.345734 0.345795 0.345703
0.385803 0.385895 0.385803
0.424011 0.424072 0.424011
0.460632 0.460724 0.460632
0.494843 0.494904 0.494812
0.528107 0.528168 0.528076
0.560638 0.560730 0.560608
0.592682 0.592804 0.592682
0.624542 0.624664 0.624542
0.383331 0.383423 0.383331
0.421661 0.421753 0.421661
0.458344 0.458435 0.458344
0.493744 0.493805 0.493713
0.528107 0.528168 0.528076
0.560638 0.560730 0.560608
0.592682 0.592804 0.592682
0.624573 0.624664 0.624542
0.656494 0.656586 0.656494
0.419525 0.419586 0.419525
0.456116 0.456177 0.456116
0.491516 0.491608 0.491516
0.525940 0.526001 0.525909
0.559570 0.559662 0.559540
0.591644 0.591736 0.591614
0.623505 0.623627 0.623505
0.655457 0.655548 0.655426
0.687714 0.687805 0.687683
0.454010 0.454102 0.454010
0.489380 0.489441 0.489380
0.523804 0.523865 0.523773
0.557465 0.557526 0.557434
0.590607 0.590698 0.590576
0.622467 0.622559 0.622437
0.654388 0.654480 0.654358
0.686676 0.686768 0.686646
0.719513 0.719635 0.719513
0.487518 0.487579 0.487518
0.521729 0.521790 0.521698
0.555359 0.555450 0.555328
0.588501 0.588593 0.588501
0.621399 0.621490 0.621399
0.653351 0.653442 0.653320
0.685608 0.685699 0.685577
0.718445 0.718567 0.718445
0.752136 0.752258 0.752136
0.519989 0.520050 0.519958
0.553345 0.553436 0.553314
0.586426 0.586548 0.586426
0.619354 0.619446 0.619324
0.652283 0.652405 0.652283
0.684509 0.684631 0.684479
0.717346 0.717438 0.717316
0.751007 0.751129 0.751007
0.785858 0.785980 0.785828
0.280762 0.280762 0.280762
0.322845 0.322876 0.322784
0.362793 0.362885 0.362793
0.400848 0.400940 0.400848
0.437225 0.437317 0.437225
0.472229 0.472290 0.472229
0.506073 0.506165 0.506042
0.539062 0.539124 0.539032
0.571411 0.571472 0.571381
0.321503 0.321503 0.321442
0.362762 0.362854 0.362762
0.400818 0.400909 0.400818
0.437225 0.437286 0.437225
0.472198 0.472260 0.472198
0.506042 0.506104 0.506012
0.539032 0.539093 0.539001
0.571381 0.571442 0.571350
0.603302 0.603424 0.603302
0.360199 0.360291 0.360199
0.399567 0.399658 0.399567
0.437195 0.437286 0.437195
0.472198 0.472260 0.472198
0.506042 0.506104 0.506012
0.539032 0.539093 0.539001
0.571381 0.571472 0.571350
0.603333 0.603424 0.603333
0.635162 0.635254 0.635162
0.397186 0.397278 0.397186
0.434845 0.434937 0.434845
0.471069 0.471130 0.471069
0.506042 0.506104 0.506012
0.539001 0.539093 0.538971
0.571350 0.571442 0.571320
0.603333 0.603455 0.603333
0.635193 0.635284 0.635193
0.667206 0.667328 0.667175
0.432556 0.432648 0.432556
0.468811 0.468903 0.468811
0.503845 0.503906 0.503815
0.537933 0.538025 0.537903
0.571381 0.571472 0.571350
0.603333 0.603424 0.603333
0.635193 0.635315 0.635193
0.667236 0.667328 0.667236
0.699707 0.699829 0.699677
0.466705 0.466766 0.466705
0.501678 0.501740 0.501648
0.535797 0.535858 0.535767
0.569244 0.569336 0.569214
0.602295 0.602386 0.602295
0.635223 0.635315 0.635193
0.667267 0.667389 0.667267
0.699768 0.699860 0.699738
0.732910 0.733032 0.732910
0.499634 0.499695 0.499603
0.533722 0.533783 0.533691
0.567139 0.567230 0.567139
0.600159 0.600281 0.600159
0.633118 0.633209 0.633087
0.666199 0.666290 0.666168
0.698669 0.698761 0.698639
0.731842 0.731934 0.731812
0.765961 0.766083 0.765930
0.531891 0.531952 0.531860
0.565125 0.565216 0.565094
0.598114 0.598206 0.598114
0.630981 0.631073 0.630981
0.664032 0.664124 0.664001
0.697571 0.697662 0.697540
0.730743 0.730835 0.730713
0.764832 0.764954 0.764832
0.800140 0.800262 0.800140
0.563477 0.563568 0.563477
0.596130 0.596252 0.596130
0.628906 0.629028 0.628906
0.661926 0.662018 0.661896
0.695374 0.695496 0.695374
0.729614 0.729736 0.729614
0.763702 0.763794 0.763672
0.799011 0.799133 0.798981
0.835785 0.835907 0.835754
0.336456 0.336487 0.336395
0.375702 0.375793 0.375702
0.413177 0.413269 0.413177
0.449097 0.449158 0.449097
0.483643 0.483704 0.483643
0.517181 0.517242 0.517151
0.549896 0.549988 0.549866
0.582062 0.582153 0.582031
0.613953 0.614044 0.613953
0.374420 0.374512 0.374420
0.413177 0.413239 0.413177
0.449066 0.449127 0.449066
0.483643 0.483704 0.483643
0.517151 0.517212 0.517120
0.549866 0.549957 0.549835
0.582062 0.582153 0.582031
0.613922 0.614044 0.613922
0.645813 0.645905 0.645782
0.410736 0.410828 0.410736
0.447876 0.447968 0.447876
0.483612 0.483673 0.483612
0.517120 0.517181 0.517090
0.549866 0.549957 0.549835
0.582031 0.582153 0.582031
0.613953 0.614044 0.613953
0.645813 0.645905 0.645813
0.677979 0.678070 0.677948
0.445587 0.445679 0.445587
0.481384 0.481445 0.481384
0.516052 0.516113 0.516022
0.549866 0.549957 0.549835
0.582062 0.582153 0.582062
0.613953 0.614044 0.613953
0.645844 0.645935 0.645813
0.678009 0.678101 0.677979
0.710693 0.710785 0.710663
0.479218 0.479279 0.479218
0.513885 0.513947 0.513855
0.547729 0.547821 0.547699
0.581024 0.581116 0.580994
0.613953 0.614044 0.613953
0.645844 0.645935 0.645844
0.678009 0.678131 0.678009
0.710724 0.710815 0.710693
0.744202 0.744324 0.744171
0.511780 0.511871 0.511749
0.545624 0.545715 0.545593
0.578888 0.578979 0.578857
0.611847 0.611938 0.611847
0.644806 0.644897 0.644775
0.678040 0.678131 0.678009
0.710754 0.710846 0.710724
0.744232 0.744354 0.744202
0.778778 0.778900 0.778778
0.543701 0.543762 0.543671
0.576874 0.576965 0.576843
0.609772 0.609863 0.609772
0.642670 0.642761 0.642639
0.675903 0.675995 0.675873
0.709656 0.709747 0.709625
0.744263 0.744385 0.744263
0.778870 0.778961 0.778839
0.814728 0.814850 0.814697
0.574951 0.575073 0.574951
0.607788 0.607880 0.607788
0.640594 0.640686 0.640564
0.673737 0.673828 0.673706
0.707458 0.707550 0.707428
0.741974 0.742096 0.741974
0.777679 0.777802 0.777679
0.813568 0.813690 0.813568
0.851013 0.851135 0.850983
0.606018 0.606110 0.606018
0.638611 0.638733 0.638611
0.671631 0.671722 0.671600
0.705261 0.705383 0.705261
0.739716 0.739838 0.739716
0.775330 0.775452 0.775330
0.812347 0.812469 0.812347
0.849762 0.849884 0.849731
0.888733 0.888855 0.888702
0.388397 0.388489 0.388397
0.425293 0.425385 0.425293
0.460754 0.460846 0.460754
0.494934 0.494995 0.494934
0.528168 0.528229 0.528137
0.560669 0.560760 0.560669
0.592712 0.592804 0.592682
0.624573 0.624664 0.624573
0.656464 0.656555 0.656464
0.424164 0.424225 0.424164
0.460754 0.460815 0.460754
0.494904 0.494965 0.494904
0.528137 0.528198 0.528107
0.560669 0.560760 0.560638
0.592682 0.592804 0.592682
0.624573 0.624664 0.624573
0.656494 0.656586 0.656464
0.688751 0.688873 0.688751
0.458435 0.458496 0.458435
0.493805 0.493896 0.493805
0.528137 0.528229 0.528107
0.560669 0.560760 0.560638
0.592712 0.592804 0.592712
0.624573 0.624664 0.624573
0.656525 0.656616 0.656494
0.688843 0.688934 0.688812
0.721771 0.721863 0.721741
0.491608 0.491669 0.491608
0.525970 0.526031 0.525940
0.559601 0.559692 0.559601
0.592712 0.592804 0.592682
0.624573 0.624664 0.624573
0.656525 0.656616 0.656494
0.688812 0.688934 0.688812
0.721771 0.721893 0.721771
0.755554 0.755676 0.755554
0.523895 0.523956 0.523865
0.557495 0.557587 0.557465
0.590607 0.590698 0.590607
0.623535 0.623627 0.623505
0.656525 0.656616 0.656494
0.688843 0.688934 0.688812
0.721802 0.721893 0.721771
0.755615 0.755737 0.755585
0.790588 0.790710 0.790588
0.555420 0.555511 0.555389
0.588531 0.588623 0.588531
0.621429 0.621521 0.621429
0.654388 0.654480 0.654358
0.687744 0.687866 0.687744
0.721802 0.721893 0.721771
0.755615 0.755737 0.755615
0.790619 0.790741 0.790619
0.827057 0.827179 0.827026
0.586731 0.586823 0.586700
0.619385 0.619507 0.619385
0.652283 0.652374 0.652252
0.685608 0.685699 0.685577
0.719574 0.719696 0.719543
0.754486 0.754608 0.754486
0.790649 0.790771 0.790649
0.827118 0.827240 0.827087
0.865143 0.865295 0.865143
0.617493 0.617584 0.617493
0.650238 0.650330 0.650208
0.683472 0.683594 0.683441
0.717377 0.717468 0.717346
0.752197 0.752319 0.752197
0.788300 0.788422 0.788269
0.825867 0.825989 0.825836
0.865204 0.865326 0.865204
0.904633 0.904785 0.904602
0.648468 0.648560 0.648438
0.681488 0.681580 0.681458
0.715210 0.715302 0.715179
0.749939 0.750061 0.749908
0.785919 0.786011 0.785889
0.823395 0.823517 0.823364
0.862610 0.862732 0.862579
0.903381 0.903503 0.903351
0.943787 0.943939 0.943756
0.437256 0.437347 0.437256
0.472260 0.472321 0.472260
0.506104 0.506165 0.506073
0.539062 0.539124 0.539032
0.571381 0.571472 0.571350
0.603302 0.603394 0.603302
0.635162 0.635254 0.635132
0.667175 0.667267 0.667145
0.699677 0.699799 0.699646
0.471130 0.471191 0.471130
0.506042 0.506104 0.506042
0.539032 0.539124 0.539001
0.571381 0.571472 0.571350
0.603302 0.603424 0.603302
0.635162 0.635254 0.635132
0.667175 0.667267 0.667145
0.699615 0.699738 0.699585
0.732849 0.732941 0.732849
0.503876 0.503937 0.503815
0.537903 0.537994 0.537872
0.571381 0.571472 0.571350
0.603302 0.603424 0.603302
0.635162 0.635254 0.635132
0.667175 0.667267 0.667175
0.699646 0.699768 0.699646
0.732880 0.732971 0.732849
0.767029 0.767151 0.767029
0.535828 0.535919 0.535797
0.569244 0.569336 0.569214
0.602264 0.602356 0.602264
0.635162 0.635254 0.635162
0.667206 0.667297 0.667175
0.699677 0.699768 0.699646
0.732880 0.733002 0.732849
0.767059 0.767181 0.767029
0.802490 0.802612 0.802490
0.567261 0.567352 0.567230
0.600159 0.600281 0.600159
0.633057 0.633148 0.633026
0.666138 0.666229 0.666107
0.699707 0.699799 0.699677
0.732910 0.733032 0.732880
0.767090 0.767181 0.767059
0.802551 0.802673 0.802521
0.839508 0.839630 0.839478
0.598083 0.598175 0.598083
0.630981 0.631073 0.630951
0.664001 0.664093 0.664001
0.697510 0.697601 0.697479
0.731781 0.731903 0.731750
0.767090 0.767212 0.767059
0.802551 0.802673 0.802551
0.839539 0.839661 0.839508
0.878113 0.878265 0.878082
0.629028 0.629120 0.629028
0.661926 0.662018 0.661896
0.695343 0.695465 0.695312
0.729584 0.729675 0.729553
0.764771 0.764893 0.764771
0.801361 0.801483 0.801331
0.839569 0.839691 0.839539
0.878143 0.878265 0.878113
0.917999 0.918121 0.917969
0.660065 0.660156 0.660065
0.693298 0.693390 0.693268
0.727386 0.727478 0.727356
0.762482 0.762604 0.762451
0.798950 0.799103 0.798950
0.837036 0.837158 0.837006
0.876862 0.876984 0.876831
0.918060 0.918182 0.918030
0.958740 0.958893 0.958710
0.691589 0.691711 0.691559
0.725281 0.725372 0.725250
0.760254 0.760345 0.760223
0.796570 0.796692 0.796539
0.834534 0.834656 0.834503
0.874237 0.874359 0.874237
0.915375 0.915497 0.915344
0.957428 0.957550 0.957397
0.999908 1.000000 0.999878
