content/luts/b&w/black_and_white_02.cube
#Created by: inPixio
#Copyright: (C) Copyright 2019 inPixio
TITLE "B&W 2"
#LUT size
LUT_3D_SIZE 5
#data domain
#LUT data points
DOMAIN_MIN 0.000000 0.000000 0.000000
DOMAIN_MAX 0.903226 0.903226 0.903226
0.000000 0.000000 0.000000
0.064378 0.057389 0.070817
0.184802 0.165393 0.176120
0.472953 0.435798 0.422416
0.751247 0.755764 0.751080
0.080644 0.073045 0.086610
0.135958 0.122271 0.135607
0.216114 0.192981 0.201663
0.495399 0.458915 0.443824
0.757992 0.763775 0.760311
0.296422 0.264653 0.267536
0.336538 0.301869 0.301045
0.553307 0.521538 0.504128
0.619638 0.597528 0.581003
0.782132 0.792126 0.792905
0.633631 0.613581 0.597299
0.650385 0.633402 0.617914
0.711101 0.706966 0.696681
0.813611 0.827619 0.834272
0.879744 0.894728 0.909453
0.845624 0.861296 0.873091
0.850187 0.865904 0.878248
0.869108 0.884550 0.898741
0.905379 0.918425 0.933181
0.948882 0.956802 0.966857
0.055070 0.045823 0.062654
0.073167 0.065904 0.079301
0.251133 0.223987 0.230274
0.537057 0.503624 0.486564
0.768933 0.776776 0.775143
0.083330 0.075883 0.089494
0.145235 0.130617 0.143557
0.299092 0.267216 0.269764
0.553170 0.521721 0.504616
0.774182 0.782895 0.782239
0.321019 0.287251 0.287938
0.375677 0.338842 0.334264
0.562615 0.532326 0.515053
0.623270 0.601679 0.585229
0.794736 0.806546 0.809613
0.648829 0.631556 0.615976
0.666667 0.652934 0.638468
0.716259 0.713283 0.703700
0.815107 0.829343 0.836240
0.878477 0.893538 0.908217
0.847807 0.863508 0.875563
0.852689 0.868483 0.881163
0.871366 0.886671 0.901000
0.905943 0.918929 0.933623
0.949554 0.957366 0.967300
0.141802 0.127489 0.140673
0.169039 0.151705 0.163195
0.240635 0.214557 0.221607
0.539178 0.506279 0.489479
0.794415 0.806348 0.809400
0.226993 0.202548 0.210590
0.265889 0.237278 0.242420
0.333990 0.299519 0.298909
0.604807 0.579889 0.562585
0.811917 0.826032 0.832395
0.301839 0.269627 0.271962
0.374075 0.337240 0.332845
0.582910 0.554482 0.536660
0.699489 0.692805 0.681300
0.829038 0.844236 0.853590
0.632700 0.612406 0.596063
0.664881 0.650874 0.636484
0.743633 0.746609 0.740749
0.823468 0.838407 0.846815
0.871077 0.886427 0.900740
0.846494 0.862257 0.874205
0.854734 0.870497 0.883360
0.878004 0.893095 0.907897
0.907195 0.920089 0.934752
0.951095 0.958679 0.968368
0.383154 0.346120 0.340780
0.407477 0.369833 0.362173
0.482719 0.445655 0.431479
0.555383 0.523919 0.506584
0.765087 0.772015 0.769833
0.476600 0.439567 0.425956
0.491966 0.455421 0.440650
0.546075 0.513664 0.496529
0.605783 0.580957 0.563623
0.785794 0.796384 0.797803
0.550851 0.518868 0.501473
0.592020 0.565332 0.547967
0.680598 0.669856 0.656672
0.718898 0.716487 0.707118
0.840848 0.856474 0.867628
0.621119 0.598718 0.581735
0.652659 0.636210 0.620981
0.738048 0.739834 0.733181
0.830900 0.846418 0.856214
0.889983 0.904372 0.919478
0.826444 0.841382 0.850248
0.837110 0.852583 0.863127
0.872419 0.887770 0.902373
0.913237 0.925506 0.939773
0.955642 0.962585 0.971542
0.710536 0.706310 0.696193
0.717571 0.714839 0.705531
0.741955 0.744534 0.738521
0.772458 0.780942 0.779950
0.794461 0.806333 0.809384
0.736568 0.737881 0.731212
0.742397 0.744961 0.739056
0.760754 0.766995 0.764035
0.787060 0.797879 0.799558
0.807599 0.821073 0.826566
0.777142 0.786511 0.786328
0.788968 0.799970 0.801999
0.808774 0.822431 0.828168
0.827573 0.842695 0.851789
0.845563 0.861296 0.873137
0.797498 0.809979 0.813626
0.804807 0.818112 0.823117
0.836805 0.852400 0.863066
0.879255 0.894331 0.909148
0.899580 0.913191 0.928176
0.833631 0.849180 0.859297
0.840375 0.856031 0.867140
0.867247 0.882887 0.897200
0.910308 0.922881 0.937270
0.960647 0.966842 0.974945
