content/luts/b&w/black_and_white_07.cube
#Created by: inPixio
#Copyright: (C) Copyright 2019 inPixio
TITLE "B&W 7"
#LUT size
LUT_3D_SIZE 8
#data domain
#LUT data points
DOMAIN_MIN 0.000000 0.000000 0.000000
DOMAIN_MAX 0.903226 0.903226 0.903226
0.111437 0.111437 0.111437
0.120470 0.120470 0.120470
0.142443 0.142443 0.142443
0.189273 0.189273 0.189273
0.281453 0.281529 0.281483
0.413489 0.413489 0.413489
0.571832 0.571847 0.571832
0.753216 0.753201 0.753201
0.131441 0.131441 0.131441
0.138170 0.138170 0.138170
0.161029 0.161029 0.161029
0.212024 0.212024 0.211978
0.305974 0.305943 0.305943
0.433356 0.433356 0.433356
0.588968 0.588968 0.588968
0.760693 0.760708 0.760693
0.199573 0.199619 0.199664
0.206638 0.206638 0.206592
0.239124 0.239170 0.239170
0.304219 0.304280 0.304250
0.392599 0.392584 0.392554
0.505394 0.505409 0.505409
0.645121 0.645121 0.645121
0.792935 0.792966 0.792935
0.355932 0.355886 0.355917
0.362554 0.362509 0.362554
0.388052 0.388022 0.388006
0.441566 0.441566 0.441566
0.529824 0.529824 0.529839
0.615961 0.615992 0.615976
0.729625 0.729625 0.729656
0.836973 0.836942 0.836973
0.553323 0.553338 0.553323
0.556436 0.556451 0.556436
0.572808 0.572824 0.572808
0.604334 0.604303 0.604318
0.654978 0.654994 0.654994
0.738460 0.738460 0.738445
0.811170 0.811185 0.811185
0.877592 0.877638 0.877607
0.732219 0.732250 0.732250
0.735699 0.735699 0.735699
0.745632 0.745647 0.745663
0.763394 0.763363 0.763348
0.788174 0.788159 0.788159
0.818570 0.818616 0.818616
0.868711 0.868681 0.868666
0.911894 0.911894 0.911910
0.856764 0.856764 0.856779
0.857847 0.857832 0.857832
0.862013 0.862013 0.862013
0.869703 0.869719 0.869719
0.880324 0.880339 0.880339
0.893629 0.893629 0.893645
0.908782 0.908766 0.908766
0.938338 0.938308 0.938338
0.929198 0.929213 0.929198
0.929610 0.929625 0.929625
0.931548 0.931548 0.931548
0.935317 0.935287 0.935302
0.940780 0.940765 0.940749
0.947753 0.947768 0.947753
0.956039 0.956008 0.956008
0.964843 0.964859 0.964843
0.116640 0.116640 0.116640
0.121950 0.121950 0.121950
0.149691 0.149691 0.149691
0.206302 0.206302 0.206241
0.300313 0.300374 0.300343
0.429053 0.429084 0.429084
0.582055 0.582055 0.582055
0.756924 0.756924 0.756924
0.130068 0.130068 0.130068
0.141878 0.141878 0.141878
0.170199 0.170199 0.170199
0.228016 0.228061 0.228061
0.323156 0.323125 0.323125
0.447440 0.447471 0.447471
0.597757 0.597726 0.597742
0.764233 0.764263 0.764263
0.200732 0.200778 0.200824
0.213840 0.213886 0.213840
0.246204 0.246250 0.246250
0.313054 0.313024 0.313024
0.403769 0.403769 0.403769
0.514733 0.514717 0.514717
0.651865 0.651911 0.651896
0.795377 0.795377 0.795361
0.357610 0.357641 0.357641
0.369635 0.369543 0.369589
0.396353 0.396353 0.396353
0.447074 0.447105 0.447105
0.533852 0.533852 0.533867
0.621180 0.621164 0.621164
0.733059 0.733059 0.733074
0.838300 0.838331 0.838315
0.556634 0.556649 0.556634
0.560342 0.560357 0.560342
0.578409 0.578409 0.578409
0.609049 0.609049 0.609064
0.659266 0.659281 0.659281
0.740383 0.740383 0.740368
0.812635 0.812650 0.812650
0.878416 0.878401 0.878401
0.734920 0.734920 0.734905
0.738857 0.738857 0.738857
0.748470 0.748486 0.748486
0.765698 0.765698 0.765683
0.789944 0.789929 0.789929
0.819837 0.819852 0.819837
0.869429 0.869444 0.869444
0.912245 0.912245 0.912261
0.857481 0.857466 0.857466
0.858869 0.858869 0.858854
0.863005 0.862989 0.862989
0.870634 0.870665 0.870665
0.881117 0.881102 0.881102
0.894087 0.894087 0.894102
0.909102 0.909133 0.909117
0.938689 0.938689 0.938689
0.929427 0.929427 0.929427
0.929824 0.929839 0.929839
0.931869 0.931869 0.931838
0.935607 0.935607 0.935607
0.941024 0.941024 0.941009
0.947982 0.947997 0.947967
0.956191 0.956191 0.956191
0.964996 0.964996 0.964981
0.128115 0.128115 0.128115
0.133104 0.133104 0.133104
0.154055 0.154055 0.154055
0.216785 0.216831 0.216785
0.323049 0.323018 0.323018
0.457343 0.457343 0.457343
0.603113 0.603098 0.603098
0.764813 0.764797 0.764797
0.149554 0.149554 0.149554
0.157076 0.157076 0.157076
0.177508 0.177508 0.177508
0.244022 0.244053 0.244053
0.348516 0.348531 0.348531
0.474678 0.474678 0.474662
0.617395 0.617395 0.617380
0.771832 0.771817 0.771817
0.192371 0.192371 0.192310
0.206729 0.206775 0.206821
0.263279 0.263310 0.263356
0.330510 0.330465 0.330480
0.425788 0.425788 0.425788
0.535897 0.535943 0.535927
0.667399 0.667399 0.667399
0.801465 0.801465 0.801480
0.353628 0.353582 0.353613
0.366201 0.366125 0.366201
0.410834 0.410773 0.410788
0.467399 0.467399 0.467384
0.545052 0.545052 0.545068
0.634562 0.634546 0.634562
0.742886 0.742886 0.742870
0.841718 0.841718 0.841733
0.550744 0.550713 0.550744
0.559182 0.559152 0.559152
0.590021 0.590021 0.590036
0.623941 0.623911 0.623896
0.670161 0.670131 0.670146
0.746258 0.746258 0.746258
0.816999 0.817014 0.817014
0.880613 0.880598 0.880583
0.735180 0.735195 0.735210
0.739590 0.739590 0.739574
0.755444 0.755444 0.755444
0.774258 0.774304 0.774289
0.796262 0.796262 0.796277
0.825422 0.825391 0.825391
0.871733 0.871733 0.871733
0.913665 0.913665 0.913680
0.857923 0.857908 0.857923
0.859861 0.859861 0.859892
0.865629 0.865660 0.865644
0.873762 0.873762 0.873777
0.883543 0.883558 0.883558
0.895903 0.895888 0.895872
0.910582 0.910582 0.910582
0.940063 0.940032 0.940063
0.929534 0.929519 0.929534
0.930114 0.930129 0.930129
0.932784 0.932799 0.932815
0.936751 0.936721 0.936751
0.941985 0.942000 0.942000
0.948776 0.948760 0.948776
0.956802 0.956802 0.956802
0.965545 0.965545 0.965560
0.150286 0.150286 0.150286
0.156573 0.156573 0.156573
0.179599 0.179599 0.179599
0.224445 0.224491 0.224491
0.326284 0.326238 0.326253
0.471672 0.471641 0.471626
0.620630 0.620615 0.620600
0.771160 0.771176 0.771160
0.180957 0.180957 0.180957
0.186770 0.186770 0.186770
0.207553 0.207599 0.207645
0.252384 0.252430 0.252430
0.351812 0.351751 0.351782
0.491112 0.491157 0.491112
0.634638 0.634653 0.634638
0.777890 0.777890 0.777920
0.225315 0.225361 0.225361
0.245625 0.245655 0.245655
0.303456 0.303426 0.303426
0.346761 0.346700 0.346731
0.438422 0.438422 0.438422
0.556634 0.556649 0.556619
0.683497 0.683467 0.683482
0.805631 0.805631 0.805646
0.333288 0.333288 0.333257
0.347845 0.347799 0.347814
0.402091 0.402030 0.402060
0.493889 0.493904 0.493919
0.561105 0.561120 0.561105
0.651759 0.651759 0.651759
0.753262 0.753277 0.753262
0.844129 0.844114 0.844114
0.531945 0.531930 0.531930
0.542123 0.542123 0.542107
0.579187 0.579217 0.579217
0.635493 0.635477 0.635493
0.689433 0.689418 0.689418
0.754940 0.754955 0.754955
0.822538 0.822522 0.822538
0.882536 0.882536 0.882536
0.730144 0.730175 0.730175
0.734340 0.734356 0.734356
0.753277 0.753246 0.753262
0.781048 0.781048 0.781033
0.806256 0.806241 0.806241
0.833021 0.833036 0.833036
0.874907 0.874907 0.874891
0.915602 0.915602 0.915602
0.857145 0.857145 0.857145
0.858976 0.858961 0.858961
0.865263 0.865248 0.865248
0.876799 0.876783 0.876799
0.887602 0.887587 0.887587
0.898924 0.898924 0.898940
0.913146 0.913146 0.913146
0.942107 0.942107 0.942107
0.929198 0.929168 0.929183
0.930098 0.930053 0.930068
0.932677 0.932647 0.932677
0.937972 0.937987 0.937987
0.943557 0.943572 0.943572
0.950073 0.950073 0.950073
0.957702 0.957717 0.957702
0.966430 0.966430 0.966430
0.192218 0.192218 0.192157
0.199664 0.199664 0.199619
0.226200 0.226230 0.226230
0.273152 0.273213 0.273182
0.344884 0.344900 0.344884
0.464134 0.464134 0.464134
0.635782 0.635798 0.635798
0.783352 0.783337 0.783337
0.228656 0.228702 0.228702
0.234348 0.234394 0.234394
0.258854 0.258900 0.258900
0.301747 0.301808 0.301778
0.370001 0.369955 0.370001
0.484703 0.484718 0.484718
0.649348 0.649332 0.649332
0.791119 0.791104 0.791104
0.324697 0.324682 0.324682
0.334966 0.334905 0.334936
0.361212 0.361166 0.361181
0.399222 0.399222 0.399222
0.455970 0.455985 0.456001
0.555245 0.555261 0.555230
0.697047 0.697078 0.697047
0.812787 0.812757 0.812772
0.374334 0.374319 0.374289
0.388571 0.388571 0.388571
0.450126 0.450126 0.450126
0.538079 0.538018 0.538048
0.579904 0.579904 0.579904
0.657710 0.657679 0.657694
0.762249 0.762219 0.762219
0.843290 0.843275 0.843275
0.517327 0.517342 0.517342
0.529992 0.529992 0.530007
0.567727 0.567742 0.567727
0.631418 0.631464 0.631464
0.713283 0.713314 0.713298
0.762860 0.762860 0.762860
0.825788 0.825773 0.825803
0.881407 0.881407 0.881392
0.697398 0.697414 0.697398
0.704463 0.704448 0.704463
0.727642 0.727611 0.727642
0.769467 0.769451 0.769451
0.810681 0.810697 0.810697
0.842435 0.842420 0.842420
0.878080 0.878096 0.878096
0.916426 0.916426 0.916411
0.854719 0.854719 0.854734
0.856352 0.856352 0.856367
0.863294 0.863279 0.863294
0.875105 0.875105 0.875105
0.889845 0.889876 0.889860
0.903105 0.903090 0.903105
0.917357 0.917357 0.917342
0.944122 0.944137 0.944137
0.928634 0.928634 0.928603
0.929381 0.929351 0.929366
0.931869 0.931838 0.931853
0.937133 0.937133 0.937148
0.944946 0.944915 0.944946
0.951858 0.951873 0.951873
0.959121 0.959136 0.959136
0.967697 0.967697 0.967681
0.267002 0.267033 0.267033
0.274785 0.274861 0.274830
0.302998 0.303059 0.303029
0.349828 0.349767 0.349798
0.413306 0.413352 0.413352
0.497734 0.497673 0.497688
0.621851 0.621820 0.621805
0.789975 0.789975 0.789975
0.304677 0.304646 0.304646
0.310521 0.310491 0.310491
0.335653 0.335683 0.335683
0.378851 0.378836 0.378851
0.437720 0.437720 0.437751
0.517113 0.517098 0.517098
0.636103 0.636088 0.636072
0.797421 0.797452 0.797437
0.410040 0.410025 0.410010
0.415732 0.415732 0.415732
0.434943 0.434943 0.434943
0.470253 0.470253 0.470237
0.518395 0.518380 0.518380
0.583307 0.583337 0.583337
0.687938 0.687938 0.687938
0.819776 0.819745 0.819760
0.478843 0.478828 0.478859
0.492226 0.492195 0.492195
0.557626 0.557641 0.557626
0.596933 0.596948 0.596948
0.633143 0.633143 0.633143
0.680125 0.680125 0.680110
0.759152 0.759167 0.759167
0.851591 0.851560 0.851560
0.567239 0.567254 0.567239
0.575525 0.575509 0.575525
0.612146 0.612162 0.612192
0.676249 0.676280 0.676280
0.749096 0.749111 0.749096
0.776715 0.776700 0.776715
0.825422 0.825422 0.825406
0.881910 0.881895 0.881895
0.704799 0.704814 0.704799
0.712718 0.712703 0.712718
0.733684 0.733684 0.733669
0.769497 0.769482 0.769497
0.810071 0.810086 0.810071
0.854246 0.854246 0.854246
0.880125 0.880140 0.880140
0.915114 0.915114 0.915129
0.830381 0.830366 0.830366
0.833188 0.833188 0.833204
0.843015 0.843046 0.843031
0.861051 0.861036 0.861036
0.883040 0.883024 0.883024
0.905028 0.905028 0.905043
0.922301 0.922271 0.922286
0.945937 0.945937 0.945937
0.926635 0.926635 0.926604
0.927596 0.927611 0.927611
0.930755 0.930739 0.930739
0.936172 0.936156 0.936141
0.943664 0.943633 0.943633
0.953033 0.953033 0.953033
0.961196 0.961196 0.961196
0.970214 0.970214 0.970214
0.392691 0.392691 0.392737
0.399619 0.399619 0.399619
0.424430 0.424430 0.424430
0.467506 0.467521 0.467536
0.523354 0.523339 0.523339
0.586847 0.586832 0.586816
0.669398 0.669398 0.669413
0.782452 0.782437 0.782437
0.425010 0.425010 0.425010
0.430930 0.430930 0.430930
0.452812 0.452812 0.452812
0.491478 0.491493 0.491508
0.543587 0.543587 0.543603
0.603739 0.603723 0.603739
0.682322 0.682307 0.682322
0.789349 0.789334 0.789334
0.516091 0.516106 0.516091
0.521096 0.521096 0.521111
0.538598 0.538598 0.538598
0.569177 0.569192 0.569162
0.611566 0.611536 0.611551
0.662272 0.662257 0.662257
0.726101 0.726101 0.726101
0.813840 0.813855 0.813855
0.624033 0.624033 0.624018
0.633234 0.633219 0.633219
0.652369 0.652338 0.652338
0.676066 0.676036 0.676066
0.707332 0.707332 0.707332
0.742351 0.742351 0.742336
0.784222 0.784222 0.784222
0.846311 0.846311 0.846311
0.650584 0.650584 0.650599
0.657939 0.657969 0.657984
0.700877 0.700908 0.700893
0.765148 0.765133 0.765133
0.794217 0.794217 0.794202
0.815259 0.815274 0.815259
0.839353 0.839338 0.839338
0.881163 0.881178 0.881178
0.760983 0.760998 0.760998
0.764447 0.764462 0.764447
0.781659 0.781689 0.781674
0.805554 0.805554 0.805570
0.836271 0.836240 0.836240
0.873228 0.873213 0.873213
0.886885 0.886870 0.886900
0.914550 0.914580 0.914565
0.846235 0.846235 0.846235
0.848783 0.848783 0.848798
0.855421 0.855421 0.855436
0.868040 0.868025 0.868025
0.884581 0.884566 0.884566
0.904540 0.904524 0.904540
0.928740 0.928756 0.928756
0.946456 0.946456 0.946456
0.910445 0.910414 0.910414
0.911406 0.911360 0.911376
0.915450 0.915450 0.915450
0.923964 0.923949 0.923964
0.935500 0.935515 0.935515
0.949249 0.949264 0.949264
0.962478 0.962478 0.962478
0.973068 0.973068 0.973053
0.578164 0.578164 0.578164
0.583978 0.583932 0.583963
0.601236 0.601206 0.601221
0.634577 0.634562 0.634562
0.677806 0.677836 0.677821
0.724498 0.724498 0.724498
0.773846 0.773831 0.773816
0.823987 0.823957 0.823957
0.601175 0.601175 0.601190
0.604654 0.604624 0.604624
0.621500 0.621531 0.621515
0.651530 0.651530 0.651530
0.691264 0.691218 0.691218
0.736019 0.735958 0.735958
0.781033 0.781018 0.781003
0.827787 0.827817 0.827817
0.667903 0.667903 0.667903
0.671412 0.671412 0.671428
0.683146 0.683146 0.683146
0.707759 0.707759 0.707759
0.737987 0.737972 0.737972
0.772625 0.772610 0.772595
0.807279 0.807279 0.807279
0.846006 0.845991 0.845991
0.751385 0.751400 0.751415
0.753079 0.753079 0.753094
0.761105 0.761120 0.761105
0.776959 0.776928 0.776944
0.796429 0.796445 0.796445
0.818814 0.818830 0.818830
0.841382 0.841382 0.841382
0.869154 0.869184 0.869184
0.790845 0.790829 0.790829
0.795148 0.795117 0.795117
0.815808 0.815839 0.815839
0.835721 0.835752 0.835737
0.847135 0.847120 0.847120
0.861006 0.860990 0.861006
0.875959 0.875929 0.875929
0.895079 0.895064 0.895064
0.823957 0.823987 0.823972
0.825742 0.825757 0.825742
0.836118 0.836133 0.836118
0.854444 0.854429 0.854429
0.883436 0.883421 0.883421
0.898695 0.898680 0.898695
0.909346 0.909331 0.909331
0.922637 0.922683 0.922667
0.885145 0.885145 0.885161
0.886122 0.886122 0.886137
0.890135 0.890150 0.890150
0.897047 0.897093 0.897063
0.906966 0.906996 0.906981
0.920333 0.920348 0.920348
0.941344 0.941314 0.941344
0.950393 0.950393 0.950393
0.925506 0.925536 0.925521
0.926329 0.926360 0.926345
0.928512 0.928466 0.928481
0.933333 0.933318 0.933333
0.940292 0.940307 0.940322
0.949584 0.949584 0.949569
0.961822 0.961822 0.961822
0.977203 0.977218 0.977218
