content/luts/b&w/black_and_white_04.cube
#Created by: inPixio
#Copyright: (C) Copyright 2019 inPixio
TITLE "B&W 4"
#LUT size
LUT_3D_SIZE 8
#data domain
#LUT data points
DOMAIN_MIN 0.000000 0.000000 0.000000
DOMAIN_MAX 0.903226 0.903226 0.903226
0.022278 0.022278 0.022278
0.044724 0.044724 0.044724
0.061646 0.061646 0.061646
0.094469 0.094469 0.094469
0.112673 0.112673 0.112673
0.155810 0.155810 0.155810
0.170657 0.170657 0.170657
0.237324 0.237369 0.237369
0.084611 0.084611 0.084611
0.102449 0.102449 0.102449
0.119905 0.119905 0.119905
0.142443 0.142443 0.142443
0.167620 0.167620 0.167620
0.195605 0.195605 0.195544
0.237720 0.237766 0.237766
0.283253 0.283314 0.283284
0.111254 0.111254 0.111254
0.136690 0.136690 0.136690
0.163623 0.163623 0.163623
0.191074 0.191074 0.191074
0.224491 0.224537 0.224537
0.263233 0.263279 0.263279
0.303731 0.303792 0.303761
0.359304 0.359243 0.359274
0.168917 0.168917 0.168917
0.186099 0.186099 0.186099
0.216022 0.216068 0.216114
0.245197 0.245228 0.245197
0.286473 0.286549 0.286519
0.334340 0.334295 0.334310
0.387930 0.387915 0.387884
0.448234 0.448203 0.448203
0.230091 0.230137 0.230137
0.242542 0.242573 0.242573
0.285771 0.285832 0.285802
0.319524 0.319509 0.319509
0.358389 0.358328 0.358358
0.410285 0.410285 0.410285
0.471901 0.471931 0.471946
0.537026 0.536965 0.536996
0.286870 0.286961 0.286961
0.302327 0.302388 0.302358
0.348776 0.348791 0.348776
0.411750 0.411795 0.411795
0.453941 0.453986 0.453941
0.502556 0.502541 0.502541
0.553552 0.553567 0.553536
0.616526 0.616541 0.616571
0.366766 0.366720 0.366766
0.376974 0.376883 0.376928
0.419104 0.419150 0.419150
0.500069 0.500099 0.500069
0.558221 0.558190 0.558221
0.601968 0.601968 0.601984
0.646372 0.646387 0.646387
0.693416 0.693385 0.693385
0.457343 0.457343 0.457313
0.468360 0.468345 0.468376
0.502297 0.502281 0.502297
0.572534 0.572564 0.572564
0.658854 0.658854 0.658854
0.698772 0.698802 0.698787
0.735699 0.735699 0.735699
0.778439 0.778409 0.778424
0.033890 0.033890 0.033890
0.063371 0.063371 0.063371
0.092592 0.092592 0.092592
0.123079 0.123079 0.123079
0.134371 0.134371 0.134371
0.178729 0.178729 0.178729
0.192065 0.192065 0.192065
0.257954 0.258000 0.258000
0.092592 0.092592 0.092592
0.115709 0.115709 0.115709
0.137881 0.137881 0.137881
0.160327 0.160327 0.160327
0.189334 0.189334 0.189334
0.223636 0.223682 0.223682
0.266239 0.266270 0.266239
0.314504 0.314473 0.314473
0.125689 0.125689 0.125689
0.157397 0.157397 0.157397
0.189792 0.189792 0.189792
0.213275 0.213336 0.213382
0.245823 0.245853 0.245853
0.281086 0.281148 0.281117
0.326345 0.326314 0.326314
0.397665 0.397665 0.397665
0.175891 0.175891 0.175891
0.194171 0.194171 0.194110
0.232487 0.232532 0.232532
0.267948 0.267994 0.267994
0.312429 0.312490 0.312459
0.356725 0.356664 0.356695
0.402731 0.402716 0.402686
0.458869 0.458824 0.458824
0.235126 0.235172 0.235126
0.244373 0.244419 0.244419
0.292714 0.292775 0.292744
0.333883 0.333822 0.333852
0.376684 0.376669 0.376684
0.433387 0.433356 0.433372
0.490868 0.490883 0.490883
0.547845 0.547814 0.547829
0.293156 0.293217 0.293187
0.306050 0.306111 0.306081
0.346456 0.346487 0.346456
0.415946 0.415946 0.415946
0.461677 0.461677 0.461677
0.513878 0.513863 0.513832
0.568429 0.568414 0.568444
0.625971 0.625971 0.625971
0.369619 0.369574 0.369619
0.381109 0.381094 0.381109
0.411688 0.411688 0.411688
0.486351 0.486366 0.486366
0.563043 0.563012 0.563027
0.606714 0.606714 0.606714
0.648814 0.648829 0.648829
0.696941 0.696925 0.696941
0.463218 0.463203 0.463218
0.474296 0.474296 0.474281
0.504036 0.504021 0.504021
0.564248 0.564263 0.564248
0.655894 0.655863 0.655879
0.701869 0.701854 0.701869
0.737179 0.737179 0.737179
0.777783 0.777783 0.777798
0.059281 0.059281 0.059281
0.101961 0.101961 0.101961
0.146914 0.146914 0.146914
0.164157 0.164157 0.164157
0.191028 0.191028 0.191028
0.220203 0.220249 0.220203
0.234562 0.234608 0.234608
0.285664 0.285725 0.285695
0.114046 0.114046 0.114046
0.142153 0.142153 0.142153
0.171878 0.171878 0.171878
0.199664 0.199664 0.199619
0.232776 0.232807 0.232807
0.265202 0.265232 0.265202
0.301686 0.301686 0.301717
0.348226 0.348257 0.348257
0.147128 0.147128 0.147128
0.179370 0.179370 0.179370
0.222004 0.222034 0.222004
0.241718 0.241749 0.241749
0.272511 0.272587 0.272541
0.314763 0.314733 0.314733
0.365408 0.365347 0.365377
0.433753 0.433707 0.433707
0.196719 0.196719 0.196674
0.216251 0.216297 0.216251
0.273899 0.273976 0.273930
0.317113 0.317083 0.317083
0.349035 0.348974 0.349004
0.389761 0.389761 0.389761
0.433448 0.433448 0.433448
0.490227 0.490242 0.490242
0.256748 0.256779 0.256779
0.269169 0.269200 0.269200
0.305333 0.305287 0.305287
0.369833 0.369787 0.369833
0.416892 0.416892 0.416892
0.460884 0.460884 0.460884
0.516899 0.516899 0.516915
0.569635 0.569589 0.569604
0.322850 0.322835 0.322835
0.329229 0.329168 0.329198
0.357412 0.357366 0.357397
0.431022 0.431067 0.431067
0.489174 0.489189 0.489174
0.530205 0.530205 0.530221
0.590509 0.590539 0.590524
0.651270 0.651255 0.651255
0.392187 0.392187 0.392187
0.400504 0.400504 0.400519
0.428855 0.428885 0.428885
0.488640 0.488655 0.488655
0.574105 0.574105 0.574121
0.613016 0.613001 0.613001
0.657664 0.657633 0.657633
0.716335 0.716335 0.716335
0.478218 0.478187 0.478187
0.488060 0.488045 0.488014
0.522499 0.522469 0.522484
0.570535 0.570504 0.570504
0.642329 0.642344 0.642344
0.704784 0.704784 0.704784
0.740078 0.740078 0.740078
0.788769 0.788769 0.788754
0.083803 0.083803 0.083803
0.124636 0.124636 0.124636
0.202304 0.202304 0.202243
0.232441 0.232487 0.232441
0.244099 0.244144 0.244144
0.282673 0.282734 0.282704
0.307744 0.307805 0.307775
0.326116 0.326116 0.326146
0.147463 0.147463 0.147463
0.178607 0.178607 0.178607
0.224582 0.224628 0.224628
0.264698 0.264729 0.264729
0.287327 0.287388 0.287327
0.334890 0.334905 0.334890
0.365499 0.365454 0.365469
0.393622 0.393607 0.393576
0.184588 0.184588 0.184588
0.218433 0.218479 0.218433
0.256626 0.256672 0.256626
0.284978 0.285039 0.285008
0.321660 0.321660 0.321691
0.363546 0.363500 0.363516
0.412863 0.412863 0.412863
0.464439 0.464439 0.464424
0.224369 0.224414 0.224369
0.253483 0.253513 0.253483
0.304707 0.304768 0.304738
0.348333 0.348287 0.348302
0.381262 0.381231 0.381201
0.419776 0.419745 0.419745
0.469963 0.469917 0.469902
0.531609 0.531640 0.531624
0.278935 0.278996 0.278965
0.297810 0.297780 0.297780
0.345785 0.345724 0.345754
0.421286 0.421286 0.421286
0.467674 0.467674 0.467659
0.496346 0.496361 0.496361
0.543252 0.543252 0.543236
0.590845 0.590799 0.590829
0.349752 0.349691 0.349722
0.362127 0.362081 0.362097
0.394324 0.394369 0.394369
0.454292 0.454246 0.454261
0.532723 0.532708 0.532708
0.567269 0.567300 0.567300
0.604807 0.604837 0.604822
0.670985 0.670985 0.671000
0.434913 0.434913 0.434913
0.442115 0.442115 0.442115
0.461509 0.461555 0.461555
0.503731 0.503716 0.503716
0.583642 0.583612 0.583612
0.638789 0.638773 0.638789
0.669490 0.669490 0.669490
0.738323 0.738338 0.738323
0.523262 0.523247 0.523247
0.530175 0.530205 0.530190
0.552819 0.552865 0.552834
0.593790 0.593790 0.593805
0.653849 0.653834 0.653849
0.722622 0.722622 0.722622
0.751858 0.751827 0.751858
0.798199 0.798230 0.798199
0.106432 0.106432 0.106432
0.141741 0.141741 0.141741
0.237171 0.237202 0.237171
0.316915 0.316915 0.316945
0.346563 0.346593 0.346563
0.325155 0.325155 0.325185
0.374212 0.374167 0.374212
0.383322 0.383291 0.383276
0.188251 0.188251 0.188251
0.210819 0.210819 0.210773
0.265492 0.265522 0.265522
0.340047 0.340078 0.340047
0.377173 0.377157 0.377127
0.379492 0.379461 0.379446
0.421149 0.421149 0.421149
0.452689 0.452689 0.452689
0.233707 0.233753 0.233707
0.264317 0.264347 0.264347
0.313252 0.313222 0.313222
0.357641 0.357595 0.357610
0.406058 0.405997 0.406012
0.435187 0.435233 0.435233
0.481956 0.481987 0.481987
0.523339 0.523369 0.523354
0.272541 0.272618 0.272541
0.304494 0.304555 0.304524
0.364706 0.364660 0.364675
0.391348 0.391348 0.391348
0.426246 0.426200 0.426200
0.469810 0.469856 0.469841
0.511360 0.511345 0.511345
0.564828 0.564798 0.564813
0.308507 0.308568 0.308537
0.339910 0.339941 0.339941
0.398123 0.398154 0.398123
0.455299 0.455268 0.455283
0.495476 0.495491 0.495506
0.531716 0.531701 0.531701
0.569513 0.569528 0.569513
0.618570 0.618586 0.618601
0.376944 0.376928 0.376944
0.395438 0.395407 0.395392
0.440238 0.440238 0.440238
0.504387 0.504402 0.504387
0.576425 0.576425 0.576425
0.614359 0.614344 0.614359
0.637202 0.637247 0.637232
0.684993 0.685039 0.685008
0.456809 0.456855 0.456855
0.469673 0.469688 0.469703
0.505730 0.505715 0.505715
0.549737 0.549706 0.549737
0.608988 0.608957 0.608972
0.677653 0.677684 0.677653
0.704387 0.704372 0.704372
0.749645 0.749661 0.749661
0.556680 0.556695 0.556710
0.567056 0.567041 0.567056
0.592187 0.592203 0.592203
0.620493 0.620539 0.620539
0.662455 0.662440 0.662425
0.730938 0.730938 0.730922
0.780469 0.780469 0.780469
0.811246 0.811261 0.811261
0.134295 0.134295 0.134295
0.159823 0.159823 0.159823
0.252918 0.252949 0.252949
0.356802 0.356741 0.356771
0.410956 0.411002 0.411002
0.442481 0.442435 0.442451
0.418860 0.418860 0.418860
0.430106 0.430106 0.430137
0.223804 0.223850 0.223804
0.246128 0.246174 0.246128
0.299184 0.299245 0.299214
0.391302 0.391302 0.391302
0.464668 0.464698 0.464698
0.484108 0.484154 0.484154
0.470253 0.470283 0.470268
0.502632 0.502648 0.502632
0.279103 0.279164 0.279133
0.316259 0.316259 0.316289
0.370520 0.370474 0.370520
0.416968 0.416968 0.416968
0.478767 0.478798 0.478798
0.525338 0.525322 0.525322
0.534234 0.534218 0.534218
0.573053 0.573037 0.573053
0.329351 0.329381 0.329381
0.360830 0.360769 0.360830
0.418448 0.418448 0.418448
0.467140 0.467186 0.467170
0.505272 0.505287 0.505287
0.549752 0.549722 0.549752
0.576471 0.576486 0.576471
0.614786 0.614832 0.614847
0.367819 0.367773 0.367773
0.396109 0.396109 0.396109
0.468345 0.468345 0.468330
0.514672 0.514687 0.514687
0.533242 0.533227 0.533227
0.567102 0.567132 0.567132
0.612253 0.612268 0.612268
0.651011 0.651011 0.651011
0.403540 0.403540 0.403540
0.434119 0.434119 0.434119
0.499504 0.499535 0.499535
0.553338 0.553338 0.553323
0.601694 0.601724 0.601724
0.635401 0.635416 0.635401
0.668956 0.668971 0.668971
0.705715 0.705730 0.705745
0.490852 0.490868 0.490868
0.505135 0.505119 0.505119
0.541955 0.541955 0.541939
0.590707 0.590707 0.590707
0.651057 0.651087 0.651072
0.714778 0.714778 0.714778
0.749874 0.749874 0.749874
0.774365 0.774380 0.774395
0.577646 0.577661 0.577630
0.590051 0.590066 0.590051
0.621546 0.621546 0.621531
0.658763 0.658763 0.658763
0.697154 0.697169 0.697154
0.751644 0.751690 0.751675
0.816999 0.817014 0.817014
0.841642 0.841642 0.841642
0.171817 0.171817 0.171817
0.194064 0.194064 0.194019
0.262150 0.262196 0.262196
0.388388 0.388388 0.388388
0.453269 0.453269 0.453269
0.486122 0.486091 0.486137
0.499794 0.499809 0.499809
0.500649 0.500664 0.500649
0.261570 0.261616 0.261616
0.285466 0.285527 0.285496
0.331945 0.331945 0.331914
0.420523 0.420523 0.420523
0.504463 0.504448 0.504448
0.552163 0.552132 0.552132
0.570382 0.570413 0.570413
0.551568 0.551614 0.551583
0.344793 0.344747 0.344778
0.372915 0.372854 0.372854
0.427131 0.427131 0.427131
0.453941 0.453986 0.453986
0.519692 0.519707 0.519707
0.589426 0.589456 0.589441
0.616526 0.616526 0.616526
0.613993 0.614023 0.614008
0.396765 0.396765 0.396765
0.426505 0.426551 0.426551
0.493507 0.493584 0.493538
0.527276 0.527260 0.527260
0.562097 0.562112 0.562097
0.607004 0.607004 0.607019
0.651789 0.651774 0.651789
0.667765 0.667765 0.667765
0.425391 0.425422 0.425422
0.457160 0.457160 0.457160
0.522240 0.522271 0.522240
0.567239 0.567254 0.567239
0.605951 0.605951 0.605951
0.634928 0.634943 0.634928
0.674632 0.674617 0.674601
0.703349 0.703365 0.703349
0.467231 0.467277 0.467231
0.492546 0.492577 0.492546
0.563104 0.563119 0.563104
0.617105 0.617105 0.617090
0.651072 0.651057 0.651057
0.666056 0.666056 0.666072
0.698146 0.698146 0.698146
0.741695 0.741695 0.741695
0.516457 0.516472 0.516472
0.539849 0.539849 0.539864
0.597650 0.597650 0.597650
0.645258 0.645274 0.645258
0.692042 0.692012 0.692027
0.736370 0.736385 0.736400
0.770382 0.770398 0.770367
0.801373 0.801373 0.801373
0.610300 0.610285 0.610285
0.620447 0.620447 0.620432
0.651530 0.651530 0.651530
0.692638 0.692622 0.692622
0.730343 0.730358 0.730373
0.786343 0.786358 0.786358
0.845838 0.845823 0.845823
0.874754 0.874754 0.874769
0.211337 0.211337 0.211292
0.237079 0.237125 0.237125
0.286610 0.286671 0.286641
0.388388 0.388373 0.388342
0.462745 0.462730 0.462745
0.500801 0.500816 0.500816
0.549508 0.549508 0.549523
0.566659 0.566598 0.566613
0.306676 0.306737 0.306706
0.324651 0.324620 0.324620
0.375876 0.375845 0.375876
0.443015 0.443015 0.443015
0.533227 0.533211 0.533211
0.573953 0.573938 0.573953
0.604807 0.604776 0.604776
0.631617 0.631586 0.631571
0.409705 0.409705 0.409705
0.434577 0.434577 0.434577
0.486427 0.486412 0.486412
0.503975 0.503990 0.503990
0.542931 0.542931 0.542947
0.628809 0.628809 0.628794
0.683360 0.683406 0.683375
0.709087 0.709102 0.709102
0.469947 0.469978 0.469947
0.499382 0.499367 0.499367
0.563272 0.563211 0.563226
0.581582 0.581613 0.581613
0.585336 0.585290 0.585306
0.629450 0.629465 0.629480
0.693767 0.693782 0.693782
0.729534 0.729534 0.729534
0.502113 0.502098 0.502098
0.530770 0.530755 0.530755
0.593439 0.593439 0.593439
0.636301 0.636301 0.636301
0.657710 0.657679 0.657694
0.682231 0.682216 0.682216
0.715419 0.715419 0.715419
0.760311 0.760327 0.760327
0.511620 0.511681 0.511650
0.538506 0.538552 0.538552
0.624247 0.624262 0.624262
0.666301 0.666285 0.666255
0.698207 0.698192 0.698192
0.728084 0.728084 0.728100
0.752224 0.752224 0.752239
0.785245 0.785245 0.785245
0.567987 0.567941 0.567956
0.588754 0.588708 0.588724
0.644892 0.644877 0.644877
0.704616 0.704616 0.704616
0.746944 0.746960 0.746975
0.778637 0.778637 0.778622
0.794461 0.794492 0.794461
0.820859 0.820874 0.820859
0.628931 0.628931 0.628916
0.643702 0.643732 0.643717
0.681163 0.681209 0.681178
0.732723 0.732723 0.732708
0.779858 0.779858 0.779843
0.818875 0.818891 0.818891
0.859663 0.859663 0.859648
0.889509 0.889525 0.889525
