content/luts/b&w/black_and_white_11.cube
#Created by: inPixio
#Copyright: (C) Copyright 2022 inPixio
TITLE "Black & White 11"
#LUT size
LUT_3D_SIZE 33
#LUT data points
0.000000 0.000000 0.000000
0.004242 0.004242 0.004242
0.008850 0.008850 0.008850
0.013275 0.013275 0.013275
0.017548 0.017548 0.017548
0.022064 0.022064 0.022064
0.026428 0.026428 0.026428
0.031067 0.031067 0.031067
0.036407 0.036407 0.036407
0.042084 0.042084 0.042084
0.047791 0.047791 0.047791
0.053528 0.053528 0.053528
0.059357 0.059357 0.059357
0.065094 0.065094 0.065094
0.070801 0.070801 0.070801
0.076508 0.076508 0.076508
0.082306 0.082306 0.082306
0.088104 0.088104 0.088104
0.093842 0.093842 0.093842
0.099609 0.099609 0.099609
0.105438 0.105438 0.105438
0.111267 0.111267 0.111267
0.117004 0.117004 0.117004
0.122894 0.122894 0.122894
0.128784 0.128784 0.128784
0.134583 0.134583 0.134583
0.140411 0.140411 0.140411
0.146271 0.146271 0.146271
0.152191 0.152191 0.152191
0.158234 0.158234 0.158234
0.164001 0.164001 0.164001
0.170074 0.170074 0.170074
0.175903 0.175903 0.175903
0.006561 0.006561 0.006561
0.003082 0.003082 0.003082
0.007324 0.007324 0.007324
0.011719 0.011719 0.011719
0.016327 0.016327 0.016327
0.020630 0.020630 0.020630
0.024902 0.024902 0.024902
0.029480 0.029480 0.029480
0.034821 0.034821 0.034821
0.040314 0.040314 0.040314
0.046021 0.046021 0.046021
0.051697 0.051697 0.051697
0.057465 0.057465 0.057465
0.063202 0.063202 0.063202
0.068970 0.068970 0.068970
0.074738 0.074738 0.074738
0.080444 0.080444 0.080444
0.086182 0.086182 0.086182
0.092010 0.092010 0.092010
0.097839 0.097839 0.097839
0.103577 0.103577 0.103577
0.109406 0.109406 0.109406
0.115265 0.115265 0.115265
0.121094 0.121094 0.121094
0.126892 0.126892 0.126892
0.132782 0.132782 0.132782
0.138641 0.138641 0.138641
0.144501 0.144501 0.144501
0.150391 0.150391 0.150391
0.156281 0.156281 0.156281
0.162201 0.162201 0.162201
0.168121 0.168121 0.168121
0.174133 0.174133 0.174133
0.013275 0.013275 0.013275
0.009644 0.009644 0.009644
0.006134 0.006134 0.006134
0.010498 0.010498 0.010498
0.014832 0.014832 0.014832
0.019104 0.019104 0.019104
0.023621 0.023621 0.023621
0.028259 0.028259 0.028259
0.033020 0.033020 0.033020
0.038422 0.038422 0.038422
0.044189 0.044189 0.044189
0.049957 0.049957 0.049957
0.055695 0.055695 0.055695
0.061401 0.061401 0.061401
0.067169 0.067169 0.067169
0.072906 0.072906 0.072906
0.078613 0.078613 0.078613
0.084351 0.084351 0.084351
0.090179 0.090179 0.090179
0.096008 0.096008 0.096008
0.101715 0.101715 0.101715
0.107544 0.107544 0.107544
0.113464 0.113464 0.113464
0.119263 0.119263 0.119263
0.125031 0.125031 0.125031
0.130981 0.130981 0.130981
0.136749 0.136749 0.136749
0.142578 0.142578 0.142578
0.148499 0.148499 0.148499
0.154358 0.154358 0.154358
0.160309 0.160309 0.160309
0.166229 0.166229 0.166229
0.172150 0.172150 0.172150
0.019806 0.019806 0.019806
0.016022 0.016022 0.016022
0.012848 0.012848 0.012848
0.008881 0.008881 0.008881
0.013306 0.013306 0.013306
0.017883 0.017883 0.017883
0.022156 0.022156 0.022156
0.026733 0.026733 0.026733
0.031464 0.031464 0.031464
0.036804 0.036804 0.036804
0.042419 0.042419 0.042419
0.048126 0.048126 0.048126
0.053741 0.053741 0.053741
0.059479 0.059479 0.059479
0.065277 0.065277 0.065277
0.071075 0.071075 0.071075
0.076813 0.076813 0.076813
0.082672 0.082672 0.082672
0.088409 0.088409 0.088409
0.094116 0.094116 0.094116
0.099915 0.099915 0.099915
0.105743 0.105743 0.105743
0.111511 0.111511 0.111511
0.117310 0.117310 0.117310
0.123108 0.123108 0.123108
0.129059 0.129059 0.129059
0.134979 0.134979 0.134979
0.140808 0.140808 0.140808
0.146637 0.146637 0.146637
0.152618 0.152618 0.152618
0.158417 0.158417 0.158417
0.164459 0.164459 0.164459
0.170288 0.170288 0.170288
0.026398 0.026398 0.026398
0.022858 0.022858 0.022858
0.019379 0.019379 0.019379
0.015625 0.015625 0.015625
0.012085 0.012085 0.012085
0.016357 0.016357 0.016357
0.020935 0.020935 0.020935
0.025238 0.025238 0.025238
0.029846 0.029846 0.029846
0.034943 0.034943 0.034943
0.040619 0.040619 0.040619
0.046387 0.046387 0.046387
0.052002 0.052002 0.052002
0.057648 0.057648 0.057648
0.063507 0.063507 0.063507
0.069305 0.069305 0.069305
0.075012 0.075012 0.075012
0.080780 0.080780 0.080780
0.086548 0.086548 0.086548
0.092285 0.092285 0.092285
0.098053 0.098053 0.098053
0.103882 0.103882 0.103882
0.109680 0.109680 0.109680
0.115479 0.115479 0.115479
0.121277 0.121277 0.121277
0.127136 0.127136 0.127136
0.132996 0.132996 0.132996
0.138885 0.138885 0.138885
0.144775 0.144775 0.144775
0.150726 0.150726 0.150726
0.156525 0.156525 0.156525
0.162537 0.162537 0.162537
0.168427 0.168427 0.168427
0.033752 0.033752 0.033752
0.029541 0.029541 0.029541
0.025665 0.025665 0.025665
0.022186 0.022186 0.022186
0.018677 0.018677 0.018677
0.015198 0.015198 0.015198
0.019440 0.019440 0.019440
0.023743 0.023743 0.023743
0.028290 0.028290 0.028290
0.033295 0.033295 0.033295
0.038757 0.038757 0.038757
0.044556 0.044556 0.044556
0.050171 0.050171 0.050171
0.055847 0.055847 0.055847
0.061676 0.061676 0.061676
0.067474 0.067474 0.067474
0.073151 0.073151 0.073151
0.078857 0.078857 0.078857
0.084656 0.084656 0.084656
0.090485 0.090485 0.090485
0.096252 0.096252 0.096252
0.102051 0.102051 0.102051
0.107880 0.107880 0.107880
0.113678 0.113678 0.113678
0.119476 0.119476 0.119476
0.125305 0.125305 0.125305
0.131134 0.131134 0.131134
0.136963 0.136963 0.136963
0.142944 0.142944 0.142944
0.148773 0.148773 0.148773
0.154633 0.154633 0.154633
0.160583 0.160583 0.160583
0.166565 0.166565 0.166565
0.042084 0.042084 0.042084
0.037598 0.037598 0.037598
0.033234 0.033234 0.033234
0.029022 0.029022 0.029022
0.025208 0.025208 0.025208
0.021729 0.021729 0.021729
0.017975 0.017975 0.017975
0.022522 0.022522 0.022522
0.026764 0.026764 0.026764
0.031708 0.031708 0.031708
0.036987 0.036987 0.036987
0.042542 0.042542 0.042542
0.048370 0.048370 0.048370
0.054016 0.054016 0.054016
0.059875 0.059875 0.059875
0.065643 0.065643 0.065643
0.071381 0.071381 0.071381
0.077026 0.077026 0.077026
0.082794 0.082794 0.082794
0.088654 0.088654 0.088654
0.094391 0.094391 0.094391
0.100159 0.100159 0.100159
0.106018 0.106018 0.106018
0.111877 0.111877 0.111877
0.117615 0.117615 0.117615
0.123413 0.123413 0.123413
0.129395 0.129395 0.129395
0.135193 0.135193 0.135193
0.141022 0.141022 0.141022
0.146820 0.146820 0.146820
0.152740 0.152740 0.152740
0.158722 0.158722 0.158722
0.164673 0.164673 0.164673
0.050659 0.050659 0.050659
0.046051 0.046051 0.046051
0.041351 0.041351 0.041351
0.036896 0.036896 0.036896
0.032257 0.032257 0.032257
0.028351 0.028351 0.028351
0.024506 0.024506 0.024506
0.020966 0.020966 0.020966
0.025299 0.025299 0.025299
0.030121 0.030121 0.030121
0.035309 0.035309 0.035309
0.040741 0.040741 0.040741
0.046448 0.046448 0.046448
0.052277 0.052277 0.052277
0.057953 0.057953 0.057953
0.063843 0.063843 0.063843
0.069550 0.069550 0.069550
0.075287 0.075287 0.075287
0.080994 0.080994 0.080994
0.086823 0.086823 0.086823
0.092560 0.092560 0.092560
0.098358 0.098358 0.098358
0.104156 0.104156 0.104156
0.109955 0.109955 0.109955
0.115784 0.115784 0.115784
0.121613 0.121613 0.121613
0.127441 0.127441 0.127441
0.133301 0.133301 0.133301
0.139252 0.139252 0.139252
0.145081 0.145081 0.145081
0.151031 0.151031 0.151031
0.156860 0.156860 0.156860
0.162720 0.162720 0.162720
0.059204 0.059204 0.059204
0.054596 0.054596 0.054596
0.049774 0.049774 0.049774
0.045288 0.045288 0.045288
0.040588 0.040588 0.040588
0.036072 0.036072 0.036072
0.031708 0.031708 0.031708
0.027588 0.027588 0.027588
0.024048 0.024048 0.024048
0.028564 0.028564 0.028564
0.033661 0.033661 0.033661
0.039093 0.039093 0.039093
0.044678 0.044678 0.044678
0.050385 0.050385 0.050385
0.056152 0.056152 0.056152
0.061920 0.061920 0.061920
0.067719 0.067719 0.067719
0.073395 0.073395 0.073395
0.079163 0.079163 0.079163
0.084961 0.084961 0.084961
0.090790 0.090790 0.090790
0.096527 0.096527 0.096527
0.102325 0.102325 0.102325
0.108154 0.108154 0.108154
0.113953 0.113953 0.113953
0.119751 0.119751 0.119751
0.125580 0.125580 0.125580
0.131439 0.131439 0.131439
0.137329 0.137329 0.137329
0.143158 0.143158 0.143158
0.149109 0.149109 0.149109
0.154877 0.154877 0.154877
0.160828 0.160828 0.160828
0.067963 0.067963 0.067963
0.063141 0.063141 0.063141
0.058472 0.058472 0.058472
0.053864 0.053864 0.053864
0.049133 0.049133 0.049133
0.044373 0.044373 0.044373
0.039886 0.039886 0.039886
0.035309 0.035309 0.035309
0.030914 0.030914 0.030914
0.027130 0.027130 0.027130
0.031860 0.031860 0.031860
0.037262 0.037262 0.037262
0.042908 0.042908 0.042908
0.048676 0.048676 0.048676
0.054321 0.054321 0.054321
0.060089 0.060089 0.060089
0.065857 0.065857 0.065857
0.071625 0.071625 0.071625
0.077332 0.077332 0.077332
0.083099 0.083099 0.083099
0.088898 0.088898 0.088898
0.094666 0.094666 0.094666
0.100433 0.100433 0.100433
0.106293 0.106293 0.106293
0.112091 0.112091 0.112091
0.117859 0.117859 0.117859
0.123688 0.123688 0.123688
0.129547 0.129547 0.129547
0.135406 0.135406 0.135406
0.141327 0.141327 0.141327
0.147186 0.147186 0.147186
0.153015 0.153015 0.153015
0.158997 0.158997 0.158997
0.076538 0.076538 0.076538
0.071808 0.071808 0.071808
0.067139 0.067139 0.067139
0.062408 0.062408 0.062408
0.057709 0.057709 0.057709
0.052979 0.052979 0.052979
0.048370 0.048370 0.048370
0.043671 0.043671 0.043671
0.039093 0.039093 0.039093
0.034546 0.034546 0.034546
0.030304 0.030304 0.030304
0.035339 0.035339 0.035339
0.041046 0.041046 0.041046
0.046875 0.046875 0.046875
0.052643 0.052643 0.052643
0.058350 0.058350 0.058350
0.064026 0.064026 0.064026
0.069733 0.069733 0.069733
0.075531 0.075531 0.075531
0.081268 0.081268 0.081268
0.087036 0.087036 0.087036
0.092834 0.092834 0.092834
0.098602 0.098602 0.098602
0.104431 0.104431 0.104431
0.110260 0.110260 0.110260
0.116028 0.116028 0.116028
0.121826 0.121826 0.121826
0.127655 0.127655 0.127655
0.133575 0.133575 0.133575
0.139465 0.139465 0.139465
0.145355 0.145355 0.145355
0.151215 0.151215 0.151215
0.157074 0.157074 0.157074
0.085144 0.085144 0.085144
0.080383 0.080383 0.080383
0.075775 0.075775 0.075775
0.071045 0.071045 0.071045
0.066315 0.066315 0.066315
0.061584 0.061584 0.061584
0.056976 0.056976 0.056976
0.052155 0.052155 0.052155
0.047607 0.047607 0.047607
0.042816 0.042816 0.042816
0.038177 0.038177 0.038177
0.033752 0.033752 0.033752
0.039185 0.039185 0.039185
0.044922 0.044922 0.044922
0.050751 0.050751 0.050751
0.056488 0.056488 0.056488
0.062286 0.062286 0.062286
0.067932 0.067932 0.067932
0.073669 0.073669 0.073669
0.079407 0.079407 0.079407
0.085205 0.085205 0.085205
0.091003 0.091003 0.091003
0.096741 0.096741 0.096741
0.102570 0.102570 0.102570
0.108398 0.108398 0.108398
0.114197 0.114197 0.114197
0.120026 0.120026 0.120026
0.125824 0.125824 0.125824
0.131775 0.131775 0.131775
0.137543 0.137543 0.137543
0.143463 0.143463 0.143463
0.149384 0.149384 0.149384
0.155243 0.155243 0.155243
0.093750 0.093750 0.093750
0.089081 0.089081 0.089081
0.084351 0.084351 0.084351
0.079712 0.079712 0.079712
0.074982 0.074982 0.074982
0.070160 0.070160 0.070160
0.065582 0.065582 0.065582
0.060822 0.060822 0.060822
0.056122 0.056122 0.056122
0.051392 0.051392 0.051392
0.046722 0.046722 0.046722
0.042084 0.042084 0.042084
0.037567 0.037567 0.037567
0.043121 0.043121 0.043121
0.048798 0.048798 0.048798
0.054535 0.054535 0.054535
0.060364 0.060364 0.060364
0.066132 0.066132 0.066132
0.071869 0.071869 0.071869
0.077606 0.077606 0.077606
0.083405 0.083405 0.083405
0.089172 0.089172 0.089172
0.094940 0.094940 0.094940
0.100739 0.100739 0.100739
0.106598 0.106598 0.106598
0.112366 0.112366 0.112366
0.118164 0.118164 0.118164
0.123993 0.123993 0.123993
0.129913 0.129913 0.129913
0.135742 0.135742 0.135742
0.141541 0.141541 0.141541
0.147461 0.147461 0.147461
0.153351 0.153351 0.153351
0.102478 0.102478 0.102478
0.097778 0.097778 0.097778
0.092926 0.092926 0.092926
0.088409 0.088409 0.088409
0.083618 0.083618 0.083618
0.078857 0.078857 0.078857
0.074127 0.074127 0.074127
0.069550 0.069550 0.069550
0.064728 0.064728 0.064728
0.060028 0.060028 0.060028
0.055359 0.055359 0.055359
0.050690 0.050690 0.050690
0.045990 0.045990 0.045990
0.041351 0.041351 0.041351
0.047058 0.047058 0.047058
0.052673 0.052673 0.052673
0.058472 0.058472 0.058472
0.064240 0.064240 0.064240
0.070068 0.070068 0.070068
0.075806 0.075806 0.075806
0.081512 0.081512 0.081512
0.087341 0.087341 0.087341
0.093140 0.093140 0.093140
0.098907 0.098907 0.098907
0.104736 0.104736 0.104736
0.110504 0.110504 0.110504
0.116272 0.116272 0.116272
0.122131 0.122131 0.122131
0.128052 0.128052 0.128052
0.133911 0.133911 0.133911
0.139740 0.139740 0.139740
0.145569 0.145569 0.145569
0.151428 0.151428 0.151428
0.111206 0.111206 0.111206
0.106445 0.106445 0.106445
0.101685 0.101685 0.101685
0.097015 0.097015 0.097015
0.092285 0.092285 0.092285
0.087494 0.087494 0.087494
0.082794 0.082794 0.082794
0.078064 0.078064 0.078064
0.073395 0.073395 0.073395
0.068695 0.068695 0.068695
0.063965 0.063965 0.063965
0.059357 0.059357 0.059357
0.054535 0.054535 0.054535
0.049866 0.049866 0.049866
0.045197 0.045197 0.045197
0.050995 0.050995 0.050995
0.056671 0.056671 0.056671
0.062500 0.062500 0.062500
0.068176 0.068176 0.068176
0.074005 0.074005 0.074005
0.079712 0.079712 0.079712
0.085449 0.085449 0.085449
0.091278 0.091278 0.091278
0.097076 0.097076 0.097076
0.102905 0.102905 0.102905
0.108673 0.108673 0.108673
0.114441 0.114441 0.114441
0.120270 0.120270 0.120270
0.126282 0.126282 0.126282
0.132080 0.132080 0.132080
0.137848 0.137848 0.137848
0.143768 0.143768 0.143768
0.149536 0.149536 0.149536
0.119965 0.119965 0.119965
0.115173 0.115173 0.115173
0.110413 0.110413 0.110413
0.105713 0.105713 0.105713
0.100952 0.100952 0.100952
0.096222 0.096222 0.096222
0.091492 0.091492 0.091492
0.086761 0.086761 0.086761
0.081970 0.081970 0.081970
0.077362 0.077362 0.077362
0.072632 0.072632 0.072632
0.067932 0.067932 0.067932
0.063324 0.063324 0.063324
0.058472 0.058472 0.058472
0.053833 0.053833 0.053833
0.049103 0.049103 0.049103
0.054840 0.054840 0.054840
0.060669 0.060669 0.060669
0.066467 0.066467 0.066467
0.072144 0.072144 0.072144
0.077881 0.077881 0.077881
0.083679 0.083679 0.083679
0.089417 0.089417 0.089417
0.095215 0.095215 0.095215
0.101044 0.101044 0.101044
0.106812 0.106812 0.106812
0.112610 0.112610 0.112610
0.118439 0.118439 0.118439
0.124329 0.124329 0.124329
0.130157 0.130157 0.130157
0.135986 0.135986 0.135986
0.141876 0.141876 0.141876
0.147736 0.147736 0.147736
0.128723 0.128723 0.128723
0.123932 0.123932 0.123932
0.119080 0.119080 0.119080
0.114410 0.114410 0.114410
0.109680 0.109680 0.109680
0.104950 0.104950 0.104950
0.100189 0.100189 0.100189
0.095520 0.095520 0.095520
0.090729 0.090729 0.090729
0.086029 0.086029 0.086029
0.081329 0.081329 0.081329
0.076538 0.076538 0.076538
0.071899 0.071899 0.071899
0.067200 0.067200 0.067200
0.062347 0.062347 0.062347
0.057770 0.057770 0.057770
0.053009 0.053009 0.053009
0.058777 0.058777 0.058777
0.064545 0.064545 0.064545
0.070374 0.070374 0.070374
0.076080 0.076080 0.076080
0.081787 0.081787 0.081787
0.087585 0.087585 0.087585
0.093384 0.093384 0.093384
0.099182 0.099182 0.099182
0.105011 0.105011 0.105011
0.110748 0.110748 0.110748
0.116608 0.116608 0.116608
0.122467 0.122467 0.122467
0.128265 0.128265 0.128265
0.134155 0.134155 0.134155
0.139954 0.139954 0.139954
0.145874 0.145874 0.145874
0.137451 0.137451 0.137451
0.132629 0.132629 0.132629
0.127869 0.127869 0.127869
0.123138 0.123138 0.123138
0.118408 0.118408 0.118408
0.113617 0.113617 0.113617
0.108917 0.108917 0.108917
0.104187 0.104187 0.104187
0.099457 0.099457 0.099457
0.094696 0.094696 0.094696
0.089996 0.089996 0.089996
0.085297 0.085297 0.085297
0.080475 0.080475 0.080475
0.075775 0.075775 0.075775
0.071075 0.071075 0.071075
0.066284 0.066284 0.066284
0.061707 0.061707 0.061707
0.057037 0.057037 0.057037
0.062775 0.062775 0.062775
0.068512 0.068512 0.068512
0.074280 0.074280 0.074280
0.080017 0.080017 0.080017
0.085724 0.085724 0.085724
0.091583 0.091583 0.091583
0.097351 0.097351 0.097351
0.103149 0.103149 0.103149
0.108948 0.108948 0.108948
0.114746 0.114746 0.114746
0.120605 0.120605 0.120605
0.126495 0.126495 0.126495
0.132233 0.132233 0.132233
0.138092 0.138092 0.138092
0.143951 0.143951 0.143951
0.146179 0.146179 0.146179
0.141418 0.141418 0.141418
0.136688 0.136688 0.136688
0.131927 0.131927 0.131927
0.127136 0.127136 0.127136
0.122345 0.122345 0.122345
0.117645 0.117645 0.117645
0.112854 0.112854 0.112854
0.108124 0.108124 0.108124
0.103424 0.103424 0.103424
0.098602 0.098602 0.098602
0.093933 0.093933 0.093933
0.089203 0.089203 0.089203
0.084381 0.084381 0.084381
0.079712 0.079712 0.079712
0.075012 0.075012 0.075012
0.070251 0.070251 0.070251
0.065643 0.065643 0.065643
0.060944 0.060944 0.060944
0.066681 0.066681 0.066681
0.072540 0.072540 0.072540
0.078156 0.078156 0.078156
0.083923 0.083923 0.083923
0.089752 0.089752 0.089752
0.095490 0.095490 0.095490
0.101257 0.101257 0.101257
0.107086 0.107086 0.107086
0.112946 0.112946 0.112946
0.118683 0.118683 0.118683
0.124603 0.124603 0.124603
0.130402 0.130402 0.130402
0.136261 0.136261 0.136261
0.142090 0.142090 0.142090
0.155060 0.155060 0.155060
0.150238 0.150238 0.150238
0.145477 0.145477 0.145477
0.140717 0.140717 0.140717
0.135834 0.135834 0.135834
0.131104 0.131104 0.131104
0.126373 0.126373 0.126373
0.121582 0.121582 0.121582
0.116852 0.116852 0.116852
0.112122 0.112122 0.112122
0.107361 0.107361 0.107361
0.102570 0.102570 0.102570
0.097809 0.097809 0.097809
0.093109 0.093109 0.093109
0.088379 0.088379 0.088379
0.083679 0.083679 0.083679
0.078949 0.078949 0.078949
0.074249 0.074249 0.074249
0.069550 0.069550 0.069550
0.064819 0.064819 0.064819
0.070618 0.070618 0.070618
0.076385 0.076385 0.076385
0.082031 0.082031 0.082031
0.087860 0.087860 0.087860
0.093658 0.093658 0.093658
0.099457 0.099457 0.099457
0.105286 0.105286 0.105286
0.111115 0.111115 0.111115
0.116882 0.116882 0.116882
0.122742 0.122742 0.122742
0.128632 0.128632 0.128632
0.134430 0.134430 0.134430
0.140259 0.140259 0.140259
0.164032 0.164032 0.164032
0.159027 0.159027 0.159027
0.154358 0.154358 0.154358
0.149536 0.149536 0.149536
0.144714 0.144714 0.144714
0.139923 0.139923 0.139923
0.135132 0.135132 0.135132
0.130341 0.130341 0.130341
0.125641 0.125641 0.125641
0.120880 0.120880 0.120880
0.116089 0.116089 0.116089
0.111298 0.111298 0.111298
0.106506 0.106506 0.106506
0.101746 0.101746 0.101746
0.097076 0.097076 0.097076
0.092346 0.092346 0.092346
0.087646 0.087646 0.087646
0.082916 0.082916 0.082916
0.078186 0.078186 0.078186
0.073425 0.073425 0.073425
0.068817 0.068817 0.068817
0.074615 0.074615 0.074615
0.080322 0.080322 0.080322
0.085938 0.085938 0.085938
0.091827 0.091827 0.091827
0.097687 0.097687 0.097687
0.103485 0.103485 0.103485
0.109314 0.109314 0.109314
0.115051 0.115051 0.115051
0.120850 0.120850 0.120850
0.126770 0.126770 0.126770
0.132660 0.132660 0.132660
0.138428 0.138428 0.138428
0.172913 0.172913 0.172913
0.167999 0.167999 0.167999
0.163269 0.163269 0.163269
0.158478 0.158478 0.158478
0.153656 0.153656 0.153656
0.148804 0.148804 0.148804
0.143890 0.143890 0.143890
0.139160 0.139160 0.139160
0.134338 0.134338 0.134338
0.129578 0.129578 0.129578
0.124817 0.124817 0.124817
0.120026 0.120026 0.120026
0.115265 0.115265 0.115265
0.110474 0.110474 0.110474
0.105743 0.105743 0.105743
0.101044 0.101044 0.101044
0.096252 0.096252 0.096252
0.091553 0.091553 0.091553
0.086853 0.086853 0.086853
0.082092 0.082092 0.082092
0.077362 0.077362 0.077362
0.072815 0.072815 0.072815
0.078491 0.078491 0.078491
0.084259 0.084259 0.084259
0.089905 0.089905 0.089905
0.095673 0.095673 0.095673
0.101624 0.101624 0.101624
0.107452 0.107452 0.107452
0.113190 0.113190 0.113190
0.118958 0.118958 0.118958
0.124847 0.124847 0.124847
0.130768 0.130768 0.130768
0.136597 0.136597 0.136597
0.181732 0.181732 0.181732
0.177032 0.177032 0.177032
0.172028 0.172028 0.172028
0.167389 0.167389 0.167389
0.162567 0.162567 0.162567
0.157623 0.157623 0.157623
0.152710 0.152710 0.152710
0.148010 0.148010 0.148010
0.143188 0.143188 0.143188
0.138336 0.138336 0.138336
0.133636 0.133636 0.133636
0.128815 0.128815 0.128815
0.124054 0.124054 0.124054
0.119324 0.119324 0.119324
0.114471 0.114471 0.114471
0.109772 0.109772 0.109772
0.105011 0.105011 0.105011
0.100189 0.100189 0.100189
0.095520 0.095520 0.095520
0.090759 0.090759 0.090759
0.086060 0.086060 0.086060
0.081390 0.081390 0.081390
0.076813 0.076813 0.076813
0.082489 0.082489 0.082489
0.088196 0.088196 0.088196
0.094025 0.094025 0.094025
0.099640 0.099640 0.099640
0.105499 0.105499 0.105499
0.111389 0.111389 0.111389
0.117188 0.117188 0.117188
0.123016 0.123016 0.123016
0.128693 0.128693 0.128693
0.134644 0.134644 0.134644
0.190826 0.190826 0.190826
0.186005 0.186005 0.186005
0.181030 0.181030 0.181030
0.176270 0.176270 0.176270
0.171448 0.171448 0.171448
0.166504 0.166504 0.166504
0.161621 0.161621 0.161621
0.156830 0.156830 0.156830
0.152069 0.152069 0.152069
0.147217 0.147217 0.147217
0.142456 0.142456 0.142456
0.137665 0.137665 0.137665
0.132874 0.132874 0.132874
0.128113 0.128113 0.128113
0.123322 0.123322 0.123322
0.118530 0.118530 0.118530
0.113770 0.113770 0.113770
0.108887 0.108887 0.108887
0.104187 0.104187 0.104187
0.099487 0.099487 0.099487
0.094666 0.094666 0.094666
0.089966 0.089966 0.089966
0.085327 0.085327 0.085327
0.080688 0.080688 0.080688
0.086334 0.086334 0.086334
0.092224 0.092224 0.092224
0.097900 0.097900 0.097900
0.103668 0.103668 0.103668
0.109528 0.109528 0.109528
0.115356 0.115356 0.115356
0.121155 0.121155 0.121155
0.126923 0.126923 0.126923
0.132812 0.132812 0.132812
0.199890 0.199890 0.199890
0.194977 0.194977 0.194977
0.190125 0.190125 0.190125
0.185242 0.185242 0.185242
0.180389 0.180389 0.180389
0.175507 0.175507 0.175507
0.170593 0.170593 0.170593
0.165771 0.165771 0.165771
0.160889 0.160889 0.160889
0.156067 0.156067 0.156067
0.151276 0.151276 0.151276
0.146454 0.146454 0.146454
0.141724 0.141724 0.141724
0.136902 0.136902 0.136902
0.132050 0.132050 0.132050
0.127228 0.127228 0.127228
0.122437 0.122437 0.122437
0.117615 0.117615 0.117615
0.112885 0.112885 0.112885
0.108246 0.108246 0.108246
0.103394 0.103394 0.103394
0.098663 0.098663 0.098663
0.093994 0.093994 0.093994
0.089172 0.089172 0.089172
0.084412 0.084412 0.084412
0.090302 0.090302 0.090302
0.096039 0.096039 0.096039
0.101990 0.101990 0.101990
0.107697 0.107697 0.107697
0.113525 0.113525 0.113525
0.119354 0.119354 0.119354
0.125061 0.125061 0.125061
0.131104 0.131104 0.131104
0.208984 0.208984 0.208984
0.203979 0.203979 0.203979
0.199005 0.199005 0.199005
0.194183 0.194183 0.194183
0.189301 0.189301 0.189301
0.184448 0.184448 0.184448
0.179535 0.179535 0.179535
0.174713 0.174713 0.174713
0.169830 0.169830 0.169830
0.164886 0.164886 0.164886
0.160156 0.160156 0.160156
0.155334 0.155334 0.155334
0.150543 0.150543 0.150543
0.145752 0.145752 0.145752
0.140839 0.140839 0.140839
0.136047 0.136047 0.136047
0.131256 0.131256 0.131256
0.126373 0.126373 0.126373
0.121582 0.121582 0.121582
0.116852 0.116852 0.116852
0.112122 0.112122 0.112122
0.107422 0.107422 0.107422
0.102661 0.102661 0.102661
0.097900 0.097900 0.097900
0.093170 0.093170 0.093170
0.088501 0.088501 0.088501
0.094238 0.094238 0.094238
0.100037 0.100037 0.100037
0.105896 0.105896 0.105896
0.111633 0.111633 0.111633
0.117615 0.117615 0.117615
0.123260 0.123260 0.123260
0.129211 0.129211 0.129211
0.218231 0.218231 0.218231
0.213074 0.213074 0.213074
0.208099 0.208099 0.208099
0.203278 0.203278 0.203278
0.198395 0.198395 0.198395
0.193512 0.193512 0.193512
0.188507 0.188507 0.188507
0.183624 0.183624 0.183624
0.178833 0.178833 0.178833
0.173859 0.173859 0.173859
0.168976 0.168976 0.168976
0.164185 0.164185 0.164185
0.159271 0.159271 0.159271
0.154510 0.154510 0.154510
0.149719 0.149719 0.149719
0.144867 0.144867 0.144867
0.140045 0.140045 0.140045
0.135223 0.135223 0.135223
0.130432 0.130432 0.130432
0.125732 0.125732 0.125732
0.120911 0.120911 0.120911
0.116119 0.116119 0.116119
0.111511 0.111511 0.111511
0.106689 0.106689 0.106689
0.101868 0.101868 0.101868
0.097046 0.097046 0.097046
