content/luts/b&w/black_and_white_10.cube
#Created by: inPixio
#Copyright: (C) Copyright 2022 inPixio
TITLE "Black & White 12"
#LUT size
LUT_3D_SIZE 9
#LUT data points
0.000000 0.000000 0.000000
0.019745 0.019745 0.019745
0.055817 0.055817 0.055817
0.100433 0.100433 0.100433
0.152313 0.152313 0.152313
0.216278 0.215088 0.213928
0.296967 0.290619 0.284119
0.385437 0.371002 0.356415
0.469879 0.447540 0.425140
0.014862 0.014862 0.014862
0.047577 0.047577 0.047577
0.091034 0.091034 0.091034
0.141266 0.141266 0.141266
0.202118 0.201569 0.200897
0.279907 0.274811 0.269684
0.367706 0.354950 0.342072
0.453644 0.432800 0.411804
0.529999 0.503265 0.475922
0.039307 0.039307 0.039307
0.081818 0.081818 0.081818
0.130646 0.130646 0.130646
0.188843 0.188538 0.188232
0.263245 0.259430 0.255493
0.349915 0.338837 0.327637
0.437073 0.417725 0.398224
0.515289 0.489563 0.463531
0.592682 0.562225 0.523254
0.073029 0.073029 0.073029
0.120209 0.120209 0.120209
0.176086 0.176025 0.175934
0.247131 0.244354 0.241455
0.332184 0.322754 0.313171
0.420074 0.402313 0.384430
0.500458 0.475739 0.450897
0.576843 0.547241 0.511688
0.656158 0.623138 0.568390
0.110352 0.110352 0.110352
0.164001 0.164001 0.164001
0.231476 0.229523 0.227600
0.314606 0.306702 0.298706
0.402832 0.386688 0.370422
0.485168 0.461670 0.438019
0.561096 0.532410 0.499939
0.640472 0.607971 0.557220
0.716553 0.683136 0.613708
0.152649 0.152649 0.152649
0.216492 0.215393 0.214172
0.297211 0.290771 0.284241
0.385406 0.370941 0.356384
0.469604 0.447357 0.425018
0.545593 0.517883 0.487976
0.624634 0.592743 0.545990
0.701813 0.668335 0.602295
0.772339 0.740479 0.660431
0.202545 0.201965 0.201385
0.280212 0.275146 0.270020
0.367859 0.355072 0.342194
0.453644 0.432800 0.411804
0.530365 0.503632 0.475891
0.608765 0.577545 0.534668
0.686798 0.653351 0.590973
0.758850 0.726501 0.648682
0.822571 0.793671 0.708221
0.264008 0.260162 0.256287
0.350403 0.339325 0.328064
0.437347 0.417999 0.398438
0.515442 0.489685 0.463593
0.592896 0.562408 0.523315
0.671631 0.638397 0.579681
0.745087 0.712280 0.636963
0.810516 0.780792 0.696259
0.867126 0.841919 0.756409
0.334137 0.324463 0.314789
0.420929 0.403076 0.385071
0.500854 0.476105 0.451202
0.576996 0.547394 0.511871
0.656281 0.623352 0.568542
0.731110 0.697937 0.625366
0.798218 0.767731 0.684296
0.856506 0.830353 0.744415
0.906860 0.885681 0.804840
0.003479 0.003479 0.003479
0.025208 0.025208 0.025208
0.064178 0.064178 0.064178
0.110138 0.110138 0.110138
0.163849 0.163849 0.163849
0.231201 0.229370 0.227478
0.314453 0.306610 0.298676
0.402954 0.386841 0.370575
0.485535 0.461884 0.438171
0.019836 0.019836 0.019836
0.055847 0.055847 0.055847
0.100494 0.100494 0.100494
0.152435 0.152435 0.152435
0.216400 0.215302 0.214020
0.297058 0.290649 0.284119
0.385376 0.370911 0.356323
0.469788 0.447449 0.425079
0.545227 0.517517 0.488007
0.047455 0.047455 0.047455
0.091034 0.091034 0.091034
0.141357 0.141357 0.141357
0.202301 0.201721 0.201019
0.279999 0.274933 0.269745
0.367676 0.354919 0.342041
0.453583 0.432709 0.411743
0.530182 0.503448 0.475891
0.608704 0.577423 0.534637
0.081848 0.081848 0.081848
0.130585 0.130585 0.130585
0.188873 0.188660 0.188293
0.263367 0.259521 0.255554
0.349945 0.338837 0.327637
0.436951 0.417633 0.398163
0.515350 0.489624 0.463470
0.592743 0.562286 0.523254
0.671570 0.638306 0.579590
0.120300 0.120300 0.120300
0.176056 0.176025 0.175934
0.247131 0.244293 0.241455
0.332275 0.322784 0.313202
0.420013 0.402283 0.384399
0.500366 0.475708 0.450836
0.576843 0.547302 0.511658
0.656097 0.623169 0.568420
0.730957 0.697784 0.625244
0.164185 0.164185 0.164185
0.231445 0.229675 0.227692
0.314667 0.306732 0.298737
0.402893 0.386749 0.370483
0.485168 0.461700 0.438019
0.561127 0.532471 0.499908
0.640442 0.607971 0.557220
0.716492 0.683136 0.613739
0.785431 0.754181 0.672302
0.216614 0.215637 0.214355
0.297394 0.290924 0.284393
0.385498 0.371063 0.356445
0.469696 0.447449 0.425079
0.545593 0.517883 0.488037
0.624634 0.592743 0.545990
0.701721 0.668304 0.602325
0.772278 0.740448 0.660461
0.834198 0.806152 0.720276
0.280945 0.275909 0.270691
0.368195 0.355438 0.342499
0.453827 0.432953 0.411926
0.530365 0.503601 0.475983
0.608795 0.577576 0.534698
0.686829 0.653412 0.590973
0.758850 0.726501 0.648712
0.822540 0.793610 0.708252
0.877411 0.853180 0.768463
0.351318 0.340088 0.328796
0.437836 0.418396 0.398773
0.515594 0.489807 0.463806
0.592957 0.562469 0.523376
0.671722 0.638428 0.579712
0.745178 0.712341 0.636993
0.810608 0.780853 0.696289
0.867126 0.841919 0.756470
0.916260 0.896088 0.817017
0.007233 0.007233 0.007233
0.031769 0.031769 0.031769
0.072998 0.072998 0.072998
0.120178 0.120178 0.120178
0.175873 0.175842 0.175812
0.246857 0.244080 0.241302
0.332153 0.322723 0.313171
0.420258 0.402466 0.384491
0.500610 0.475861 0.450958
0.025146 0.025146 0.025146
0.064209 0.064209 0.064209
0.110229 0.110229 0.110229
0.163971 0.163971 0.163971
0.231354 0.229523 0.227570
0.314514 0.306641 0.298645
0.402863 0.386749 0.370483
0.485382 0.461792 0.438110
0.560913 0.532196 0.499969
0.055817 0.055817 0.055817
0.100342 0.100342 0.100342
0.152527 0.152527 0.152527
0.216644 0.215454 0.214111
0.297150 0.290710 0.284180
0.385345 0.370880 0.356323
0.469635 0.447388 0.424988
0.545410 0.517731 0.488037
0.624603 0.592682 0.545959
0.090973 0.090973 0.090973
0.141357 0.141357 0.141357
0.202393 0.201752 0.201050
0.280090 0.274994 0.269806
0.367706 0.354889 0.342041
0.453461 0.432648 0.411682
0.530304 0.503571 0.475830
0.608704 0.577484 0.534637
0.686829 0.653351 0.590881
0.130585 0.130585 0.130585
0.188843 0.188568 0.188232
0.263367 0.259491 0.255585
0.349976 0.338898 0.327667
0.436859 0.417572 0.398132
0.515381 0.489655 0.463409
0.592773 0.562347 0.523224
0.671539 0.638306 0.579651
0.745087 0.712250 0.636902
0.176147 0.176117 0.176056
0.247070 0.244354 0.241486
0.332245 0.322784 0.313232
0.420105 0.402344 0.384430
0.500366 0.475708 0.450836
0.576904 0.547333 0.511627
0.656036 0.623169 0.568420
0.730896 0.697754 0.625305
0.798157 0.767639 0.684204
0.231689 0.229828 0.227936
0.314789 0.306885 0.298889
0.403015 0.386871 0.370636
0.485260 0.461761 0.438080
0.561127 0.532471 0.499939
0.640442 0.607971 0.557251
0.716461 0.683105 0.613800
0.785370 0.754150 0.672333
0.845490 0.818359 0.732300
0.298187 0.291748 0.285156
0.385895 0.371368 0.356750
0.469879 0.447601 0.425171
0.545593 0.517853 0.488098
0.624695 0.592804 0.546021
0.701813 0.668335 0.602325
0.772278 0.740448 0.660492
0.834137 0.806122 0.720276
0.887451 0.864197 0.780548
0.369415 0.356506 0.343414
0.454376 0.433441 0.412354
0.530396 0.503632 0.476074
0.608887 0.577637 0.534760
0.686920 0.653473 0.591003
0.758942 0.726562 0.648712
0.822571 0.793671 0.708252
0.877411 0.853180 0.768524
0.925507 0.906342 0.829285
0.010895 0.010895 0.010895
0.039368 0.039368 0.039368
0.081787 0.081787 0.081787
0.130585 0.130585 0.130585
0.188660 0.188416 0.188110
0.263123 0.259277 0.255432
0.349915 0.338867 0.327637
0.437195 0.417816 0.398285
0.515259 0.489532 0.463623
0.031708 0.031708 0.031708
0.072998 0.072998 0.072998
0.120178 0.120178 0.120178
0.176025 0.175964 0.175903
0.247040 0.244232 0.241394
0.332153 0.322693 0.313141
0.420105 0.402374 0.384460
0.500458 0.475769 0.450897
0.576721 0.547150 0.511719
0.064209 0.064209 0.064209
0.110199 0.110199 0.110199
0.164093 0.164093 0.164093
0.231537 0.229675 0.227661
0.314606 0.306671 0.298676
0.402832 0.386719 0.370453
0.485229 0.461731 0.438049
0.561005 0.532318 0.499969
0.640442 0.607910 0.557190
0.100464 0.100464 0.100464
0.152466 0.152466 0.152466
0.216644 0.215454 0.214172
0.297211 0.290710 0.284149
0.385315 0.370850 0.356262
0.469482 0.447296 0.424927
0.545532 0.517822 0.487976
0.624634 0.592712 0.545990
0.701782 0.668304 0.602234
0.141479 0.141479 0.141479
0.202301 0.201721 0.201050
0.280090 0.274994 0.269836
0.367706 0.354889 0.342072
0.453369 0.432587 0.411621
0.530396 0.503693 0.475800
0.608704 0.577515 0.534637
0.686768 0.653351 0.590942
0.758850 0.726471 0.648621
0.188843 0.188660 0.188385
0.263397 0.259552 0.255615
0.350006 0.338928 0.327698
0.436981 0.417664 0.398163
0.515381 0.489685 0.463440
0.592773 0.562378 0.523193
0.671478 0.638306 0.579681
0.745026 0.712219 0.636932
0.810486 0.780762 0.696167
0.247345 0.244598 0.241791
0.332581 0.323059 0.313477
0.420227 0.402466 0.384521
0.500427 0.475769 0.450897
0.576904 0.547333 0.511688
0.656067 0.623169 0.568451
0.730835 0.697723 0.625366
0.798096 0.767578 0.684265
0.856445 0.830261 0.744324
0.315430 0.307495 0.299469
0.403381 0.387207 0.370911
0.485504 0.461975 0.438263
0.561157 0.532471 0.500031
0.640503 0.608032 0.557251
0.716492 0.683136 0.613770
0.785339 0.754150 0.672333
0.845428 0.818329 0.732330
0.897278 0.875000 0.792633
0.386780 0.372192 0.357483
0.470245 0.447968 0.425476
0.545685 0.517914 0.488281
0.624786 0.592865 0.546082
0.701904 0.668427 0.602356
0.772339 0.740509 0.660492
0.834229 0.806183 0.720306
0.887482 0.864258 0.780609
0.934631 0.916473 0.841614
0.014984 0.014984 0.014984
0.047485 0.047485 0.047485
0.091003 0.091003 0.091003
0.141235 0.141235 0.141235
0.202087 0.201538 0.200897
0.279877 0.274811 0.269714
0.367767 0.354980 0.342102
0.453735 0.432831 0.411804
0.530029 0.503296 0.475983
0.039337 0.039337 0.039337
0.081818 0.081818 0.081818
0.130615 0.130615 0.130615
0.188751 0.188538 0.188202
0.263245 0.259430 0.255524
0.349915 0.338837 0.327637
0.437042 0.417725 0.398193
0.515289 0.489563 0.463501
0.592682 0.562195 0.523224
0.072876 0.072876 0.072876
0.120239 0.120239 0.120239
0.176147 0.176056 0.175964
0.247162 0.244293 0.241455
0.332184 0.322723 0.313141
0.420044 0.402283 0.384399
0.500427 0.475739 0.450867
0.576782 0.547211 0.511688
0.656097 0.623138 0.568390
0.110138 0.110138 0.110138
0.164032 0.164001 0.164001
0.231476 0.229645 0.227661
0.314606 0.306702 0.298676
0.402771 0.386658 0.370422
0.485107 0.461639 0.437988
0.561096 0.532410 0.499908
0.640442 0.607941 0.557190
0.716522 0.683136 0.613708
0.152405 0.152405 0.152405
0.216553 0.215393 0.214142
0.297180 0.290771 0.284210
0.385345 0.370850 0.356293
0.469452 0.447266 0.424896
0.545654 0.517914 0.487946
0.624603 0.592743 0.545990
0.701752 0.668304 0.602295
0.772278 0.740479 0.660400
0.202484 0.201935 0.201263
0.280060 0.274994 0.269836
0.367767 0.354980 0.342133
0.453522 0.432678 0.411713
0.530457 0.503723 0.475769
0.608704 0.577545 0.534607
0.686737 0.653351 0.590942
0.758789 0.726410 0.648651
0.822540 0.793610 0.708191
0.263672 0.259857 0.255951
0.350220 0.339172 0.327911
0.437164 0.417816 0.398315
0.515411 0.489655 0.463501
0.592804 0.562378 0.523224
0.671539 0.638306 0.579712
0.744934 0.712158 0.636993
0.810455 0.780731 0.696228
0.867065 0.841827 0.756409
0.333313 0.323792 0.314148
0.420593 0.402771 0.384796
0.500641 0.475922 0.451050
0.576965 0.547363 0.511749
0.656158 0.623230 0.568481
0.730927 0.697784 0.625336
0.798065 0.767578 0.684265
0.856384 0.830200 0.744354
0.906860 0.885620 0.804779
0.404541 0.388214 0.371826
0.485901 0.462311 0.438538
0.561249 0.532562 0.500183
0.640625 0.608124 0.557312
0.716583 0.683228 0.613800
0.785431 0.754242 0.672363
0.845520 0.818390 0.732361
0.897308 0.875061 0.792694
0.943634 0.926483 0.854065
0.019653 0.019653 0.019653
0.055664 0.055664 0.055664
0.100433 0.100433 0.100433
0.152344 0.152344 0.152344
0.216278 0.215179 0.213959
0.296997 0.290619 0.284180
0.385406 0.370972 0.356384
0.469818 0.447540 0.425110
0.545319 0.517578 0.488129
0.047455 0.047455 0.047455
0.091034 0.091034 0.091034
0.141296 0.141296 0.141296
0.202209 0.201599 0.200928
0.279968 0.274872 0.269745
0.367676 0.354919 0.342041
0.453583 0.432739 0.411743
0.530151 0.503387 0.475922
0.608673 0.577423 0.534637
0.081818 0.081818 0.081818
0.130585 0.130585 0.130585
0.188904 0.188629 0.188263
0.263336 0.259460 0.255493
0.349945 0.338837 0.327606
0.436951 0.417664 0.398163
0.515350 0.489594 0.463470
0.592743 0.562286 0.523224
0.671570 0.638275 0.579620
0.120209 0.120209 0.120209
0.175995 0.175964 0.175873
0.247131 0.244354 0.241455
0.332214 0.322723 0.313202
0.420013 0.402252 0.384399
0.500366 0.475677 0.450806
0.576843 0.547272 0.511658
0.656067 0.623138 0.568420
0.730957 0.697784 0.625244
0.164001 0.164001 0.164001
0.231415 0.229614 0.227631
0.314636 0.306732 0.298737
0.402802 0.386688 0.370422
0.485077 0.461609 0.437958
0.561157 0.532501 0.499878
0.640411 0.607971 0.557220
0.716492 0.683105 0.613770
0.785400 0.754181 0.672272
0.216705 0.215637 0.214417
0.297211 0.290833 0.284271
0.385437 0.370941 0.356384
0.469574 0.447357 0.424988
0.545654 0.517944 0.487946
0.624573 0.592743 0.545959
0.701721 0.668274 0.602325
0.772217 0.740417 0.660461
0.834167 0.806122 0.720245
0.280396 0.275330 0.270172
0.368042 0.355225 0.342316
0.453705 0.432831 0.411804
0.530396 0.503662 0.475891
0.608734 0.577545 0.534668
0.686737 0.653351 0.591003
0.758728 0.726379 0.648682
0.822449 0.793549 0.708221
0.877380 0.853149 0.768463
0.351105 0.339935 0.328644
0.437531 0.418152 0.398590
0.515503 0.489746 0.463654
0.592865 0.562439 0.523315
0.671600 0.638336 0.579681
0.745026 0.712219 0.636993
0.810455 0.780731 0.696259
0.867004 0.841797 0.756439
0.916260 0.896027 0.816986
0.421967 0.404022 0.385895
0.501068 0.476349 0.451416
0.577057 0.547455 0.511902
0.656250 0.623291 0.568542
0.731049 0.697876 0.625336
0.798187 0.767639 0.684265
0.856476 0.830261 0.744415
0.906891 0.885651 0.804840
0.952606 0.936462 0.866638
0.025024 0.025024 0.025024
0.064148 0.064148 0.064148
0.110138 0.110138 0.110138
0.163879 0.163879 0.163879
0.231201 0.229401 0.227509
0.314484 0.306610 0.298615
0.402924 0.386780 0.370544
0.485443 0.461853 0.438141
0.560944 0.532227 0.500031
0.055695 0.055695 0.055695
0.100433 0.100433 0.100433
0.152405 0.152405 0.152405
0.216370 0.215271 0.214050
0.297119 0.290680 0.284180
0.385345 0.370911 0.356323
0.469666 0.447449 0.425018
0.545380 0.517639 0.488037
0.624603 0.592651 0.545929
0.091003 0.091003 0.091003
0.141296 0.141296 0.141296
0.202332 0.201721 0.200989
0.280029 0.274933 0.269745
0.367676 0.354919 0.342010
0.453491 0.432678 0.411682
0.530304 0.503540 0.475861
0.608704 0.577484 0.534668
0.686829 0.653351 0.590881
0.130585 0.130585 0.130585
0.188721 0.188507 0.188202
0.263336 0.259460 0.255524
0.349976 0.338837 0.327637
0.436920 0.417603 0.398132
0.515350 0.489624 0.463440
0.592773 0.562317 0.523193
0.671539 0.638306 0.579651
0.745056 0.712250 0.636902
0.175995 0.175995 0.175934
0.247040 0.244263 0.241455
0.332245 0.322784 0.313171
0.420074 0.402283 0.384399
0.500305 0.475677 0.450806
0.576904 0.547302 0.511627
0.656036 0.623138 0.568451
0.730896 0.697754 0.625305
0.798157 0.767609 0.684204
0.231537 0.229736 0.227783
0.314667 0.306763 0.298798
0.402893 0.386780 0.370514
0.485199 0.461700 0.438019
0.561157 0.532501 0.499908
0.640381 0.607941 0.557220
0.716400 0.683075 0.613800
0.785309 0.754120 0.672333
0.845490 0.818329 0.732300
0.297699 0.291290 0.284760
0.385712 0.371216 0.356628
0.469757 0.447510 0.425110
0.545593 0.517883 0.488037
0.624634 0.592804 0.545990
0.701721 0.668304 0.602325
0.772156 0.740326 0.660492
0.834106 0.806061 0.720276
0.887421 0.864197 0.780518
0.368683 0.355835 0.342834
0.454163 0.433258 0.412201
0.530396 0.503601 0.476013
0.608826 0.577606 0.534729
0.686829 0.653412 0.591003
0.758820 0.726440 0.648682
0.822449 0.793579 0.708252
0.877350 0.853088 0.768524
0.925476 0.906311 0.829285
0.438599 0.419067 0.399414
0.515778 0.490021 0.464020
0.593018 0.562531 0.523407
0.671722 0.638428 0.579742
0.745148 0.712341 0.636993
0.810547 0.780823 0.696259
0.867065 0.841888 0.756470
0.916260 0.896088 0.817047
0.961517 0.946381 0.879333
0.031647 0.031647 0.031647
0.072906 0.072906 0.072906
0.120148 0.120148 0.120148
0.175842 0.175842 0.175781
0.246826 0.244141 0.241302
0.332123 0.322723 0.313171
0.420227 0.402435 0.384491
0.500580 0.475861 0.450989
0.576813 0.547180 0.511749
0.064117 0.064117 0.064117
0.110168 0.110168 0.110168
0.163940 0.163940 0.163940
0.231323 0.229492 0.227539
0.314514 0.306641 0.298645
0.402893 0.386719 0.370483
0.485291 0.461761 0.438080
0.560974 0.532288 0.499969
0.640411 0.607880 0.557159
0.100342 0.100342 0.100342
0.152374 0.152374 0.152374
0.216583 0.215363 0.214203
0.297150 0.290710 0.284180
0.385376 0.370911 0.356323
0.469635 0.447388 0.424988
0.545471 0.517761 0.488007
0.624634 0.592712 0.545959
0.701813 0.668304 0.602234
0.141266 0.141266 0.141266
0.202179 0.201599 0.200928
0.280029 0.274933 0.269775
0.367676 0.354889 0.342010
0.453461 0.432617 0.411652
0.530334 0.503601 0.475800
0.608704 0.577484 0.534637
0.686798 0.653351 0.590912
0.758881 0.726471 0.648621
0.188751 0.188538 0.188293
0.263306 0.259460 0.255524
0.350006 0.338898 0.327667
0.436951 0.417633 0.398163
0.515381 0.489655 0.463409
0.592773 0.562347 0.523193
0.671539 0.638306 0.579651
0.745026 0.712219 0.636932
0.810547 0.780792 0.696198
0.247009 0.244324 0.241516
0.332306 0.322906 0.313293
0.420197 0.402405 0.384491
0.500397 0.475739 0.450867
0.576904 0.547333 0.511627
0.656036 0.623138 0.568451
0.730835 0.697723 0.625336
0.798065 0.767578 0.684235
0.856415 0.830231 0.744354
0.315430 0.307495 0.299438
0.403229 0.387085 0.370789
0.485352 0.461853 0.438141
0.561157 0.532471 0.499969
0.640442 0.608002 0.557220
0.716431 0.683105 0.613800
0.785248 0.754059 0.672363
0.845428 0.818298 0.732330
0.897247 0.875031 0.792664
0.386261 0.371765 0.357086
0.470123 0.447784 0.425385
0.545624 0.517914 0.488190
0.624725 0.592804 0.546021
0.701813 0.668365 0.602325
0.772247 0.740448 0.660461
0.834137 0.806091 0.720306
0.887390 0.864166 0.780579
0.934631 0.916412 0.841644
0.455078 0.434052 0.412903
0.530731 0.503906 0.476440
0.608978 0.577728 0.534851
0.686951 0.653503 0.591003
0.758942 0.726562 0.648743
0.822571 0.793671 0.708282
0.877411 0.853180 0.768524
0.925507 0.906372 0.829346
0.970428 0.956299 0.892151
0.039093 0.039093 0.039093
0.081726 0.081726 0.081726
0.130493 0.130493 0.130493
0.188660 0.188293 0.188049
0.263031 0.259308 0.255402
0.349915 0.338837 0.327667
0.437164 0.417786 0.398254
0.515381 0.489563 0.463562
0.592743 0.562286 0.523315
0.072876 0.072876 0.072876
0.120056 0.120056 0.120056
0.175934 0.175873 0.175812
0.246918 0.244171 0.241333
0.332153 0.322693 0.313141
0.420105 0.402344 0.384430
0.500458 0.475769 0.450897
0.576752 0.547119 0.511658
0.656128 0.623138 0.568359
0.110138 0.110138 0.110138
0.163818 0.163818 0.163818
0.231415 0.229553 0.227570
0.314545 0.306671 0.298645
0.402863 0.386688 0.370453
0.485229 0.461731 0.438049
0.561035 0.532349 0.499939
0.640442 0.607910 0.557220
0.716522 0.683105 0.613678
0.152313 0.152313 0.152313
0.216309 0.215240 0.213959
0.297119 0.290680 0.284149
0.385284 0.370850 0.356262
0.469543 0.447327 0.424957
0.545532 0.517792 0.487976
0.624603 0.592712 0.545959
0.701752 0.668274 0.602264
0.772308 0.740479 0.660400
0.202240 0.201691 0.201080
0.279938 0.274933 0.269775
0.367706 0.354950 0.342072
0.453491 0.432678 0.411682
0.530396 0.503662 0.475800
0.608704 0.577484 0.534637
0.686768 0.653320 0.590942
0.758789 0.726440 0.648651
0.822540 0.793610 0.708191
0.263275 0.259430 0.255554
0.350098 0.338959 0.327789
0.437134 0.417786 0.398285
0.515350 0.489594 0.463470
0.592773 0.562347 0.523193
0.671478 0.638245 0.579651
0.744995 0.712158 0.636932
0.810486 0.780731 0.696228
0.867035 0.841827 0.756378
0.332764 0.323334 0.313690
0.420471 0.402649 0.384705
0.500519 0.475830 0.450989
0.576904 0.547333 0.511719
0.656097 0.623169 0.568451
0.730865 0.697723 0.625305
0.798004 0.767548 0.684265
0.856384 0.830170 0.744354
0.906830 0.885620 0.804779
0.403992 0.387817 0.371399
0.485779 0.462189 0.438446
0.561218 0.532501 0.500092
0.640533 0.608063 0.557281
0.716553 0.683197 0.613800
0.785339 0.754150 0.672333
0.845428 0.818329 0.732330
0.897217 0.875000 0.792694
0.943634 0.926483 0.854065
0.471436 0.449005 0.426422
0.545807 0.518127 0.488495
0.624908 0.592987 0.546143
0.701935 0.668457 0.602325
0.772369 0.740540 0.660492
0.834229 0.806183 0.720306
0.887482 0.864227 0.780579
0.934631 0.916504 0.841675
0.979401 0.966187 0.905151
