content/luts/b&w/black_and_white_06.cube
#Created by: inPixio
#Copyright: (C) Copyright 2019 inPixio
TITLE "B&W 6"
#LUT size
LUT_3D_SIZE 8
#data domain
#LUT data points
DOMAIN_MIN 0.000000 0.000000 0.000000
DOMAIN_MAX 0.903226 0.903226 0.903226
0.022278 0.022278 0.022278
0.035706 0.035706 0.035706
0.039887 0.039887 0.039887
0.061799 0.061799 0.061799
0.065354 0.065354 0.065354
0.088518 0.088518 0.088518
0.085496 0.085496 0.085496
0.127184 0.127184 0.127184
0.074159 0.074159 0.074159
0.083452 0.083452 0.083452
0.087068 0.087068 0.087068
0.095903 0.095903 0.095903
0.108080 0.108080 0.108080
0.122606 0.122606 0.122606
0.144610 0.144610 0.144610
0.169635 0.169635 0.169635
0.081239 0.081239 0.081239
0.099413 0.099413 0.099413
0.113878 0.113878 0.113878
0.131746 0.131746 0.131746
0.153536 0.153536 0.153536
0.178393 0.178393 0.178393
0.205142 0.205142 0.205097
0.243427 0.243473 0.243473
0.123568 0.123568 0.123568
0.135821 0.135821 0.135821
0.157595 0.157595 0.157595
0.178348 0.178348 0.178348
0.204944 0.204944 0.204898
0.240238 0.240284 0.240284
0.289052 0.289021 0.289021
0.341634 0.341573 0.341604
0.172625 0.172625 0.172625
0.182147 0.182147 0.182147
0.219196 0.219226 0.219196
0.246525 0.246555 0.246555
0.276204 0.276265 0.276234
0.316167 0.316106 0.316136
0.373663 0.373693 0.373663
0.444846 0.444877 0.444877
0.223331 0.223377 0.223377
0.235737 0.235782 0.235737
0.275380 0.275456 0.275410
0.334127 0.334066 0.334096
0.372915 0.372854 0.372915
0.416800 0.416846 0.416846
0.464210 0.464241 0.464241
0.536019 0.535988 0.535988
0.293980 0.294041 0.294011
0.303029 0.302998 0.302998
0.342702 0.342733 0.342733
0.419486 0.419486 0.419486
0.476021 0.476021 0.476005
0.523293 0.523293 0.523308
0.577234 0.577188 0.577218
0.636210 0.636225 0.636210
0.381369 0.381354 0.381369
0.392310 0.392355 0.392355
0.425788 0.425788 0.425818
0.493065 0.493050 0.493050
0.580072 0.580026 0.580056
0.632715 0.632731 0.632731
0.684031 0.684062 0.684031
0.746975 0.746990 0.746975
0.025223 0.025223 0.025223
0.043793 0.043793 0.043793
0.059602 0.059602 0.059602
0.078325 0.078325 0.078325
0.076738 0.076738 0.076738
0.103868 0.103868 0.103868
0.098039 0.098039 0.098039
0.137530 0.137530 0.137530
0.076738 0.076738 0.076738
0.089281 0.089281 0.089281
0.098924 0.098924 0.098924
0.109361 0.109361 0.109361
0.126009 0.126009 0.126009
0.145831 0.145831 0.145831
0.167376 0.167376 0.167376
0.190829 0.190875 0.190921
0.093614 0.093614 0.093614
0.116640 0.116640 0.116640
0.137881 0.137881 0.137881
0.151324 0.151324 0.151324
0.173312 0.173312 0.173312
0.198383 0.198383 0.198337
0.230304 0.230350 0.230350
0.277150 0.277211 0.277180
0.127886 0.127886 0.127886
0.140826 0.140826 0.140826
0.171420 0.171420 0.171420
0.198093 0.198093 0.198047
0.230610 0.230655 0.230732
0.266377 0.266407 0.266453
0.307988 0.307958 0.307958
0.357122 0.357061 0.357122
0.174273 0.174273 0.174273
0.181216 0.181216 0.181216
0.224155 0.224201 0.224155
0.262013 0.262043 0.262043
0.296574 0.296635 0.296605
0.342687 0.342626 0.342657
0.395789 0.395789 0.395789
0.457679 0.457694 0.457710
0.226200 0.226230 0.226230
0.237079 0.237125 0.237125
0.273838 0.273899 0.273869
0.340948 0.340963 0.340948
0.383520 0.383505 0.383475
0.431937 0.431891 0.431891
0.483833 0.483848 0.483848
0.550408 0.550347 0.550378
0.296315 0.296376 0.296315
0.306966 0.306951 0.306951
0.337530 0.337560 0.337530
0.409888 0.409888 0.409888
0.483955 0.483940 0.483970
0.532830 0.532769 0.532799
0.583505 0.583475 0.583505
0.642390 0.642390 0.642390
0.387701 0.387686 0.387655
0.398718 0.398764 0.398764
0.428550 0.428550 0.428550
0.486671 0.486687 0.486717
0.579950 0.579950 0.579950
0.639567 0.639582 0.639582
0.691371 0.691356 0.691356
0.748409 0.748364 0.748379
0.037125 0.037125 0.037125
0.066606 0.066606 0.066606
0.100099 0.100099 0.100099
0.109453 0.109453 0.109453
0.124300 0.124300 0.124300
0.136843 0.136843 0.136843
0.131060 0.131060 0.131060
0.157458 0.157458 0.157458
0.088304 0.088304 0.088304
0.104799 0.104799 0.104799
0.123171 0.123171 0.123171
0.142504 0.142504 0.142504
0.164736 0.164736 0.164736
0.181216 0.181216 0.181216
0.199573 0.199573 0.199512
0.219944 0.219989 0.220035
0.110369 0.110369 0.110369
0.133700 0.133700 0.133700
0.163195 0.163195 0.163195
0.174914 0.174914 0.174914
0.197070 0.197070 0.197025
0.230137 0.230182 0.230182
0.269703 0.269734 0.269734
0.319524 0.319509 0.319509
0.146166 0.146166 0.146166
0.161715 0.161715 0.161715
0.210208 0.210254 0.210300
0.244953 0.244999 0.244999
0.266789 0.266819 0.266819
0.300710 0.300679 0.300679
0.338659 0.338598 0.338628
0.391211 0.391211 0.391211
0.195758 0.195758 0.195712
0.205325 0.205371 0.205432
0.236515 0.236561 0.236637
0.298940 0.299001 0.298970
0.338277 0.338232 0.338262
0.371664 0.371618 0.371618
0.419684 0.419684 0.419684
0.474586 0.474586 0.474556
0.253483 0.253513 0.253513
0.258244 0.258290 0.258290
0.285466 0.285435 0.285435
0.359304 0.359319 0.359274
0.414954 0.414908 0.414908
0.452415 0.452415 0.452415
0.510582 0.510567 0.510567
0.575036 0.575021 0.575036
0.321233 0.321202 0.321202
0.329198 0.329152 0.329168
0.356970 0.356924 0.356939
0.417517 0.417517 0.417517
0.502144 0.502129 0.502113
0.545312 0.545281 0.545296
0.600855 0.600855 0.600855
0.668254 0.668238 0.668223
0.404700 0.404624 0.404654
0.414008 0.414008 0.414008
0.447700 0.447700 0.447700
0.495430 0.495445 0.495430
0.571771 0.571771 0.571771
0.649363 0.649363 0.649363
0.702586 0.702617 0.702602
0.765072 0.765042 0.765057
0.052293 0.052293 0.052293
0.084138 0.084138 0.084138
0.149279 0.149279 0.149279
0.177173 0.177173 0.177173
0.177966 0.177966 0.177966
0.208667 0.208667 0.208621
0.216877 0.216922 0.216877
0.208957 0.208957 0.208911
0.111879 0.111879 0.111879
0.136095 0.136095 0.136095
0.174685 0.174685 0.174685
0.208438 0.208484 0.208530
0.218479 0.218525 0.218570
0.254459 0.254505 0.254505
0.268849 0.268879 0.268925
0.274785 0.274861 0.274861
0.141390 0.141390 0.141390
0.169329 0.169329 0.169329
0.198383 0.198383 0.198337
0.220737 0.220783 0.220737
0.249149 0.249195 0.249195
0.280415 0.280491 0.280461
0.313802 0.313771 0.313771
0.353338 0.353246 0.353292
0.171130 0.171130 0.171130
0.196170 0.196170 0.196124
0.240711 0.240757 0.240757
0.281865 0.281926 0.281895
0.307500 0.307469 0.307469
0.337621 0.337636 0.337621
0.381018 0.380987 0.381018
0.437797 0.437797 0.437797
0.217060 0.217090 0.217060
0.234012 0.234058 0.234058
0.279728 0.279789 0.279759
0.354894 0.354833 0.354864
0.397421 0.397421 0.397421
0.415335 0.415335 0.415335
0.455360 0.455360 0.455360
0.501396 0.501411 0.501396
0.284291 0.284352 0.284321
0.295323 0.295399 0.295354
0.324880 0.324849 0.324849
0.386008 0.386008 0.386008
0.464820 0.464805 0.464820
0.494301 0.494362 0.494347
0.526040 0.526040 0.526055
0.586893 0.586847 0.586877
0.368429 0.368368 0.368429
0.373724 0.373663 0.373663
0.389838 0.389807 0.389792
0.434531 0.434531 0.434562
0.519081 0.519097 0.519097
0.575647 0.575662 0.575662
0.611719 0.611688 0.611704
0.682231 0.682261 0.682261
0.456016 0.456016 0.456016
0.461418 0.461418 0.461418
0.481163 0.481224 0.481209
0.523812 0.523842 0.523827
0.590204 0.590204 0.590204
0.672664 0.672618 0.672618
0.715587 0.715587 0.715587
0.777478 0.777478 0.777462
0.071214 0.071214 0.071214
0.102739 0.102739 0.102739
0.187457 0.187457 0.187457
0.266163 0.266209 0.266209
0.292592 0.292653 0.292622
0.259770 0.259800 0.259800
0.305547 0.305516 0.305516
0.304707 0.304768 0.304738
0.148928 0.148928 0.148928
0.168917 0.168917 0.168917
0.217624 0.217670 0.217716
0.289311 0.289387 0.289342
0.319417 0.319387 0.319387
0.304952 0.305013 0.304982
0.344060 0.344091 0.344091
0.364401 0.364340 0.364370
0.187823 0.187823 0.187823
0.216388 0.216434 0.216388
0.262150 0.262196 0.262196
0.302876 0.302846 0.302846
0.343221 0.343114 0.343160
0.356146 0.356100 0.356115
0.385473 0.385473 0.385473
0.416236 0.416236 0.416236
0.218830 0.218875 0.218921
0.248783 0.248814 0.248783
0.307866 0.307836 0.307836
0.332677 0.332631 0.332662
0.364096 0.364050 0.364080
0.399741 0.399741 0.399756
0.430716 0.430716 0.430716
0.474998 0.475044 0.475013
0.247105 0.247150 0.247150
0.278355 0.278325 0.278325
0.336263 0.336217 0.336233
0.395392 0.395392 0.395392
0.436927 0.436896 0.436912
0.467277 0.467292 0.467308
0.496147 0.496132 0.496147
0.546441 0.546441 0.546426
0.313542 0.313512 0.313512
0.330755 0.330755 0.330724
0.373617 0.373571 0.373617
0.442756 0.442756 0.442741
0.520272 0.520256 0.520256
0.557534 0.557549 0.557534
0.574685 0.574670 0.574701
0.624048 0.624064 0.624064
0.394598 0.394583 0.394553
0.406058 0.406058 0.406058
0.436301 0.436301 0.436286
0.482826 0.482841 0.482841
0.552438 0.552453 0.552438
0.629160 0.629191 0.629191
0.659907 0.659876 0.659892
0.706203 0.706188 0.706203
0.493767 0.493782 0.493782
0.503227 0.503243 0.503243
0.525902 0.525933 0.525918
0.555749 0.555718 0.555718
0.606699 0.606729 0.606699
0.690318 0.690288 0.690303
0.750500 0.750515 0.750530
0.792020 0.792035 0.792020
0.100099 0.100099 0.100099
0.125124 0.125124 0.125124
0.211337 0.211383 0.211429
0.309636 0.309697 0.309667
0.366842 0.366796 0.366812
0.398169 0.398154 0.398123
0.363500 0.363455 0.363470
0.372686 0.372641 0.372641
0.188190 0.188190 0.188190
0.210681 0.210727 0.210773
0.260166 0.260197 0.260197
0.343969 0.343862 0.343908
0.416846 0.416800 0.416800
0.433188 0.433219 0.433219
0.407095 0.407095 0.407095
0.440864 0.440864 0.440864
0.239246 0.239292 0.239368
0.277821 0.277882 0.277821
0.330938 0.330892 0.330907
0.369497 0.369451 0.369451
0.422873 0.422873 0.422873
0.462547 0.462532 0.462547
0.454521 0.454490 0.454490
0.490501 0.490547 0.490532
0.279927 0.279896 0.279896
0.311116 0.311177 0.311147
0.369635 0.369589 0.369635
0.419165 0.419211 0.419211
0.452003 0.452049 0.452049
0.490898 0.490883 0.490898
0.506081 0.506111 0.506111
0.529381 0.529366 0.529366
0.311986 0.312047 0.312017
0.340475 0.340505 0.340520
0.413031 0.413031 0.413031
0.464515 0.464500 0.464515
0.484520 0.484566 0.484550
0.518090 0.518090 0.518105
0.558343 0.558312 0.558343
0.595056 0.595071 0.595071
0.342443 0.342474 0.342443
0.373617 0.373648 0.373617
0.440391 0.440345 0.440360
0.499870 0.499886 0.499870
0.554803 0.554788 0.554833
0.591302 0.591302 0.591287
0.624430 0.624460 0.624445
0.662867 0.662882 0.662882
0.429511 0.429557 0.429557
0.443580 0.443626 0.443626
0.479423 0.479439 0.479439
0.531365 0.531350 0.531350
0.605463 0.605463 0.605463
0.678447 0.678416 0.678401
0.721035 0.721035 0.721035
0.751583 0.751568 0.751568
0.517083 0.517083 0.517098
0.529503 0.529534 0.529519
0.560800 0.560815 0.560800
0.600870 0.600855 0.600855
0.652277 0.652262 0.652262
0.719554 0.719554 0.719554
0.802045 0.802060 0.802075
0.838651 0.838682 0.838682
0.142153 0.142153 0.142153
0.164859 0.164859 0.164859
0.230304 0.230350 0.230304
0.347433 0.347387 0.347402
0.415412 0.415412 0.415412
0.454780 0.454780 0.454780
0.470695 0.470726 0.470710
0.457404 0.457435 0.457435
0.231205 0.231235 0.231205
0.255390 0.255421 0.255421
0.301167 0.301228 0.301198
0.380850 0.380835 0.380850
0.464881 0.464912 0.464897
0.518654 0.518654 0.518669
0.538186 0.538186 0.538201
0.506371 0.506386 0.506386
0.309331 0.309316 0.309316
0.338811 0.338842 0.338811
0.396201 0.396246 0.396246
0.415320 0.415320 0.415320
0.473396 0.473426 0.473457
0.539223 0.539223 0.539223
0.566857 0.566827 0.566827
0.559274 0.559289 0.559304
0.349493 0.349447 0.349462
0.380987 0.380896 0.380942
0.454826 0.454826 0.454826
0.489082 0.489097 0.489113
0.519982 0.519966 0.519966
0.553689 0.553658 0.553658
0.596201 0.596201 0.596201
0.604486 0.604517 0.604517
0.370733 0.370687 0.370733
0.404364 0.404364 0.404364
0.472831 0.472847 0.472877
0.524010 0.523995 0.523995
0.570092 0.570077 0.570092
0.598123 0.598123 0.598138
0.637705 0.637705 0.637705
0.662608 0.662593 0.662593
0.409140 0.409140 0.409140
0.436576 0.436606 0.436606
0.511711 0.511696 0.511696
0.573282 0.573251 0.573251
0.616846 0.616846 0.616831
0.636011 0.636027 0.636011
0.672068 0.672068 0.672084
0.721233 0.721248 0.721233
0.457740 0.457740 0.457740
0.483146 0.483162 0.483162
0.545968 0.545937 0.545968
0.602564 0.602594 0.602579
0.662058 0.662043 0.662028
0.712749 0.712734 0.712749
0.749920 0.749935 0.749920
0.788968 0.788983 0.788968
0.552895 0.552865 0.552865
0.564080 0.564096 0.564065
0.598398 0.598413 0.598413
0.647822 0.647807 0.647807
0.702403 0.702403 0.702403
0.770016 0.770016 0.770031
0.837568 0.837552 0.837552
0.876310 0.876326 0.876326
0.185626 0.185626 0.185626
0.211200 0.211200 0.211154
0.259251 0.259297 0.259297
0.355520 0.355459 0.355489
0.431876 0.431876 0.431876
0.476356 0.476356 0.476341
0.532067 0.532067 0.532082
0.552880 0.552850 0.552850
0.278721 0.278798 0.278767
0.296422 0.296376 0.296376
0.346380 0.346334 0.346349
0.410452 0.410452 0.410452
0.501701 0.501717 0.501732
0.549020 0.549020 0.549004
0.587488 0.587488 0.587503
0.618601 0.618616 0.618616
0.376944 0.376928 0.376898
0.401709 0.401709 0.401709
0.454170 0.454215 0.454215
0.472984 0.472984 0.472969
0.510231 0.510216 0.510216
0.595041 0.595056 0.595056
0.658717 0.658702 0.658686
0.692088 0.692058 0.692073
0.422324 0.422324 0.422324
0.453651 0.453681 0.453697
0.527672 0.527672 0.527688
0.556558 0.556573 0.556558
0.557717 0.557733 0.557717
0.591485 0.591440 0.591455
0.648844 0.648829 0.648829
0.695003 0.695033 0.695003
0.448737 0.448768 0.448768
0.479713 0.479713 0.479698
0.550317 0.550347 0.550332
0.608835 0.608866 0.608866
0.635706 0.635706 0.635706
0.660609 0.660624 0.660624
0.685527 0.685512 0.685527
0.732952 0.732967 0.732967
0.450233 0.450187 0.450202
0.482307 0.482322 0.482322
0.582574 0.582574 0.582589
0.633097 0.633097 0.633097
0.676051 0.676082 0.676066
0.716594 0.716594 0.716594
0.742748 0.742748 0.742748
0.779751 0.779721 0.779751
0.510521 0.510506 0.510521
0.536156 0.536156 0.536172
0.604334 0.604303 0.604318
0.677928 0.677928 0.677913
0.732280 0.732296 0.732311
0.771160 0.771160 0.771160
0.787976 0.787930 0.787945
0.819257 0.819272 0.819242
0.576791 0.576791 0.576806
0.594751 0.594720 0.594736
0.640147 0.640131 0.640116
0.705867 0.705867 0.705852
0.768521 0.768505 0.768521
0.817746 0.817746 0.817746
0.860731 0.860746 0.860761
0.890532 0.890517 0.890517
