content/luts/b&w/black_and_white_08.cube
#Created by: inPixio
#Copyright: (C) Copyright 2022 inPixio
TITLE "Black & White 08"
#LUT size
LUT_3D_SIZE 9
#LUT data points
0.000000 0.000000 0.000000
0.017548 0.017548 0.017548
0.036407 0.036407 0.036407
0.059357 0.059357 0.059357
0.082306 0.082306 0.082306
0.105438 0.105438 0.105438
0.128784 0.128784 0.128784
0.152191 0.152191 0.152191
0.175903 0.175903 0.175903
0.026398 0.026398 0.026398
0.012085 0.012085 0.012085
0.029846 0.029846 0.029846
0.052002 0.052002 0.052002
0.075012 0.075012 0.075012
0.098053 0.098053 0.098053
0.121277 0.121277 0.121277
0.144775 0.144775 0.144775
0.168427 0.168427 0.168427
0.059204 0.059204 0.059204
0.040588 0.040588 0.040588
0.024048 0.024048 0.024048
0.044678 0.044678 0.044678
0.067719 0.067719 0.067719
0.090790 0.090790 0.090790
0.113953 0.113953 0.113953
0.137329 0.137329 0.137329
0.160828 0.160828 0.160828
0.093750 0.093750 0.093750
0.074982 0.074982 0.074982
0.056122 0.056122 0.056122
0.037567 0.037567 0.037567
0.060364 0.060364 0.060364
0.083405 0.083405 0.083405
0.106598 0.106598 0.106598
0.129913 0.129913 0.129913
0.153351 0.153351 0.153351
0.128723 0.128723 0.128723
0.109680 0.109680 0.109680
0.090729 0.090729 0.090729
0.071899 0.071899 0.071899
0.053009 0.053009 0.053009
0.076080 0.076080 0.076080
0.099182 0.099182 0.099182
0.122467 0.122467 0.122467
0.145874 0.145874 0.145874
0.164032 0.164032 0.164032
0.144714 0.144714 0.144714
0.125641 0.125641 0.125641
0.106506 0.106506 0.106506
0.087646 0.087646 0.087646
0.068817 0.068817 0.068817
0.091827 0.091827 0.091827
0.115051 0.115051 0.115051
0.138428 0.138428 0.138428
0.199890 0.199890 0.199890
0.180389 0.180389 0.180389
0.160889 0.160889 0.160889
0.141724 0.141724 0.141724
0.122437 0.122437 0.122437
0.103394 0.103394 0.103394
0.084412 0.084412 0.084412
0.107697 0.107697 0.107697
0.131104 0.131104 0.131104
0.236420 0.236420 0.236420
0.216461 0.216461 0.216461
0.196716 0.196716 0.196716
0.177063 0.177063 0.177063
0.157745 0.157745 0.157745
0.138458 0.138458 0.138458
0.119354 0.119354 0.119354
0.100525 0.100525 0.100525
0.123657 0.123657 0.123657
0.273773 0.273773 0.273773
0.253632 0.253632 0.253632
0.233429 0.233429 0.233429
0.213287 0.213287 0.213287
0.193542 0.193542 0.193542
0.174103 0.174103 0.174103
0.154633 0.154633 0.154633
0.135284 0.135284 0.135284
0.116394 0.116394 0.116394
0.024048 0.024048 0.024048
0.060272 0.060272 0.060272
0.083405 0.083405 0.083405
0.106506 0.106506 0.106506
0.129791 0.129791 0.129791
0.153320 0.153320 0.153320
0.177032 0.177032 0.177032
0.201080 0.201080 0.201080
0.225372 0.225372 0.225372
0.056122 0.056122 0.056122
0.094879 0.094879 0.094879
0.118195 0.118195 0.118195
0.141541 0.141541 0.141541
0.165161 0.165161 0.165161
0.189026 0.189026 0.189026
0.213196 0.213196 0.213196
0.237701 0.237701 0.237701
0.262512 0.262512 0.262512
0.090790 0.090790 0.090790
0.129852 0.129852 0.129852
0.110809 0.110809 0.110809
0.134094 0.134094 0.134094
0.157623 0.157623 0.157623
0.181396 0.181396 0.181396
0.205505 0.205505 0.205505
0.229889 0.229889 0.229889
0.254700 0.254700 0.254700
0.125641 0.125641 0.125641
0.165161 0.165161 0.165161
0.145813 0.145813 0.145813
0.126648 0.126648 0.126648
0.150146 0.150146 0.150146
0.173828 0.173828 0.173828
0.197815 0.197815 0.197815
0.222107 0.222107 0.222107
0.246765 0.246765 0.246765
0.161041 0.161041 0.161041
0.201050 0.201050 0.201050
0.181396 0.181396 0.181396
0.161957 0.161957 0.161957
0.142700 0.142700 0.142700
0.166290 0.166290 0.166290
0.190155 0.190155 0.190155
0.214355 0.214355 0.214355
0.238861 0.238861 0.238861
0.196899 0.196899 0.196899
0.237671 0.237671 0.237671
0.217651 0.217651 0.217651
0.197754 0.197754 0.197754
0.178192 0.178192 0.178192
0.158752 0.158752 0.158752
0.182556 0.182556 0.182556
0.206665 0.206665 0.206665
0.231018 0.231018 0.231018
0.233521 0.233521 0.233521
0.275085 0.275085 0.275085
0.254669 0.254669 0.254669
0.234406 0.234406 0.234406
0.214325 0.214325 0.214325
0.194519 0.194519 0.194519
0.174988 0.174988 0.174988
0.198975 0.198975 0.198975
0.223236 0.223236 0.223236
0.271149 0.271149 0.271149
0.312744 0.312744 0.312683
0.292297 0.292297 0.292267
0.271729 0.271729 0.271729
0.251343 0.251343 0.251343
0.231049 0.231049 0.231049
0.211060 0.211060 0.211060
0.191315 0.191315 0.191315
0.215515 0.215515 0.215515
0.308899 0.308899 0.308838
0.350189 0.350311 0.350189
0.329926 0.329956 0.329865
0.309448 0.309448 0.309387
0.288940 0.288940 0.288940
0.268372 0.268372 0.268372
0.248016 0.248016 0.248016
0.227814 0.227814 0.227814
0.207764 0.207764 0.207764
0.053009 0.053009 0.053009
0.091766 0.091766 0.091766
0.130890 0.130890 0.130890
0.154388 0.154388 0.154388
0.178131 0.178131 0.178131
0.202148 0.202148 0.202148
0.226501 0.226501 0.226501
0.251251 0.251251 0.251251
0.276276 0.276276 0.276276
0.087616 0.087616 0.087616
0.126678 0.126678 0.126678
0.166229 0.166229 0.166229
0.190125 0.190125 0.190125
0.214294 0.214294 0.214294
0.238831 0.238831 0.238831
0.263702 0.263702 0.263702
0.288818 0.288818 0.288788
0.313904 0.313934 0.313843
0.122467 0.122467 0.122467
0.161896 0.161896 0.161896
0.202179 0.202179 0.202179
0.226532 0.226532 0.226532
0.251282 0.251282 0.251282
0.276276 0.276276 0.276276
0.301392 0.301392 0.301331
0.326477 0.326538 0.326416
0.351440 0.351501 0.351410
0.157684 0.157684 0.157684
0.197784 0.197784 0.197784
0.238831 0.238831 0.238831
0.218811 0.218811 0.218811
0.243408 0.243408 0.243408
0.268311 0.268311 0.268311
0.293427 0.293427 0.293427
0.318542 0.318604 0.318512
0.343567 0.343628 0.343536
0.193481 0.193481 0.193481
0.234375 0.234375 0.234375
0.276245 0.276245 0.276245
0.255798 0.255798 0.255798
0.235565 0.235565 0.235565
0.260376 0.260376 0.260376
0.285461 0.285461 0.285431
0.310577 0.310608 0.310547
0.335632 0.335663 0.335571
0.230072 0.230072 0.230072
0.271790 0.271790 0.271790
0.313965 0.313965 0.313904
0.293396 0.293396 0.293365
0.272827 0.272827 0.272827
0.252441 0.252441 0.252441
0.277466 0.277466 0.277466
0.302582 0.302582 0.302551
0.327698 0.327728 0.327637
0.267426 0.267426 0.267426
0.309570 0.309570 0.309509
0.351440 0.351532 0.351440
0.331055 0.331116 0.330994
0.310547 0.310577 0.310516
0.289978 0.289978 0.289978
0.269501 0.269501 0.269501
0.294617 0.294617 0.294586
0.319733 0.319763 0.319672
0.305481 0.305481 0.305420
0.347168 0.347229 0.347107
0.388763 0.388855 0.388763
0.368439 0.368530 0.368439
0.348083 0.348145 0.348053
0.327637 0.327698 0.327606
0.307129 0.307129 0.307068
0.286621 0.286621 0.286591
0.311737 0.311768 0.311707
0.343231 0.343262 0.343170
0.384613 0.384705 0.384613
0.426147 0.426239 0.426147
0.405762 0.405853 0.405762
0.385406 0.385498 0.385406
0.365082 0.365143 0.365051
0.344696 0.344757 0.344666
0.324249 0.324310 0.324188
0.303772 0.303772 0.303741
0.084412 0.084412 0.084412
0.123444 0.123444 0.123444
0.163025 0.163025 0.163025
0.203339 0.203339 0.203339
0.227631 0.227631 0.227631
0.252380 0.252380 0.252380
0.277405 0.277405 0.277405
0.302582 0.302582 0.302521
0.327667 0.327698 0.327606
0.119171 0.119171 0.119171
0.158722 0.158722 0.158722
0.198853 0.198853 0.198853
0.239990 0.239990 0.239990
0.264893 0.264893 0.264893
0.289978 0.289978 0.289948
0.315063 0.315094 0.315033
0.340118 0.340179 0.340057
0.365021 0.365143 0.365021
0.154388 0.154388 0.154388
0.194489 0.194489 0.194489
0.235474 0.235474 0.235474
0.277405 0.277405 0.277374
0.302521 0.302551 0.302490
0.327637 0.327667 0.327576
0.352570 0.352661 0.352570
0.377472 0.377563 0.377472
0.402374 0.402435 0.402374
0.190125 0.190125 0.190125
0.231018 0.231018 0.231018
0.272858 0.272858 0.272858
0.315094 0.315125 0.315033
0.340118 0.340179 0.340057
0.365051 0.365143 0.365021
0.389923 0.390015 0.389923
0.414856 0.414917 0.414856
0.439819 0.439880 0.439819
0.226685 0.226685 0.226685
0.268372 0.268372 0.268372
0.310577 0.310577 0.310516
0.352570 0.352661 0.352570
0.332214 0.332275 0.332153
0.357147 0.357239 0.357147
0.382050 0.382141 0.382050
0.406952 0.407043 0.406952
0.431885 0.431946 0.431885
0.263947 0.263947 0.263947
0.306061 0.306091 0.306030
0.348114 0.348175 0.348083
0.389923 0.390015 0.389923
0.369568 0.369659 0.369568
0.349213 0.349304 0.349213
0.374115 0.374207 0.374115
0.399048 0.399139 0.399048
0.423950 0.424042 0.423950
0.301697 0.301697 0.301666
0.343750 0.343811 0.343689
0.385468 0.385559 0.385468
0.427338 0.427399 0.427338
0.406921 0.406982 0.406921
0.386536 0.386627 0.386536
0.366211 0.366302 0.366211
0.391113 0.391205 0.391113
0.416016 0.416107 0.416016
0.339478 0.339539 0.339417
0.381104 0.381195 0.381104
0.422882 0.422974 0.422882
0.464935 0.464996 0.464935
0.444397 0.444458 0.444397
0.423920 0.424011 0.423920
0.403534 0.403625 0.403534
0.383209 0.383301 0.383209
0.408081 0.408173 0.408081
0.376984 0.377075 0.376984
0.418488 0.418579 0.418488
0.460480 0.460541 0.460480
0.502808 0.502899 0.502777
0.482117 0.482178 0.482086
0.461487 0.461578 0.461487
0.440979 0.441071 0.440979
0.420532 0.420624 0.420532
0.400177 0.400269 0.400177
0.116028 0.116028 0.116028
0.155457 0.155457 0.155457
0.195587 0.195587 0.195587
0.236572 0.236572 0.236572
0.278564 0.278564 0.278564
0.303711 0.303711 0.303650
0.328796 0.328857 0.328735
0.353760 0.353821 0.353729
0.378632 0.378723 0.378632
0.151184 0.151184 0.151184
0.191223 0.191223 0.191223
0.232117 0.232117 0.232117
0.274017 0.274017 0.274017
0.316254 0.316284 0.316193
0.341278 0.341339 0.341217
0.366150 0.366241 0.366150
0.391052 0.391144 0.391052
0.415924 0.416016 0.415924
0.186859 0.186859 0.186859
0.227661 0.227661 0.227661
0.269440 0.269440 0.269440
0.311676 0.311676 0.311615
0.353729 0.353790 0.353699
0.378601 0.378723 0.378601
0.403534 0.403595 0.403534
0.428436 0.428528 0.428436
0.453491 0.453552 0.453491
0.223236 0.223236 0.223236
0.264893 0.264893 0.264893
0.307129 0.307129 0.307068
0.349182 0.349274 0.349152
0.391083 0.391174 0.391083
0.415985 0.416077 0.415985
0.440948 0.441040 0.440948
0.466064 0.466125 0.466064
0.491272 0.491364 0.491272
0.260406 0.260406 0.260406
0.302612 0.302612 0.302582
0.344666 0.344757 0.344635
0.386536 0.386627 0.386536
0.428497 0.428558 0.428497
0.453522 0.453583 0.453522
0.478668 0.478760 0.478668
0.503998 0.504059 0.503967
0.529480 0.529541 0.529449
0.298279 0.298279 0.298279
0.340210 0.340271 0.340179
0.382050 0.382141 0.382050
0.423950 0.424011 0.423950
0.466064 0.466125 0.466064
0.445557 0.445648 0.445557
0.470703 0.470764 0.470703
0.495972 0.496033 0.495941
0.521393 0.521484 0.521362
0.335938 0.335999 0.335876
0.377625 0.377716 0.377625
0.419464 0.419525 0.419464
0.461517 0.461609 0.461517
0.504028 0.504089 0.503998
0.483276 0.483368 0.483276
0.462708 0.462769 0.462708
0.487915 0.487976 0.487915
0.513275 0.513336 0.513245
0.373505 0.373627 0.373505
0.415039 0.415131 0.415039
0.457031 0.457092 0.457031
0.499420 0.499512 0.499420
0.542328 0.542389 0.542297
0.521362 0.521454 0.521332
0.500549 0.500610 0.500519
0.479889 0.479950 0.479889
0.505219 0.505280 0.505188
0.411072 0.411133 0.411072
0.452637 0.452698 0.452637
0.494873 0.494934 0.494873
0.537750 0.537811 0.537720
0.581177 0.581268 0.581177
0.559937 0.560028 0.559906
0.538818 0.538910 0.538818
0.517914 0.517975 0.517883
0.497131 0.497192 0.497101
0.147980 0.147980 0.147980
0.187897 0.187897 0.187897
0.228760 0.228760 0.228760
0.270569 0.270569 0.270569
0.312805 0.312836 0.312744
0.354858 0.354919 0.354828
0.379761 0.379852 0.379761
0.404663 0.404755 0.404663
0.429596 0.429688 0.429596
0.183594 0.183594 0.183594
0.224335 0.224335 0.224335
0.265991 0.265991 0.265991
0.308258 0.308258 0.308197
0.350342 0.350403 0.350281
0.392181 0.392273 0.392181
0.417114 0.417206 0.417114
0.442078 0.442169 0.442078
0.467163 0.467224 0.467163
0.219849 0.219849 0.219849
0.261475 0.261475 0.261475
0.303680 0.303680 0.303650
0.345795 0.345856 0.345764
0.387665 0.387756 0.387665
0.429596 0.429657 0.429596
0.454620 0.454712 0.454620
0.479797 0.479889 0.479797
0.505127 0.505188 0.505096
0.256989 0.256989 0.256989
0.299133 0.299133 0.299103
0.341278 0.341339 0.341217
0.383148 0.383240 0.383148
0.425049 0.425140 0.425049
0.467194 0.467285 0.467194
0.492462 0.492523 0.492432
0.517853 0.517914 0.517822
0.543488 0.543549 0.543457
0.294678 0.294678 0.294647
0.336792 0.336853 0.336731
0.378662 0.378754 0.378662
0.420532 0.420624 0.420532
0.462646 0.462738 0.462646
0.505157 0.505219 0.505157
0.530670 0.530731 0.530640
0.556396 0.556488 0.556366
0.582336 0.582428 0.582336
0.332489 0.332550 0.332428
0.374146 0.374237 0.374146
0.416016 0.416107 0.416016
0.458069 0.458160 0.458069
0.500549 0.500641 0.500519
0.543518 0.543610 0.543488
0.569366 0.569458 0.569366
0.595459 0.595551 0.595459
0.621826 0.621918 0.621796
0.369873 0.369965 0.369873
0.411591 0.411682 0.411591
0.453552 0.453644 0.453552
0.495941 0.496002 0.495911
0.538879 0.538940 0.538849
0.582397 0.582489 0.582367
0.561188 0.561249 0.561157
0.587189 0.587280 0.587158
0.613434 0.613525 0.613434
0.407471 0.407562 0.407471
0.449127 0.449219 0.449127
0.491394 0.491455 0.491394
0.534210 0.534302 0.534180
0.577667 0.577728 0.577637
0.621826 0.621948 0.621826
0.600250 0.600342 0.600250
0.578888 0.578979 0.578888
0.605072 0.605164 0.605072
0.445190 0.445251 0.445190
0.487000 0.487061 0.487000
0.529602 0.529694 0.529572
0.572968 0.573059 0.572937
0.617065 0.617157 0.617035
0.662140 0.662231 0.662109
0.640015 0.640137 0.640015
0.618225 0.618317 0.618195
0.596710 0.596802 0.596680
0.180298 0.180298 0.180298
0.220978 0.220978 0.220978
0.262573 0.262573 0.262573
0.304840 0.304871 0.304810
0.346954 0.347015 0.346893
0.388794 0.388885 0.388794
0.430695 0.430786 0.430695
0.455780 0.455841 0.455780
0.480957 0.481018 0.480957
0.216522 0.216522 0.216522
0.258057 0.258057 0.258057
0.300262 0.300262 0.300232
0.342407 0.342468 0.342346
0.384277 0.384369 0.384277
0.426178 0.426270 0.426178
0.468323 0.468384 0.468323
0.493591 0.493652 0.493591
0.518982 0.519043 0.518951
0.253540 0.253540 0.253540
0.295715 0.295715 0.295654
0.337891 0.337952 0.337830
0.379761 0.379852 0.379761
0.421661 0.421722 0.421661
0.463776 0.463837 0.463776
0.506287 0.506348 0.506256
0.531830 0.531891 0.531799
0.557556 0.557617 0.557526
0.291199 0.291199 0.291168
0.333374 0.333405 0.333313
0.375244 0.375336 0.375244
0.417114 0.417206 0.417114
0.459198 0.459290 0.459198
0.501678 0.501740 0.501648
0.544647 0.544739 0.544617
0.570526 0.570618 0.570496
0.596619 0.596710 0.596619
0.328918 0.328979 0.328857
0.370758 0.370819 0.370758
0.412628 0.412689 0.412628
0.454651 0.454712 0.454651
0.497070 0.497131 0.497070
0.540009 0.540070 0.539978
0.583557 0.583649 0.583527
0.609802 0.609894 0.609802
0.636353 0.636444 0.636353
0.366364 0.366455 0.366364
0.408142 0.408234 0.408142
0.450104 0.450165 0.450104
0.492462 0.492554 0.492462
0.535339 0.535400 0.535309
0.578827 0.578918 0.578796
0.623047 0.623169 0.623047
0.649811 0.649902 0.649811
0.677094 0.677185 0.677063
0.403870 0.403961 0.403870
0.445679 0.445740 0.445679
0.487915 0.487976 0.487915
0.530670 0.530762 0.530640
0.574127 0.574188 0.574097
0.618225 0.618317 0.618225
0.663422 0.663544 0.663391
0.691101 0.691223 0.691101
0.719666 0.719788 0.719666
0.441406 0.441498 0.441406
0.483490 0.483582 0.483490
0.526093 0.526154 0.526031
0.569397 0.569489 0.569366
0.613434 0.613525 0.613434
0.658447 0.658539 0.658417
0.705292 0.705383 0.705261
0.682281 0.682404 0.682251
0.710541 0.710632 0.710510
0.479340 0.479401 0.479340
0.521667 0.521729 0.521637
0.564728 0.564819 0.564697
0.608643 0.608765 0.608643
0.653534 0.653625 0.653503
0.700043 0.700165 0.700043
0.749573 0.749695 0.749573
0.725037 0.725159 0.725006
0.701447 0.701538 0.701416
0.213165 0.213165 0.213165
0.254639 0.254639 0.254639
0.296844 0.296844 0.296814
0.339020 0.339050 0.338959
0.380890 0.380981 0.380890
0.422791 0.422882 0.422791
0.464905 0.464996 0.464905
0.507446 0.507507 0.507416
0.532959 0.533051 0.532928
0.250153 0.250153 0.250153
0.292267 0.292267 0.292236
0.334473 0.334503 0.334412
0.376343 0.376434 0.376343
0.418243 0.418335 0.418243
0.460327 0.460419 0.460327
0.502808 0.502869 0.502777
0.545807 0.545898 0.545776
0.571655 0.571747 0.571625
0.287689 0.287689 0.287659
0.329956 0.330017 0.329895
0.371857 0.371948 0.371857
0.413727 0.413818 0.413727
0.455780 0.455841 0.455780
0.498199 0.498291 0.498199
0.541138 0.541229 0.541107
0.584717 0.584808 0.584686
0.610962 0.611053 0.610962
0.325439 0.325470 0.325378
0.367340 0.367432 0.367340
0.409180 0.409271 0.409180
0.451202 0.451263 0.451202
0.493622 0.493683 0.493591
0.536469 0.536560 0.536469
0.579987 0.580078 0.579956
0.624207 0.624329 0.624207
0.651001 0.651093 0.650970
0.362915 0.363037 0.362915
0.404724 0.404816 0.404724
0.446686 0.446747 0.446686
0.489014 0.489075 0.488983
0.531830 0.531921 0.531799
0.575256 0.575348 0.575256
0.619415 0.619507 0.619415
0.664581 0.664703 0.664581
0.692291 0.692413 0.692291
0.400238 0.400330 0.400238
0.442200 0.442261 0.442200
0.484436 0.484497 0.484436
0.527191 0.527252 0.527161
0.570526 0.570618 0.570526
0.614594 0.614685 0.614594
0.659668 0.659760 0.659637
0.706543 0.706635 0.706512
0.735718 0.735840 0.735718
0.438019 0.438110 0.438019
0.479950 0.480011 0.479950
0.522552 0.522614 0.522522
0.565857 0.565948 0.565826
0.609833 0.609924 0.609833
0.654724 0.654846 0.654724
0.701355 0.701447 0.701324
0.751038 0.751160 0.751007
0.783295 0.783417 0.783264
0.475616 0.475708 0.475616
0.518066 0.518127 0.518036
0.561188 0.561279 0.561157
0.605042 0.605133 0.605042
0.649811 0.649902 0.649811
0.696228 0.696320 0.696198
0.745453 0.745575 0.745422
0.801147 0.801270 0.801117
0.839783 0.839905 0.839752
0.513885 0.513947 0.513855
0.556702 0.556793 0.556671
0.600311 0.600433 0.600311
0.644928 0.645020 0.644928
0.691071 0.691162 0.691040
0.739838 0.739960 0.739807
0.794434 0.794556 0.794403
0.860657 0.860779 0.860657
0.827118 0.827240 0.827087
0.246674 0.246674 0.246674
0.288818 0.288818 0.288818
0.331085 0.331116 0.331024
0.372925 0.373047 0.372925
0.414825 0.414917 0.414825
0.456879 0.456970 0.456879
0.499329 0.499390 0.499329
0.542297 0.542389 0.542267
0.585846 0.585968 0.585846
0.284241 0.284241 0.284241
0.326477 0.326538 0.326416
0.368378 0.368469 0.368378
0.410278 0.410370 0.410278
0.452301 0.452393 0.452301
0.494690 0.494781 0.494690
0.537598 0.537659 0.537567
0.581085 0.581177 0.581055
0.625336 0.625427 0.625336
0.321960 0.321991 0.321899
0.363831 0.363892 0.363800
0.405762 0.405853 0.405762
0.447754 0.447845 0.447754
0.490112 0.490173 0.490112
0.532959 0.533020 0.532928
0.576385 0.576477 0.576355
0.620575 0.620667 0.620575
0.665741 0.665833 0.665710
0.359406 0.359497 0.359406
0.401245 0.401337 0.401245
0.443207 0.443268 0.443207
0.485504 0.485596 0.485504
0.528290 0.528351 0.528259
0.571655 0.571747 0.571655
0.615753 0.615875 0.615753
0.660797 0.660889 0.660767
0.707703 0.707794 0.707672
0.396912 0.397003 0.396912
0.438690 0.438782 0.438690
0.480957 0.481018 0.480957
0.523651 0.523712 0.523621
0.566986 0.567078 0.566956
0.610962 0.611053 0.610962
0.655914 0.656006 0.655884
0.702545 0.702667 0.702545
0.752136 0.752258 0.752136
0.434235 0.434296 0.434235
0.476410 0.476501 0.476410
0.519043 0.519104 0.519012
0.562256 0.562347 0.562225
0.606171 0.606262 0.606171
0.651001 0.651093 0.650970
0.697418 0.697540 0.697388
0.746674 0.746796 0.746674
0.802429 0.802551 0.802399
0.472076 0.472137 0.472076
0.514496 0.514587 0.514465
0.557587 0.557678 0.557556
0.601410 0.601501 0.601410
0.646088 0.646179 0.646057
0.692291 0.692413 0.692291
0.741211 0.741333 0.741211
0.795990 0.796112 0.795959
0.862427 0.862549 0.862396
0.510254 0.510315 0.510223
0.553040 0.553131 0.553040
0.596680 0.596802 0.596680
0.641235 0.641327 0.641205
0.687195 0.687317 0.687164
0.735718 0.735809 0.735687
0.789551 0.789642 0.789520
0.854858 0.854950 0.854797
0.929535 0.929657 0.929504
0.548950 0.549042 0.548920
0.592102 0.592194 0.592102
0.636444 0.636536 0.636414
0.682159 0.682251 0.682129
0.730316 0.730408 0.730286
0.783173 0.783264 0.783142
0.847168 0.847290 0.847137
0.921234 0.921356 0.921204
0.999878 1.000000 0.999847
