content/luts/b&w/black_and_white_03.cube
#Created by: inPixio
#Copyright: (C) Copyright 2019 inPixio
TITLE "B&W 3"
#LUT size
LUT_3D_SIZE 5
#data domain
#LUT data points
DOMAIN_MIN 0.000000 0.000000 0.000000
DOMAIN_MAX 0.903226 0.903226 0.903226
0.142153 0.142153 0.142153
0.182467 0.182467 0.182467
0.259770 0.259800 0.259800
0.384024 0.384009 0.383978
0.582239 0.582239 0.582239
0.289159 0.289128 0.289128
0.264073 0.264103 0.264103
0.224109 0.224155 0.224155
0.348180 0.348211 0.348180
0.555886 0.555856 0.555886
0.559930 0.559945 0.559930
0.585138 0.585138 0.585138
0.509484 0.509453 0.509453
0.333990 0.333928 0.333959
0.434623 0.434623 0.434638
0.771313 0.771313 0.771298
0.778363 0.778363 0.778347
0.801679 0.801679 0.801679
0.729625 0.729625 0.729625
0.657420 0.657420 0.657420
0.919905 0.919905 0.919921
0.922469 0.922499 0.922484
0.933272 0.933272 0.933288
0.938781 0.938766 0.938781
0.907881 0.907912 0.907897
0.194568 0.194568 0.194522
0.216205 0.216251 0.216297
0.338369 0.338384 0.338369
0.487007 0.487022 0.487007
0.646403 0.646418 0.646403
0.252308 0.252354 0.252354
0.274037 0.274098 0.274067
0.341039 0.341070 0.341039
0.454017 0.454063 0.454063
0.623972 0.623941 0.623941
0.533440 0.533425 0.533425
0.550805 0.550805 0.550790
0.509773 0.509758 0.509758
0.366598 0.366629 0.366629
0.524147 0.524132 0.524132
0.760647 0.760632 0.760632
0.768124 0.768139 0.768124
0.795209 0.795209 0.795209
0.731273 0.731273 0.731289
0.662211 0.662226 0.662226
0.915114 0.915114 0.915129
0.917800 0.917815 0.917815
0.930007 0.929992 0.930007
0.939055 0.939010 0.939025
0.909484 0.909468 0.909484
0.295460 0.295522 0.295491
0.312841 0.312810 0.312810
0.358312 0.358251 0.358282
0.529854 0.529839 0.529839
0.723629 0.723629 0.723629
0.347967 0.347921 0.347952
0.367575 0.367529 0.367529
0.405661 0.405661 0.405661
0.564859 0.564828 0.564859
0.737057 0.737072 0.737072
0.463508 0.463508 0.463508
0.481376 0.481361 0.481361
0.534066 0.534051 0.534051
0.610315 0.610300 0.610330
0.715847 0.715847 0.715847
0.730602 0.730617 0.730617
0.735699 0.735699 0.735699
0.759793 0.759762 0.759777
0.739879 0.739879 0.739864
0.663386 0.663386 0.663386
0.905394 0.905394 0.905409
0.907729 0.907713 0.907713
0.919799 0.919799 0.919783
0.939666 0.939666 0.939681
0.911147 0.911147 0.911131
0.459342 0.459327 0.459342
0.471748 0.471794 0.471824
0.513802 0.513787 0.513787
0.561105 0.561074 0.561090
0.726970 0.726925 0.726955
0.508263 0.508278 0.508278
0.516732 0.516716 0.516716
0.548257 0.548226 0.548241
0.585779 0.585779 0.585779
0.738720 0.738720 0.738705
0.565209 0.565194 0.565194
0.580118 0.580118 0.580133
0.634653 0.634669 0.634684
0.662196 0.662196 0.662211
0.779431 0.779431 0.779416
0.689097 0.689067 0.689067
0.694316 0.694316 0.694316
0.715770 0.715770 0.715770
0.751888 0.751904 0.751888
0.813352 0.813367 0.813367
0.884535 0.884550 0.884550
0.887739 0.887739 0.887755
0.901015 0.901015 0.901030
0.924209 0.924193 0.924209
0.915541 0.915541 0.915526
0.697353 0.697368 0.697353
0.701762 0.701778 0.701793
0.717952 0.717952 0.717952
0.742687 0.742687 0.742672
0.763348 0.763363 0.763348
0.714183 0.714199 0.714199
0.718074 0.718074 0.718074
0.731365 0.731334 0.731365
0.753231 0.753201 0.753216
0.774136 0.774105 0.774121
0.746792 0.746792 0.746807
0.754742 0.754711 0.754711
0.769177 0.769192 0.769207
0.786145 0.786099 0.786114
0.805814 0.805814 0.805814
0.795483 0.795483 0.795468
0.796979 0.796979 0.796964
0.804105 0.804074 0.804074
0.835996 0.836027 0.836027
0.858213 0.858213 0.858213
0.876387 0.876402 0.876387
0.878172 0.878172 0.878172
0.885557 0.885542 0.885557
0.900740 0.900771 0.900755
0.927306 0.927306 0.927306
