content/luts/b&w/black_and_white_05.cube
#Created by: inPixio
#Copyright: (C) Copyright 2019 inPixio
TITLE "B&W 5"
#LUT size
LUT_3D_SIZE 32
#data domain
DOMAIN_MIN 0.0 0.0 0.0
DOMAIN_MAX 1.0 1.0 1.0
#LUT data points
0.022278 0.022278 0.022278
0.028153 0.028153 0.028153
0.033692 0.033692 0.033692
0.037720 0.037720 0.037720
0.038315 0.038315 0.038315
0.039094 0.039094 0.039094
0.041230 0.041230 0.041230
0.048142 0.048142 0.048142
0.048829 0.048829 0.048829
0.056611 0.056611 0.056611
0.063798 0.063798 0.063798
0.065766 0.065766 0.065766
0.077470 0.077470 0.077470
0.078325 0.078325 0.078325
0.083803 0.083803 0.083803
0.095506 0.095506 0.095506
0.091890 0.091890 0.091890
0.104891 0.104891 0.104891
0.109636 0.109636 0.109636
0.111086 0.111086 0.111086
0.132113 0.132113 0.132113
0.128496 0.128496 0.128496
0.141741 0.141741 0.141741
0.155352 0.155352 0.155352
0.150744 0.150744 0.150744
0.179431 0.179477 0.179538
0.182696 0.182696 0.182696
0.192416 0.192477 0.192523
0.220386 0.220432 0.220386
0.208713 0.208713 0.208667
0.237369 0.237400 0.237400
0.245197 0.245228 0.245228
0.043610 0.043610 0.043610
0.047105 0.047105 0.047105
0.048997 0.048997 0.048997
0.050996 0.050996 0.050996
0.052293 0.052293 0.052293
0.054582 0.054582 0.054582
0.056458 0.056458 0.056458
0.058335 0.058335 0.058335
0.063371 0.063371 0.063371
0.068147 0.068147 0.068147
0.073167 0.073167 0.073167
0.078080 0.078080 0.078080
0.084947 0.084947 0.084947
0.088075 0.088075 0.088075
0.093935 0.093935 0.093935
0.101671 0.101671 0.101671
0.102052 0.102052 0.102052
0.111971 0.111971 0.111971
0.115786 0.115786 0.115786
0.121614 0.121614 0.121614
0.139437 0.139437 0.139437
0.136996 0.136996 0.136996
0.148867 0.148867 0.148867
0.161151 0.161151 0.161151
0.161532 0.161532 0.161532
0.187457 0.187457 0.187457
0.189181 0.189181 0.189181
0.200595 0.200641 0.200687
0.226658 0.226703 0.226703
0.218616 0.218662 0.218616
0.246250 0.246281 0.246281
0.252430 0.252461 0.252461
0.058961 0.058961 0.058961
0.061799 0.061799 0.061799
0.064942 0.064942 0.064942
0.066606 0.066606 0.066606
0.067308 0.067308 0.067308
0.068147 0.068147 0.068147
0.070420 0.070420 0.070420
0.072786 0.072786 0.072786
0.076616 0.076616 0.076616
0.079545 0.079545 0.079545
0.084611 0.084611 0.084611
0.090486 0.090486 0.090486
0.094255 0.094255 0.094255
0.100496 0.100496 0.100496
0.105867 0.105867 0.105867
0.111788 0.111788 0.111788
0.113207 0.113207 0.113207
0.122606 0.122606 0.122606
0.127810 0.127810 0.127810
0.133471 0.133471 0.133471
0.147265 0.147265 0.147265
0.148058 0.148058 0.148058
0.159579 0.159579 0.159579
0.169329 0.169329 0.169329
0.173877 0.173877 0.173877
0.196277 0.196323 0.196368
0.200290 0.200290 0.200244
0.212375 0.212421 0.212375
0.234089 0.234134 0.234134
0.230777 0.230823 0.230777
0.256367 0.256397 0.256397
0.260517 0.260563 0.260517
0.070298 0.070298 0.070298
0.073289 0.073289 0.073289
0.075517 0.075517 0.075517
0.077714 0.077714 0.077714
0.079423 0.079423 0.079423
0.080766 0.080766 0.080766
0.082643 0.082643 0.082643
0.084947 0.084947 0.084947
0.087510 0.087510 0.087510
0.091890 0.091890 0.091890
0.095995 0.095995 0.095995
0.101076 0.101076 0.101076
0.105486 0.105486 0.105486
0.112230 0.112230 0.112230
0.117144 0.117144 0.117144
0.121782 0.121782 0.121782
0.128649 0.128649 0.128649
0.134142 0.134142 0.134142
0.142718 0.142718 0.142718
0.149813 0.149813 0.149813
0.157595 0.157595 0.157595
0.163317 0.163317 0.163317
0.175143 0.175143 0.175143
0.185931 0.185931 0.185931
0.191074 0.191074 0.191074
0.211154 0.211154 0.211109
0.216648 0.216693 0.216739
0.229023 0.229068 0.229023
0.247822 0.247868 0.247868
0.249271 0.249302 0.249302
0.273640 0.273701 0.273640
0.277516 0.277577 0.277546
0.074662 0.074662 0.074662
0.078080 0.078080 0.078080
0.081941 0.081941 0.081941
0.084947 0.084947 0.084947
0.087861 0.087861 0.087861
0.090593 0.090593 0.090593
0.092592 0.092592 0.092592
0.095308 0.095308 0.095308
0.098238 0.098238 0.098238
0.101762 0.101762 0.101762
0.106340 0.106340 0.106340
0.111162 0.111162 0.111162
0.116136 0.116136 0.116136
0.121614 0.121614 0.121614
0.127565 0.127565 0.127565
0.133852 0.133852 0.133852
0.140307 0.140307 0.140307
0.147936 0.147936 0.147936
0.155871 0.155871 0.155871
0.163867 0.163867 0.163867
0.170321 0.170321 0.170321
0.180301 0.180301 0.180301
0.188922 0.188922 0.188922
0.200687 0.200687 0.200641
0.213428 0.213474 0.213428
0.223331 0.223377 0.223377
0.238041 0.238087 0.238041
0.250782 0.250828 0.250828
0.263706 0.263752 0.263752
0.273533 0.273610 0.273564
0.294926 0.294987 0.294957
0.300649 0.300710 0.300679
0.077958 0.077958 0.077958
0.080400 0.080400 0.080400
0.084138 0.084138 0.084138
0.089387 0.089387 0.089387
0.093721 0.093721 0.093721
0.097520 0.097520 0.097520
0.101183 0.101183 0.101183
0.104143 0.104143 0.104143
0.107622 0.107622 0.107622
0.111086 0.111086 0.111086
0.115526 0.115526 0.115526
0.120638 0.120638 0.120638
0.126162 0.126162 0.126162
0.132036 0.132036 0.132036
0.138811 0.138811 0.138811
0.146044 0.146044 0.146044
0.153536 0.153536 0.153536
0.160830 0.160830 0.160830
0.168856 0.168856 0.168856
0.176928 0.176928 0.176928
0.185931 0.185931 0.185931
0.194369 0.194369 0.194324
0.205768 0.205768 0.205707
0.216968 0.217014 0.217060
0.227802 0.227848 0.227802
0.238514 0.238560 0.238560
0.253712 0.253742 0.253742
0.266407 0.266453 0.266453
0.281392 0.281453 0.281422
0.301808 0.301778 0.301778
0.310491 0.310460 0.310460
0.319905 0.319875 0.319875
0.081132 0.081132 0.081132
0.084611 0.084611 0.084611
0.088411 0.088411 0.088411
0.093004 0.093004 0.093004
0.098436 0.098436 0.098436
0.103487 0.103487 0.103487
0.107347 0.107347 0.107347
0.111345 0.111345 0.111345
0.115084 0.115084 0.115084
0.119661 0.119661 0.119661
0.124224 0.124224 0.124224
0.130236 0.130236 0.130236
0.136690 0.136690 0.136690
0.143694 0.143694 0.143694
0.150927 0.150927 0.150927
0.158648 0.158648 0.158648
0.166491 0.166491 0.166491
0.174792 0.174792 0.174792
0.183124 0.183124 0.183124
0.192218 0.192218 0.192157
0.201373 0.201373 0.201312
0.211749 0.211749 0.211704
0.221561 0.221607 0.221561
0.232609 0.232654 0.232609
0.244144 0.244175 0.244175
0.256443 0.256474 0.256474
0.269139 0.269169 0.269169
0.285100 0.285176 0.285130
0.300832 0.300893 0.300862
0.315648 0.315618 0.315618
0.329641 0.329671 0.329671
0.337881 0.337911 0.337881
0.083574 0.083574 0.083574
0.086503 0.086503 0.086503
0.091356 0.091356 0.091356
0.097932 0.097932 0.097932
0.103487 0.103487 0.103487
0.108354 0.108354 0.108354
0.113207 0.113207 0.113207
0.117388 0.117388 0.117388
0.121950 0.121950 0.121950
0.127413 0.127413 0.127413
0.133776 0.133776 0.133776
0.140307 0.140307 0.140307
0.148135 0.148135 0.148135
0.155612 0.155612 0.155612
0.163745 0.163745 0.163745
0.171649 0.171649 0.171649
0.180194 0.180194 0.180194
0.188510 0.188510 0.188510
0.197940 0.197940 0.197894
0.207874 0.207874 0.207828
0.218113 0.218158 0.218204
0.228138 0.228183 0.228138
0.239643 0.239689 0.239689
0.250935 0.250980 0.250980
0.262837 0.262882 0.262882
0.274830 0.274785 0.274785
0.288960 0.289021 0.288991
0.303121 0.303090 0.303090
0.318303 0.318303 0.318334
0.334234 0.334188 0.334203
0.348028 0.348043 0.348028
0.354086 0.354040 0.354070
0.090257 0.090257 0.090257
0.093507 0.093507 0.093507
0.097932 0.097932 0.097932
0.103777 0.103777 0.103777
0.110720 0.110720 0.110720
0.116472 0.116472 0.116472
0.121447 0.121447 0.121447
0.126238 0.126238 0.126238
0.131212 0.131212 0.131212
0.136690 0.136690 0.136690
0.143633 0.143633 0.143633
0.151186 0.151186 0.151186
0.158709 0.158709 0.158709
0.167208 0.167208 0.167208
0.175143 0.175143 0.175143
0.184054 0.184054 0.184054
0.193454 0.193454 0.193393
0.203372 0.203372 0.203327
0.213230 0.213275 0.213230
0.224231 0.224277 0.224231
0.235096 0.235126 0.235126
0.246677 0.246723 0.246799
0.257527 0.257557 0.257588
0.270283 0.270314 0.270359
0.282673 0.282734 0.282704
0.295842 0.295903 0.295872
0.308568 0.308537 0.308537
0.324697 0.324682 0.324682
0.339971 0.339864 0.339910
0.353384 0.353338 0.353384
0.365927 0.365881 0.365911
0.374670 0.374640 0.374670
0.102647 0.102647 0.102647
0.105379 0.105379 0.105379
0.108446 0.108446 0.108446
0.113298 0.113298 0.113298
0.119341 0.119341 0.119341
0.125124 0.125124 0.125124
0.130907 0.130907 0.130907
0.135531 0.135531 0.135531
0.140597 0.140597 0.140597
0.146243 0.146243 0.146243
0.152621 0.152621 0.152621
0.160967 0.160967 0.160967
0.170138 0.170138 0.170138
0.179324 0.179324 0.179324
0.189075 0.189075 0.189075
0.198383 0.198383 0.198337
0.208393 0.208438 0.208484
0.218250 0.218296 0.218250
0.228855 0.228901 0.228901
0.239048 0.239078 0.239078
0.251408 0.251438 0.251438
0.263279 0.263310 0.263310
0.276539 0.276600 0.276570
0.289509 0.289571 0.289540
0.304036 0.304006 0.304006
0.317876 0.317922 0.317876
0.332494 0.332448 0.332464
0.346593 0.346548 0.346563
0.360296 0.360235 0.360296
0.374075 0.374029 0.374075
0.387152 0.387152 0.387152
0.397269 0.397269 0.397269
0.113466 0.113466 0.113466
0.115786 0.115786 0.115786
0.118334 0.118334 0.118334
0.123735 0.123735 0.123735
0.130617 0.130617 0.130617
0.136095 0.136095 0.136095
0.142641 0.142641 0.142641
0.148730 0.148730 0.148730
0.154254 0.154254 0.154254
0.160510 0.160510 0.160510
0.167742 0.167742 0.167742
0.175738 0.175738 0.175738
0.184375 0.184375 0.184375
0.193301 0.193301 0.193240
0.202243 0.202243 0.202197
0.211566 0.211612 0.211658
0.220829 0.220874 0.220920
0.231159 0.231205 0.231159
0.241993 0.242023 0.242023
0.254841 0.254871 0.254871
0.268132 0.268177 0.268177
0.282338 0.282399 0.282368
0.295613 0.295674 0.295644
0.310338 0.310308 0.310308
0.324224 0.324193 0.324193
0.339651 0.339666 0.339651
0.353628 0.353582 0.353613
0.368551 0.368505 0.368505
0.382910 0.382879 0.382879
0.399435 0.399435 0.399451
0.413611 0.413611 0.413611
0.424750 0.424796 0.424796
0.122683 0.122683 0.122683
0.125765 0.125765 0.125765
0.129351 0.129351 0.129351
0.134508 0.134508 0.134508
0.141253 0.141253 0.141253
0.149416 0.149416 0.149416
0.156008 0.156008 0.156008
0.162036 0.162036 0.162036
0.168628 0.168628 0.168628
0.174395 0.174395 0.174395
0.181003 0.181003 0.181003
0.188556 0.188556 0.188556
0.196918 0.196918 0.196872
0.205768 0.205768 0.205707
0.215061 0.215106 0.215061
0.225269 0.225315 0.225315
0.236271 0.236317 0.236317
0.247547 0.247578 0.247578
0.260227 0.260273 0.260304
0.272908 0.272969 0.272969
0.286473 0.286549 0.286519
0.299672 0.299733 0.299702
0.314443 0.314427 0.314427
0.328618 0.328618 0.328588
0.344289 0.344198 0.344244
0.359747 0.359701 0.359716
0.376501 0.376471 0.376455
0.391745 0.391684 0.391699
0.408957 0.408942 0.408911
0.425498 0.425498 0.425498
0.437858 0.437858 0.437858
0.446037 0.446037 0.446037
0.138018 0.138018 0.138018
0.139849 0.139849 0.139849
0.142718 0.142718 0.142718
0.147128 0.147128 0.147128
0.153338 0.153338 0.153338
0.160891 0.160891 0.160891
0.169635 0.169635 0.169635
0.177340 0.177340 0.177340
0.183993 0.183993 0.183993
0.190723 0.190723 0.190723
0.197467 0.197467 0.197406
0.205188 0.205188 0.205142
0.213657 0.213703 0.213657
0.222904 0.222950 0.222904
0.232654 0.232700 0.232700
0.242374 0.242420 0.242420
0.252918 0.252949 0.252918
0.263890 0.263935 0.263935
0.275517 0.275593 0.275593
0.288594 0.288655 0.288624
0.302449 0.302510 0.302480
0.316915 0.316884 0.316884
0.331945 0.331945 0.331914
0.348028 0.347967 0.347997
0.363729 0.363638 0.363684
0.380667 0.380652 0.380621
0.397345 0.397345 0.397345
0.415152 0.415152 0.415152
0.431540 0.431540 0.431540
0.448066 0.448112 0.448081
0.460517 0.460548 0.460517
0.469673 0.469657 0.469688
0.151446 0.151446 0.151446
0.153674 0.153674 0.153674
0.156191 0.156191 0.156191
0.159762 0.159762 0.159762
0.166674 0.166674 0.166674
0.174853 0.174853 0.174853
0.182910 0.182910 0.182910
0.192218 0.192218 0.192157
0.201312 0.201312 0.201267
0.207599 0.207599 0.207553
0.214557 0.214603 0.214649
0.221820 0.221866 0.221912
0.229969 0.230015 0.229969
0.238712 0.238758 0.238712
0.248447 0.248478 0.248478
0.258595 0.258625 0.258625
0.269200 0.269245 0.269245
0.280690 0.280751 0.280720
0.292653 0.292714 0.292683
0.306355 0.306416 0.306386
0.321126 0.321126 0.321157
0.335973 0.336004 0.335973
0.351904 0.351858 0.351873
0.367071 0.367025 0.367056
0.383597 0.383566 0.383551
0.400259 0.400259 0.400259
0.418540 0.418540 0.418540
0.436530 0.436530 0.436530
0.454688 0.454734 0.454688
0.471214 0.471260 0.471214
0.485390 0.485405 0.485405
0.493828 0.493904 0.493874
0.159579 0.159579 0.159579
0.162890 0.162890 0.162890
0.166552 0.166552 0.166552
0.171817 0.171817 0.171817
0.178668 0.178668 0.178668
0.187823 0.187823 0.187823
0.199069 0.199069 0.199023
0.207919 0.207965 0.208011
0.217319 0.217365 0.217411
0.225849 0.225895 0.225895
0.232364 0.232410 0.232410
0.239323 0.239368 0.239368
0.246906 0.246952 0.246952
0.256046 0.256077 0.256077
0.265751 0.265782 0.265782
0.276707 0.276768 0.276768
0.288289 0.288365 0.288335
0.300038 0.300008 0.300008
0.312520 0.312490 0.312490
0.325353 0.325322 0.325322
0.339452 0.339483 0.339452
0.354406 0.354421 0.354421
0.370092 0.370001 0.370047
0.385977 0.385977 0.385977
0.402441 0.402441 0.402441
0.419608 0.419608 0.419608
0.437720 0.437720 0.437720
0.456947 0.456947 0.456947
0.475288 0.475288 0.475258
0.494255 0.494270 0.494270
0.509407 0.509422 0.509407
0.518013 0.518029 0.518013
0.176883 0.176883 0.176883
0.177905 0.177905 0.177905
0.179095 0.179095 0.179095
0.183017 0.183017 0.183017
0.190356 0.190417 0.190463
0.199573 0.199619 0.199664
0.210636 0.210636 0.210590
0.224018 0.224064 0.224064
0.233463 0.233509 0.233509
0.242145 0.242176 0.242145
0.251865 0.251896 0.251942
0.258961 0.259007 0.259007
0.266896 0.266926 0.266926
0.275624 0.275700 0.275670
0.285603 0.285664 0.285634
0.296223 0.296284 0.296254
0.308171 0.308232 0.308202
0.320363 0.320424 0.320363
0.332631 0.332570 0.332601
0.345235 0.345266 0.345235
0.358358 0.358312 0.358328
0.372366 0.372305 0.372305
0.387564 0.387549 0.387518
0.403830 0.403830 0.403830
0.421332 0.421378 0.421347
0.438941 0.438987 0.438956
0.457862 0.457908 0.457908
0.477577 0.477531 0.477516
0.497383 0.497398 0.497383
0.516365 0.516381 0.516381
0.533517 0.533501 0.533501
0.541390 0.541344 0.541375
0.192065 0.192065 0.192065
0.193805 0.193805 0.193759
0.196063 0.196063 0.196017
0.199512 0.199512 0.199466
0.204059 0.204059 0.204013
0.212329 0.212375 0.212329
0.223758 0.223804 0.223758
0.236759 0.236805 0.236759
0.250507 0.250553 0.250553
0.262013 0.262043 0.262043
0.270848 0.270878 0.270878
0.278904 0.278965 0.278935
0.286549 0.286610 0.286580
0.294850 0.294926 0.294896
0.304158 0.304128 0.304128
0.314595 0.314656 0.314626
0.325811 0.325795 0.325795
0.338094 0.338048 0.338064
0.351186 0.351141 0.351156
0.364096 0.364050 0.364080
0.377920 0.377905 0.377920
0.392508 0.392493 0.392462
0.407919 0.407919 0.407919
0.424277 0.424277 0.424277
0.441444 0.441489 0.441489
0.459373 0.459419 0.459373
0.477897 0.477928 0.477897
0.496819 0.496834 0.496834
0.516869 0.516854 0.516854
0.536538 0.536522 0.536522
0.553643 0.553658 0.553643
0.563516 0.563485 0.563500
0.199863 0.199863 0.199817
0.203128 0.203128 0.203082
0.206821 0.206867 0.206912
0.212161 0.212207 0.212253
0.219226 0.219272 0.219226
0.228016 0.228061 0.228016
0.238514 0.238560 0.238560
0.250752 0.250782 0.250782
0.263310 0.263356 0.263356
0.277287 0.277348 0.277318
0.290166 0.290135 0.290135
0.298085 0.298146 0.298116
0.307149 0.307210 0.307179
0.316106 0.316075 0.316075
0.325673 0.325658 0.325658
0.336400 0.336431 0.336400
0.348150 0.348180 0.348180
0.360830 0.360769 0.360800
0.374167 0.374121 0.374167
0.387823 0.387823 0.387869
0.401129 0.401129 0.401129
0.414359 0.414359 0.414359
0.428275 0.428275 0.428275
0.442878 0.442878 0.442878
0.458915 0.458900 0.458915
0.475898 0.475914 0.475914
0.494972 0.494987 0.494987
0.515053 0.515068 0.515068
0.536111 0.536111 0.536126
0.556451 0.556420 0.556420
0.573831 0.573846 0.573831
0.586572 0.586603 0.586587
0.219104 0.219150 0.219196
0.220035 0.220081 0.220157
0.221180 0.221225 0.221256
0.223728 0.223758 0.223758
0.230823 0.230869 0.230869
0.239765 0.239811 0.239811
0.251331 0.251362 0.251362
0.265522 0.265568 0.265568
0.281697 0.281758 0.281727
0.296635 0.296605 0.296605
0.309224 0.309194 0.309194
0.321752 0.321721 0.321721
0.330465 0.330465 0.330434
0.338903 0.338842 0.338872
0.348028 0.347967 0.347997
0.357931 0.357885 0.357916
0.368765 0.368719 0.368765
0.380743 0.380713 0.380743
0.393469 0.393469 0.393515
0.406424 0.406363 0.406394
0.419944 0.419944 0.419944
0.433417 0.433417 0.433417
0.447822 0.447822 0.447822
0.463157 0.463142 0.463157
0.479286 0.479301 0.479301
0.497108 0.497139 0.497139
0.515999 0.515984 0.515984
0.535637 0.535637 0.535653
0.555947 0.555962 0.555932
0.575402 0.575387 0.575402
0.592126 0.592126 0.592126
0.602731 0.602731 0.602731
0.237003 0.237049 0.237049
0.238712 0.238758 0.238758
0.240711 0.240757 0.240711
0.243519 0.243549 0.243549
0.247272 0.247303 0.247303
0.252461 0.252506 0.252506
0.264134 0.264179 0.264179
0.278859 0.278935 0.278904
0.295811 0.295781 0.295781
0.314626 0.314595 0.314595
0.327520 0.327520 0.327489
0.339559 0.339590 0.339559
0.351537 0.351476 0.351537
0.360357 0.360311 0.360342
0.369696 0.369635 0.369635
0.379980 0.379950 0.379980
0.390921 0.390921 0.390921
0.403250 0.403250 0.403250
0.416281 0.416281 0.416281
0.430488 0.430488 0.430488
0.444709 0.444663 0.444694
0.459220 0.459175 0.459175
0.473289 0.473304 0.473335
0.486915 0.486946 0.486946
0.501656 0.501717 0.501686
0.517083 0.517098 0.517098
0.534402 0.534386 0.534386
0.552773 0.552743 0.552743
0.572397 0.572366 0.572366
0.592371 0.592325 0.592340
0.609506 0.609506 0.609506
0.620142 0.620172 0.620157
0.245930 0.245975 0.245975
0.247944 0.247990 0.247990
0.250629 0.250675 0.250675
0.254536 0.254582 0.254536
0.261219 0.261250 0.261250
0.269657 0.269703 0.269703
0.279851 0.279927 0.279896
0.292119 0.292180 0.292149
0.308599 0.308568 0.308568
0.326009 0.325979 0.325979
0.345129 0.345083 0.345113
0.362631 0.362585 0.362600
0.374075 0.374044 0.374029
0.384787 0.384787 0.384787
0.394827 0.394827 0.394873
0.404364 0.404364 0.404364
0.414740 0.414740 0.414740
0.426368 0.426368 0.426368
0.438727 0.438727 0.438712
0.452186 0.452140 0.452140
0.466346 0.466331 0.466346
0.480354 0.480369 0.480354
0.494606 0.494621 0.494621
0.508461 0.508476 0.508476
0.522408 0.522393 0.522393
0.537774 0.537774 0.537774
0.554421 0.554437 0.554406
0.572931 0.572885 0.572900
0.592340 0.592340 0.592340
0.611780 0.611780 0.611780
0.630976 0.630991 0.630976
0.638819 0.638819 0.638819
0.268025 0.268055 0.268055
0.269093 0.269139 0.269139
0.270253 0.270283 0.270283
0.273533 0.273610 0.273564
0.279851 0.279927 0.279896
0.288106 0.288167 0.288136
0.298268 0.298238 0.298238
0.310140 0.310140 0.310170
0.324880 0.324849 0.324849
0.342031 0.342046 0.342031
0.360464 0.360403 0.360464
0.380530 0.380514 0.380484
0.396750 0.396750 0.396750
0.407446 0.407477 0.407446
0.418296 0.418296 0.418296
0.428092 0.428092 0.428092
0.438071 0.438071 0.438071
0.449409 0.449378 0.449394
0.461326 0.461357 0.461372
0.475258 0.475288 0.475303
0.489311 0.489326 0.489326
0.504250 0.504234 0.504250
0.518868 0.518853 0.518853
0.533059 0.533089 0.533074
0.547524 0.547524 0.547509
0.561257 0.561273 0.561273
0.577035 0.577020 0.577005
0.593622 0.593622 0.593622
0.611841 0.611856 0.611856
0.630564 0.630579 0.630564
0.646861 0.646861 0.646845
0.659037 0.659037 0.659037
0.288136 0.288106 0.288136
0.289799 0.289860 0.289830
0.291707 0.291768 0.291737
0.294453 0.294514 0.294484
0.298146 0.298207 0.298177
0.302754 0.302815 0.302785
0.311284 0.311254 0.311254
0.322988 0.322942 0.322972
0.340734 0.340765 0.340765
0.360678 0.360693 0.360693
0.382116 0.382116 0.382162
0.399985 0.399985 0.399985
0.414908 0.414954 0.414954
0.431022 0.431067 0.431052
0.442054 0.442054 0.442054
0.451911 0.451911 0.451911
0.462806 0.462806 0.462806
0.474037 0.474037 0.474022
0.485512 0.485527 0.485527
0.499107 0.499123 0.499138
0.512535 0.512520 0.512535
0.527077 0.527062 0.527062
0.541390 0.541390 0.541390
0.555688 0.555703 0.555688
0.570199 0.570214 0.570199
0.584680 0.584680 0.584680
0.599374 0.599329 0.599344
0.615198 0.615213 0.615229
0.631968 0.631983 0.631968
0.649653 0.649622 0.649622
0.665141 0.665156 0.665156
0.675853 0.675822 0.675807
0.301839 0.301900 0.301869
0.303334 0.303395 0.303365
0.305074 0.305135 0.305104
0.308507 0.308476 0.308476
0.313512 0.313497 0.313497
0.319814 0.319875 0.319844
0.327825 0.327825 0.327810
0.339117 0.339056 0.339086
0.355093 0.355047 0.355062
0.373266 0.373220 0.373266
0.393133 0.393133 0.393133
0.416220 0.416220 0.416220
0.434043 0.433997 0.433997
0.452415 0.452415 0.452415
0.466819 0.466804 0.466819
0.477897 0.477928 0.477897
0.488655 0.488716 0.488685
0.499367 0.499352 0.499367
0.510277 0.510247 0.510247
0.523018 0.523003 0.523003
0.535760 0.535744 0.535744
0.550530 0.550546 0.550530
0.565011 0.564981 0.564996
0.579736 0.579767 0.579767
0.594522 0.594492 0.594522
0.608255 0.608286 0.608286
0.622934 0.622934 0.622919
0.637003 0.637018 0.637018
0.653208 0.653254 0.653254
0.669947 0.669932 0.669902
0.685741 0.685741 0.685741
0.694972 0.695003 0.694972
0.323186 0.323186 0.323217
0.324178 0.324178 0.324193
0.325353 0.325322 0.325322
0.328801 0.328832 0.328832
0.333608 0.333639 0.333608
0.340337 0.340368 0.340337
0.350164 0.350103 0.350134
0.362493 0.362448 0.362463
0.376684 0.376669 0.376638
0.392905 0.392905 0.392905
0.412726 0.412665 0.412680
0.433555 0.433509 0.433509
0.456107 0.456153 0.456153
0.476295 0.476280 0.476280
0.487572 0.487633 0.487602
0.499626 0.499641 0.499641
0.511208 0.511223 0.511223
0.522118 0.522103 0.522103
0.533715 0.533700 0.533700
0.546777 0.546746 0.546761
0.559457 0.559426 0.559426
0.574014 0.573999 0.574014
0.587930 0.587945 0.587945
0.602594 0.602609 0.602609
0.616999 0.616999 0.616983
0.630991 0.631037 0.631022
0.646571 0.646586 0.646571
0.661341 0.661341 0.661357
0.676890 0.676921 0.676890
0.691524 0.691508 0.691508
0.706035 0.706020 0.706035
0.714229 0.714229 0.714229
0.347387 0.347326 0.347356
0.349111 0.349050 0.349081
0.351034 0.351064 0.351034
0.353903 0.353933 0.353933
0.357839 0.357794 0.357809
0.362722 0.362753 0.362753
0.371160 0.371115 0.371115
0.382681 0.382651 0.382651
0.394919 0.394919 0.394919
0.406912 0.406912 0.406912
0.427649 0.427649 0.427649
0.448692 0.448692 0.448692
0.470954 0.470954 0.470939
0.492546 0.492577 0.492546
0.510597 0.510613 0.510613
0.526131 0.526116 0.526116
0.539132 0.539132 0.539132
0.550210 0.550225 0.550195
0.561074 0.561044 0.561059
0.572595 0.572580 0.572595
0.583764 0.583719 0.583749
0.597726 0.597696 0.597711
0.611109 0.611093 0.611093
0.626383 0.626383 0.626368
0.641566 0.641550 0.641550
0.656107 0.656062 0.656077
0.671031 0.671000 0.671016
0.684413 0.684382 0.684398
0.698314 0.698329 0.698314
0.711955 0.711940 0.711955
0.724590 0.724590 0.724590
0.735103 0.735058 0.735088
0.364370 0.364324 0.364340
0.365957 0.365911 0.365927
0.367773 0.367727 0.367773
0.370398 0.370352 0.370352
0.374212 0.374197 0.374167
0.381018 0.380987 0.380972
0.389288 0.389334 0.389334
0.399176 0.399176 0.399207
0.410086 0.410086 0.410117
0.426841 0.426841 0.426841
0.447807 0.447761 0.447761
0.471428 0.471473 0.471428
0.496696 0.496712 0.496712
0.515175 0.515190 0.515190
0.532479 0.532479 0.532494
0.550927 0.550942 0.550927
0.561730 0.561746 0.561730
0.572580 0.572564 0.572580
0.583780 0.583795 0.583780
0.595117 0.595117 0.595117
0.607111 0.607141 0.607141
0.621012 0.621012 0.620996
0.634943 0.634943 0.634943
0.650111 0.650080 0.650095
0.664836 0.664836 0.664851
0.679744 0.679713 0.679713
0.694545 0.694591 0.694591
0.708476 0.708461 0.708476
0.723705 0.723705 0.723705
0.736904 0.736919 0.736919
0.749218 0.749172 0.749188
0.756497 0.756512 0.756527
0.384695 0.384665 0.384649
0.385885 0.385870 0.385840
0.388464 0.388434 0.388418
0.392355 0.392340 0.392310
0.397604 0.397620 0.397604
0.404242 0.404242 0.404242
0.412345 0.412345 0.412345
0.421408 0.421408 0.421408
0.432899 0.432899 0.432899
0.446723 0.446723 0.446723
0.465385 0.465385 0.465370
0.487800 0.487816 0.487816
0.508507 0.508522 0.508522
0.534066 0.534066 0.534081
0.552773 0.552743 0.552773
0.573266 0.573297 0.573297
0.587152 0.587106 0.587121
0.599634 0.599588 0.599603
