content/luts/b&w/black_and_white_11.cube
#Created by: inPixio
#Copyright: (C) Copyright 2022 inPixio
TITLE "Black & White 11"
#LUT size
LUT_3D_SIZE 5
#LUT data points
0.000000 0.000000 0.000000
0.036407 0.036407 0.036407
0.082306 0.082306 0.082306
0.128784 0.128784 0.128784
0.175903 0.175903 0.175903
0.059204 0.059204 0.059204
0.024048 0.024048 0.024048
0.067719 0.067719 0.067719
0.113953 0.113953 0.113953
0.160828 0.160828 0.160828
0.128723 0.128723 0.128723
0.090729 0.090729 0.090729
0.053009 0.053009 0.053009
0.099182 0.099182 0.099182
0.145874 0.145874 0.145874
0.199890 0.199890 0.199890
0.160889 0.160889 0.160889
0.122437 0.122437 0.122437
0.084412 0.084412 0.084412
0.131104 0.131104 0.131104
0.273773 0.273773 0.273773
0.233429 0.233429 0.233429
0.193542 0.193542 0.193542
0.154633 0.154633 0.154633
0.116394 0.116394 0.116394
0.053009 0.053009 0.053009
0.130890 0.130890 0.130890
0.178131 0.178131 0.178131
0.226501 0.226501 0.226501
0.276276 0.276276 0.276276
0.122467 0.122467 0.122467
0.202179 0.202179 0.202179
0.251282 0.251282 0.251282
0.301392 0.301392 0.301331
0.351959 0.351685 0.351288
0.193481 0.193481 0.193481
0.276245 0.276245 0.276245
0.235565 0.235565 0.235565
0.285461 0.285461 0.285431
0.335693 0.335693 0.335571
0.267426 0.267426 0.267426
0.352051 0.351746 0.351318
0.310547 0.310577 0.310516
0.269501 0.269501 0.269501
0.319733 0.319763 0.319672
0.343231 0.343292 0.343140
0.439240 0.431030 0.422119
0.389771 0.387207 0.384277
0.344940 0.344818 0.344604
0.303772 0.303772 0.303741
0.116028 0.116028 0.116028
0.195587 0.195587 0.195587
0.278564 0.278564 0.278564
0.328827 0.328827 0.328735
0.381836 0.379974 0.377869
0.186859 0.186859 0.186859
0.269440 0.269440 0.269440
0.354523 0.354126 0.353516
0.411377 0.406586 0.401306
0.473694 0.460480 0.446289
0.260406 0.260406 0.260406
0.345032 0.344879 0.344574
0.442200 0.433502 0.424103
0.505707 0.487396 0.467743
0.569336 0.540070 0.508789
0.335968 0.335999 0.335876
0.430878 0.423737 0.415985
0.537720 0.513977 0.488586
0.485413 0.470367 0.454193
0.549316 0.523560 0.496033
0.420441 0.414673 0.408356
0.526276 0.504547 0.481262
0.630249 0.590302 0.547699
0.580688 0.549438 0.516022
0.529083 0.506836 0.483002
0.180298 0.180298 0.180298
0.262573 0.262573 0.262573
0.347229 0.347107 0.346863
0.444916 0.435974 0.426239
0.508667 0.489868 0.469788
0.253540 0.253540 0.253540
0.337982 0.337952 0.337830
0.433624 0.426117 0.417999
0.540619 0.516388 0.490479
0.603088 0.567871 0.530243
0.328918 0.328979 0.328857
0.422455 0.416351 0.409729
0.528992 0.506775 0.482971
0.632812 0.592468 0.549377
0.688660 0.639343 0.586731
0.411743 0.406952 0.401672
0.517456 0.497192 0.475494
0.622162 0.583618 0.542480
0.714325 0.661621 0.605377
0.761963 0.704895 0.644012
0.506592 0.488190 0.468445
0.611481 0.574799 0.535614
0.705292 0.653656 0.598572
0.784241 0.726562 0.665131
0.747406 0.691284 0.631409
0.246674 0.246674 0.246674
0.331085 0.331116 0.331024
0.425110 0.418732 0.411835
0.531921 0.509186 0.484924
0.635681 0.594757 0.551147
0.321960 0.321991 0.321899
0.414062 0.408966 0.403473
0.520233 0.499542 0.477325
0.624908 0.585876 0.544220
0.716705 0.663605 0.606964
0.403290 0.399414 0.395203
0.508606 0.489838 0.469727
0.614014 0.576904 0.537231
0.707520 0.655579 0.600220
0.786163 0.728485 0.666931
0.497345 0.480438 0.462311
0.603149 0.567902 0.530304
0.698212 0.647522 0.593445
0.778198 0.720612 0.659180
0.856415 0.807861 0.755981
0.593018 0.559540 0.523834
0.688873 0.639496 0.586823
0.770203 0.712738 0.651428
0.847076 0.796326 0.742157
0.954559 0.930695 0.905060
