content/luts/b&w/black_and_white_11.cube
#Created by: inPixio
#Copyright: (C) Copyright 2022 inPixio
TITLE "Black & White 11"
#LUT size
LUT_3D_SIZE 9
#LUT data points
0.000000 0.000000 0.000000
0.017548 0.017548 0.017548
0.036407 0.036407 0.036407
0.059357 0.059357 0.059357
0.082306 0.082306 0.082306
0.105438 0.105438 0.105438
0.128784 0.128784 0.128784
0.152191 0.152191 0.152191
0.175903 0.175903 0.175903
0.026398 0.026398 0.026398
0.012085 0.012085 0.012085
0.029846 0.029846 0.029846
0.052002 0.052002 0.052002
0.075012 0.075012 0.075012
0.098053 0.098053 0.098053
0.121277 0.121277 0.121277
0.144775 0.144775 0.144775
0.168427 0.168427 0.168427
0.059204 0.059204 0.059204
0.040588 0.040588 0.040588
0.024048 0.024048 0.024048
0.044678 0.044678 0.044678
0.067719 0.067719 0.067719
0.090790 0.090790 0.090790
0.113953 0.113953 0.113953
0.137329 0.137329 0.137329
0.160828 0.160828 0.160828
0.093750 0.093750 0.093750
0.074982 0.074982 0.074982
0.056122 0.056122 0.056122
0.037567 0.037567 0.037567
0.060364 0.060364 0.060364
0.083405 0.083405 0.083405
0.106598 0.106598 0.106598
0.129913 0.129913 0.129913
0.153351 0.153351 0.153351
0.128723 0.128723 0.128723
0.109680 0.109680 0.109680
0.090729 0.090729 0.090729
0.071899 0.071899 0.071899
0.053009 0.053009 0.053009
0.076080 0.076080 0.076080
0.099182 0.099182 0.099182
0.122467 0.122467 0.122467
0.145874 0.145874 0.145874
0.164032 0.164032 0.164032
0.144714 0.144714 0.144714
0.125641 0.125641 0.125641
0.106506 0.106506 0.106506
0.087646 0.087646 0.087646
0.068817 0.068817 0.068817
0.091827 0.091827 0.091827
0.115051 0.115051 0.115051
0.138428 0.138428 0.138428
0.199890 0.199890 0.199890
0.180389 0.180389 0.180389
0.160889 0.160889 0.160889
0.141724 0.141724 0.141724
0.122437 0.122437 0.122437
0.103394 0.103394 0.103394
0.084412 0.084412 0.084412
0.107697 0.107697 0.107697
0.131104 0.131104 0.131104
0.236420 0.236420 0.236420
0.216461 0.216461 0.216461
0.196716 0.196716 0.196716
0.177063 0.177063 0.177063
0.157745 0.157745 0.157745
0.138458 0.138458 0.138458
0.119354 0.119354 0.119354
0.100525 0.100525 0.100525
0.123657 0.123657 0.123657
0.273773 0.273773 0.273773
0.253632 0.253632 0.253632
0.233429 0.233429 0.233429
0.213287 0.213287 0.213287
0.193542 0.193542 0.193542
0.174103 0.174103 0.174103
0.154633 0.154633 0.154633
0.135284 0.135284 0.135284
0.116394 0.116394 0.116394
0.024048 0.024048 0.024048
0.060272 0.060272 0.060272
0.083405 0.083405 0.083405
0.106506 0.106506 0.106506
0.129791 0.129791 0.129791
0.153320 0.153320 0.153320
0.177032 0.177032 0.177032
0.201080 0.201080 0.201080
0.225372 0.225372 0.225372
0.056122 0.056122 0.056122
0.094879 0.094879 0.094879
0.118195 0.118195 0.118195
0.141541 0.141541 0.141541
0.165161 0.165161 0.165161
0.189026 0.189026 0.189026
0.213196 0.213196 0.213196
0.237701 0.237701 0.237701
0.262512 0.262512 0.262512
0.090790 0.090790 0.090790
0.129852 0.129852 0.129852
0.110809 0.110809 0.110809
0.134094 0.134094 0.134094
0.157623 0.157623 0.157623
0.181396 0.181396 0.181396
0.205505 0.205505 0.205505
0.229889 0.229889 0.229889
0.254700 0.254700 0.254700
0.125641 0.125641 0.125641
0.165161 0.165161 0.165161
0.145813 0.145813 0.145813
0.126648 0.126648 0.126648
0.150146 0.150146 0.150146
0.173828 0.173828 0.173828
0.197815 0.197815 0.197815
0.222107 0.222107 0.222107
0.246765 0.246765 0.246765
0.161041 0.161041 0.161041
0.201050 0.201050 0.201050
0.181396 0.181396 0.181396
0.161957 0.161957 0.161957
0.142700 0.142700 0.142700
0.166290 0.166290 0.166290
0.190155 0.190155 0.190155
0.214355 0.214355 0.214355
0.238861 0.238861 0.238861
0.196899 0.196899 0.196899
0.237671 0.237671 0.237671
0.217651 0.217651 0.217651
0.197754 0.197754 0.197754
0.178192 0.178192 0.178192
0.158752 0.158752 0.158752
0.182556 0.182556 0.182556
0.206665 0.206665 0.206665
0.231018 0.231018 0.231018
0.233521 0.233521 0.233521
0.275085 0.275085 0.275085
0.254669 0.254669 0.254669
0.234406 0.234406 0.234406
0.214325 0.214325 0.214325
0.194519 0.194519 0.194519
0.174988 0.174988 0.174988
0.198975 0.198975 0.198975
0.223236 0.223236 0.223236
0.271149 0.271149 0.271149
0.312744 0.312744 0.312683
0.292297 0.292297 0.292267
0.271729 0.271729 0.271729
0.251343 0.251343 0.251343
0.231049 0.231049 0.231049
0.211060 0.211060 0.211060
0.191315 0.191315 0.191315
0.215515 0.215515 0.215515
0.308899 0.308899 0.308838
0.350525 0.350464 0.350159
0.329926 0.329956 0.329865
0.309448 0.309448 0.309387
0.288940 0.288940 0.288940
0.268372 0.268372 0.268372
0.248016 0.248016 0.248016
0.227814 0.227814 0.227814
0.207764 0.207764 0.207764
0.053009 0.053009 0.053009
0.091766 0.091766 0.091766
0.130890 0.130890 0.130890
0.154388 0.154388 0.154388
0.178131 0.178131 0.178131
0.202148 0.202148 0.202148
0.226501 0.226501 0.226501
0.251251 0.251251 0.251251
0.276276 0.276276 0.276276
0.087616 0.087616 0.087616
0.126678 0.126678 0.126678
0.166229 0.166229 0.166229
0.190125 0.190125 0.190125
0.214294 0.214294 0.214294
0.238831 0.238831 0.238831
0.263702 0.263702 0.263702
0.288818 0.288818 0.288788
0.313904 0.313934 0.313843
0.122467 0.122467 0.122467
0.161896 0.161896 0.161896
0.202179 0.202179 0.202179
0.226532 0.226532 0.226532
0.251282 0.251282 0.251282
0.276276 0.276276 0.276276
0.301392 0.301392 0.301331
0.326477 0.326538 0.326416
0.351959 0.351685 0.351288
0.157684 0.157684 0.157684
0.197784 0.197784 0.197784
0.238831 0.238831 0.238831
0.218811 0.218811 0.218811
0.243408 0.243408 0.243408
0.268311 0.268311 0.268311
0.293427 0.293427 0.293427
0.318542 0.318604 0.318512
0.343781 0.343689 0.343506
0.193481 0.193481 0.193481
0.234375 0.234375 0.234375
0.276245 0.276245 0.276245
0.255798 0.255798 0.255798
0.235565 0.235565 0.235565
0.260376 0.260376 0.260376
0.285461 0.285461 0.285431
0.310577 0.310608 0.310547
0.335693 0.335693 0.335571
0.230072 0.230072 0.230072
0.271790 0.271790 0.271790
0.313965 0.313965 0.313904
0.293396 0.293396 0.293365
0.272827 0.272827 0.272827
0.252441 0.252441 0.252441
0.277466 0.277466 0.277466
0.302582 0.302582 0.302551
0.327698 0.327728 0.327637
0.267426 0.267426 0.267426
0.309570 0.309570 0.309509
0.352051 0.351746 0.351318
0.331085 0.331116 0.330994
0.310547 0.310577 0.310516
0.289978 0.289978 0.289978
0.269501 0.269501 0.269501
0.294617 0.294617 0.294586
0.319733 0.319763 0.319672
0.305481 0.305481 0.305420
0.347443 0.347321 0.347076
0.393768 0.390747 0.387482
0.370453 0.369293 0.367981
0.348450 0.348297 0.347961
0.327667 0.327698 0.327606
0.307129 0.307129 0.307068
0.286621 0.286621 0.286591
0.311737 0.311768 0.311707
0.343231 0.343292 0.343140
0.388794 0.386353 0.383575
0.439240 0.431030 0.422119
0.414062 0.408997 0.403442
0.389771 0.387207 0.384277
0.366669 0.365784 0.364685
0.344940 0.344818 0.344604
0.324249 0.324310 0.324188
0.303772 0.303772 0.303741
0.084412 0.084412 0.084412
0.123444 0.123444 0.123444
0.163025 0.163025 0.163025
0.203339 0.203339 0.203339
0.227631 0.227631 0.227631
0.252380 0.252380 0.252380
0.277405 0.277405 0.277405
0.302582 0.302582 0.302521
0.327667 0.327698 0.327606
0.119171 0.119171 0.119171
0.158722 0.158722 0.158722
0.198853 0.198853 0.198853
0.239990 0.239990 0.239990
0.264893 0.264893 0.264893
0.289978 0.289978 0.289948
0.315063 0.315094 0.315033
0.340210 0.340210 0.340057
0.366547 0.365692 0.364685
0.154388 0.154388 0.154388
0.194489 0.194489 0.194489
0.235474 0.235474 0.235474
0.277405 0.277405 0.277374
0.302521 0.302551 0.302490
0.327637 0.327667 0.327576
0.353271 0.352905 0.352417
0.380646 0.378784 0.376678
0.409943 0.405304 0.400269
0.190125 0.190125 0.190125
0.231018 0.231018 0.231018
0.272858 0.272858 0.272858
0.315094 0.315125 0.315033
0.340363 0.340240 0.339996
0.366821 0.365814 0.364594
0.395203 0.392029 0.388550
0.425232 0.418793 0.411774
0.456390 0.445740 0.434296
0.226685 0.226685 0.226685
0.268372 0.268372 0.268372
0.310577 0.310577 0.310516
0.353394 0.352966 0.352386
0.332306 0.332306 0.332153
0.358246 0.357666 0.356903
0.386017 0.383667 0.381042
0.415588 0.410248 0.404510
0.446411 0.437195 0.427246
0.263947 0.263947 0.263947
0.306061 0.306091 0.306030
0.348541 0.348358 0.347992
0.395203 0.392029 0.388550
0.371826 0.370514 0.369019
0.349823 0.349518 0.349091
0.376984 0.375305 0.373444
0.406006 0.401794 0.397125
0.436523 0.428619 0.420074
0.301697 0.301697 0.301666
0.343933 0.343872 0.343658
0.389893 0.387268 0.384338
0.440704 0.432251 0.423096
0.415558 0.410248 0.404449
0.391235 0.388458 0.385345
0.368134 0.367035 0.365784
0.396606 0.393311 0.389679
0.426697 0.420044 0.412842
0.339508 0.339539 0.339417
0.384735 0.382629 0.380219
0.435181 0.427460 0.419159
0.488251 0.472748 0.456146
0.462158 0.450684 0.438324
0.436493 0.428589 0.420044
0.411469 0.406586 0.401306
0.387329 0.384888 0.382141
0.416962 0.411499 0.405548
0.379883 0.378204 0.376282
0.429626 0.422699 0.415161
0.482605 0.468048 0.452393
0.536224 0.512817 0.487701
0.510101 0.491058 0.470673
0.483917 0.469116 0.453217
0.457886 0.447021 0.435333
0.432281 0.424927 0.416992
0.407349 0.403015 0.398163
0.116028 0.116028 0.116028
0.155457 0.155457 0.155457
0.195587 0.195587 0.195587
0.236572 0.236572 0.236572
0.278564 0.278564 0.278564
0.303711 0.303711 0.303650
0.328827 0.328827 0.328735
0.354309 0.354034 0.353607
0.381836 0.379974 0.377869
0.151184 0.151184 0.151184
0.191223 0.191223 0.191223
0.232117 0.232117 0.232117
0.274017 0.274017 0.274017
0.316254 0.316284 0.316193
0.341492 0.341400 0.341187
0.367889 0.366943 0.365753
0.396393 0.393219 0.389679
0.426544 0.419922 0.412811
0.186859 0.186859 0.186859
0.227661 0.227661 0.227661
0.269440 0.269440 0.269440
0.311676 0.311676 0.311615
0.354523 0.354126 0.353516
0.382019 0.380035 0.377777
0.411377 0.406586 0.401306
0.442078 0.433472 0.424164
0.473694 0.460480 0.446289
0.223236 0.223236 0.223236
0.264893 0.264893 0.264893
0.307129 0.307129 0.307068
0.349762 0.349518 0.348999
0.396576 0.393250 0.389618
0.426666 0.420013 0.412781
0.457855 0.446991 0.435303
0.489685 0.473999 0.457123
0.521729 0.500763 0.478271
0.260406 0.260406 0.260406
0.302612 0.302612 0.302582
0.345032 0.344879 0.344574
0.391327 0.388458 0.385315
0.442200 0.433502 0.424103
0.473755 0.460480 0.446259
0.505707 0.487396 0.467743
0.537720 0.513977 0.488586
0.569336 0.540070 0.508789
0.298279 0.298279 0.298279
0.340393 0.340332 0.340149
0.385956 0.383667 0.381073
0.436523 0.428619 0.420044
0.489716 0.473969 0.457092
0.463715 0.451935 0.439331
0.495575 0.478882 0.461029
0.527618 0.505615 0.482056
0.559387 0.531891 0.502472
0.335968 0.335999 0.335876
0.380768 0.378967 0.376862
0.430878 0.423737 0.415985
0.483917 0.469116 0.453217
0.537720 0.513977 0.488586
0.511566 0.492279 0.471588
0.485413 0.470367 0.454193
0.517456 0.497162 0.475464
0.549316 0.523560 0.496033
0.375977 0.374573 0.372955
0.425415 0.418976 0.411987
0.478180 0.464294 0.449371
0.532013 0.509247 0.484924
0.584900 0.552917 0.518707
0.559357 0.531860 0.502441
0.533386 0.510406 0.485809
0.507233 0.488678 0.468750
0.539215 0.515228 0.489563
0.420441 0.414673 0.408356
0.472565 0.459564 0.445587
0.526276 0.504547 0.481262
0.579407 0.548370 0.515198
0.630249 0.590302 0.547699
0.605835 0.570129 0.532013
0.580688 0.549438 0.516022
0.555054 0.528290 0.499695
0.529083 0.506836 0.483002
0.147980 0.147980 0.147980
0.187897 0.187897 0.187897
0.228760 0.228760 0.228760
0.270569 0.270569 0.270569
0.312805 0.312836 0.312744
0.355621 0.355194 0.354675
0.383209 0.381195 0.378906
0.412659 0.407776 0.402405
0.443512 0.434692 0.425232
0.183594 0.183594 0.183594
0.224335 0.224335 0.224335
0.265991 0.265991 0.265991
0.308258 0.308258 0.308197
0.350891 0.350616 0.350189
0.397827 0.394440 0.390717
0.427979 0.421204 0.413879
0.459229 0.448181 0.436340
0.491058 0.475189 0.458130
0.219849 0.219849 0.219849
0.261475 0.261475 0.261475
0.303680 0.303680 0.303650
0.346130 0.345978 0.345673
0.392517 0.389618 0.386383
0.443542 0.434692 0.425171
0.475159 0.461731 0.447266
0.507172 0.488617 0.468750
0.539154 0.515198 0.489532
0.256989 0.256989 0.256989
0.299133 0.299133 0.299103
0.341461 0.341431 0.341217
0.387299 0.384827 0.382080
0.437897 0.429810 0.421051
0.491119 0.475189 0.458069
0.523193 0.501953 0.479218
0.555023 0.528290 0.499695
0.586334 0.554077 0.519592
0.294678 0.294678 0.294647
0.336853 0.336884 0.336731
0.382050 0.380066 0.377808
0.432281 0.424927 0.416962
0.485352 0.470306 0.454163
0.539154 0.515167 0.489502
0.570770 0.541229 0.509705
0.601624 0.566681 0.529358
0.631531 0.591370 0.548492
0.332520 0.332550 0.332428
0.376892 0.375305 0.373505
0.426666 0.420044 0.412842
0.479553 0.465454 0.450256
0.533356 0.510376 0.485779
0.586243 0.554016 0.519562
0.616669 0.579102 0.539001
0.645966 0.603394 0.557953
0.673981 0.626862 0.576599
0.371918 0.370758 0.369385
0.421173 0.415253 0.408813
0.473785 0.460571 0.446350
0.527588 0.505615 0.482056
0.580688 0.549438 0.516022
0.631439 0.591370 0.548523
0.607147 0.571228 0.532898
0.636841 0.595795 0.551971
0.665253 0.619537 0.570740
0.416077 0.410828 0.405060
0.468140 0.455811 0.442535
0.521881 0.500854 0.478363
0.575104 0.544830 0.512482
0.626221 0.586975 0.545074
0.673981 0.626892 0.576599
0.651184 0.607758 0.561371
0.627563 0.588074 0.545959
0.656372 0.612091 0.564789
0.463165 0.451569 0.439117
0.516327 0.496246 0.474792
0.569550 0.540253 0.508942
0.620941 0.582611 0.541656
0.669128 0.622742 0.573273
0.713287 0.660645 0.604492
0.692261 0.642426 0.589264
0.670258 0.623749 0.574097
0.647339 0.604523 0.558838
0.180298 0.180298 0.180298
0.220978 0.220978 0.220978
0.262573 0.262573 0.262573
0.304840 0.304871 0.304810
0.347229 0.347107 0.346863
0.393738 0.390778 0.387543
0.444916 0.435974 0.426239
0.476593 0.462952 0.448364
0.508667 0.489868 0.469788
0.216522 0.216522 0.216522
0.258057 0.258057 0.258057
0.300262 0.300262 0.300232
0.342590 0.342499 0.342316
0.388458 0.385986 0.383209
0.439240 0.431000 0.422119
0.492584 0.476440 0.459076
0.524658 0.503174 0.480194
0.556488 0.529480 0.500641
0.253540 0.253540 0.253540
0.295715 0.295715 0.295654
0.337982 0.337952 0.337830
0.383301 0.381195 0.378876
0.433624 0.426117 0.417999
0.486755 0.471527 0.455170
0.540619 0.516388 0.490479
0.572205 0.542450 0.510651
0.603088 0.567871 0.530243
0.291199 0.291199 0.291168
0.333374 0.333405 0.333313
0.378113 0.376434 0.374542
0.428070 0.421234 0.413849
0.480988 0.466644 0.451233
0.534790 0.511566 0.486725
0.587708 0.555206 0.520477
0.618134 0.580261 0.539856
0.647369 0.604523 0.558807
0.328918 0.328979 0.328857
0.372986 0.371704 0.370209
0.422455 0.416351 0.409729
0.475189 0.461731 0.447296
0.528992 0.506775 0.482971
0.582062 0.550568 0.516907
0.632812 0.592468 0.549377
0.661469 0.616333 0.568176
0.688660 0.639343 0.586731
0.368042 0.367126 0.365997
0.416931 0.411530 0.405640
0.469421 0.456848 0.443359
0.523224 0.501984 0.479218
0.576447 0.545929 0.513336
0.627502 0.588013 0.545898
0.675171 0.627930 0.577454
0.701691 0.650574 0.596008
0.726746 0.672546 0.614716
0.411743 0.406952 0.401672
0.463776 0.452087 0.439484
0.517456 0.497192 0.475494
0.570801 0.541260 0.509735
0.622162 0.583618 0.542480
0.670227 0.623718 0.574097
0.714325 0.661621 0.605377
0.738770 0.683411 0.624329
0.761963 0.704895 0.644012
0.458374 0.447479 0.435760
0.511902 0.492584 0.471863
0.565216 0.536682 0.506195
0.616821 0.579193 0.539032
0.665314 0.619537 0.570740
0.709839 0.657623 0.601929
0.750488 0.694183 0.634094
0.731201 0.676544 0.618286
0.754761 0.698120 0.637695
0.506592 0.488190 0.468445
0.559784 0.532227 0.502747
0.611481 0.574799 0.535614
0.660339 0.615387 0.567383
0.705292 0.653656 0.598572
0.746338 0.690308 0.630463
0.784241 0.726562 0.665131
0.766083 0.708832 0.647797
0.747406 0.691284 0.631409
0.213165 0.213165 0.213165
0.254639 0.254639 0.254639
0.296844 0.296844 0.296814
0.339050 0.339081 0.338959
0.384460 0.382385 0.380005
0.434998 0.427338 0.419098
0.488220 0.472809 0.456207
0.542114 0.517639 0.491455
0.573700 0.543671 0.511566
0.250153 0.250153 0.250153
0.292267 0.292267 0.292236
0.334473 0.334534 0.334412
0.379333 0.377594 0.375641
0.429382 0.422424 0.414948
0.482391 0.467834 0.452240
0.536255 0.512817 0.487701
0.589142 0.556427 0.521423
0.619507 0.581390 0.540741
0.287689 0.287689 0.287659
0.329956 0.330017 0.329895
0.374237 0.372864 0.371277
0.423798 0.417542 0.410767
0.476624 0.462952 0.448303
0.530457 0.507996 0.483948
0.583527 0.551758 0.517822
0.634247 0.593628 0.550232
0.662842 0.617432 0.569000
0.325439 0.325470 0.325378
0.369141 0.368103 0.366913
0.418274 0.412689 0.406586
0.470795 0.458069 0.444305
0.524658 0.503174 0.480164
0.577881 0.547089 0.514221
0.628876 0.589172 0.546783
0.676514 0.628998 0.578308
0.702911 0.651611 0.596863
0.364197 0.363525 0.362640
0.412781 0.407837 0.402466
0.465057 0.453156 0.440369
0.518860 0.498352 0.476379
0.572205 0.542450 0.510620
0.623474 0.584717 0.543335
0.671509 0.624786 0.574921
0.715546 0.662628 0.606171
0.739899 0.684357 0.625122
0.407318 0.403046 0.398315
0.459351 0.448334 0.436432
0.513062 0.493561 0.472626
0.566528 0.537750 0.507019
0.618103 0.580261 0.539886
0.666473 0.620575 0.571564
0.710968 0.658630 0.602783
0.751587 0.695129 0.634918
0.774170 0.716644 0.655273
0.454071 0.443817 0.432770
0.507385 0.488800 0.468933
0.560852 0.533112 0.503448
0.612701 0.575806 0.536407
0.661499 0.616364 0.568176
0.706329 0.654602 0.599396
0.747345 0.691254 0.631378
0.785217 0.727631 0.666229
0.807190 0.750519 0.690002
0.501831 0.484192 0.465302
0.555328 0.528503 0.499908
0.607300 0.571381 0.532990
0.656494 0.612122 0.564819
0.701752 0.650604 0.596008
0.743134 0.687317 0.627808
0.781250 0.723633 0.662231
0.818665 0.763153 0.703949
0.842560 0.790955 0.735809
0.550171 0.524261 0.496613
0.602142 0.567108 0.529663
0.651489 0.607941 0.561493
0.697144 0.646606 0.592682
0.738892 0.683441 0.624268
0.777252 0.719635 0.658173
0.814392 0.758331 0.698517
0.855377 0.806580 0.754486
0.834839 0.781677 0.725006
0.246674 0.246674 0.246674
0.288818 0.288818 0.288818
0.331085 0.331116 0.331024
0.375336 0.373993 0.372406
0.425110 0.418732 0.411835
0.478027 0.464172 0.449310
0.531921 0.509186 0.484924
0.584991 0.552979 0.518768
0.635681 0.594757 0.551147
0.284241 0.284241 0.284241
0.326477 0.326538 0.326416
0.370270 0.369202 0.367981
0.419556 0.413849 0.407623
0.472198 0.459259 0.445343
0.526062 0.504364 0.481110
0.579315 0.548279 0.515167
0.630249 0.590271 0.547638
0.677795 0.630066 0.579132
0.321960 0.321991 0.321899
0.365234 0.364441 0.363495
0.414062 0.408966 0.403473
0.466431 0.454346 0.441345
0.520233 0.499542 0.477325
0.573608 0.543610 0.511536
0.624908 0.585876 0.544220
0.672821 0.625885 0.575775
0.716705 0.663605 0.606964
0.360321 0.359863 0.359222
0.408539 0.404083 0.399231
0.460693 0.449432 0.437317
0.514404 0.494690 0.473511
0.567932 0.538910 0.507904
0.619476 0.581390 0.540710
0.667816 0.621643 0.572388
0.712158 0.659637 0.603577
0.752686 0.696075 0.635712
0.403290 0.399414 0.395203
0.454987 0.444550 0.433350
0.508606 0.489838 0.469727
0.562225 0.534210 0.504272
0.614014 0.576904 0.537231
0.662750 0.617401 0.569000
0.707520 0.655579 0.600220
0.748413 0.692169 0.632172
0.786163 0.728485 0.666931
0.449310 0.439728 0.429413
0.502869 0.485077 0.465973
0.556549 0.529541 0.500702
0.608551 0.572388 0.533752
0.657654 0.613129 0.565613
0.702850 0.651550 0.596802
0.744202 0.688263 0.628632
0.782196 0.724548 0.663025
0.819519 0.763977 0.704712
0.497345 0.480438 0.462311
0.550934 0.524902 0.497131
0.603149 0.567902 0.530304
0.652588 0.608887 0.562256
0.698212 0.647522 0.593445
0.739899 0.684357 0.625153
0.778198 0.720612 0.659180
0.815399 0.759430 0.699738
0.856415 0.807861 0.755981
0.545654 0.520508 0.493683
0.597839 0.563507 0.526917
0.647522 0.604645 0.558899
0.693542 0.643494 0.590118
0.735626 0.680450 0.621643
0.774200 0.716644 0.655243
0.811249 0.754913 0.694763
0.851837 0.802155 0.749146
0.900024 0.863098 0.823547
0.593018 0.559540 0.523834
0.642487 0.600494 0.555603
0.688873 0.639496 0.586823
0.731293 0.676544 0.618195
0.770203 0.712738 0.651428
0.807159 0.750397 0.689819
0.847076 0.796326 0.742157
0.894318 0.855804 0.814636
0.954559 0.930695 0.905060
