content/luts/b&w/black_and_white_08.cube
#Created by: inPixio
#Copyright: (C) Copyright 2022 inPixio
TITLE "Black & White 08"
#LUT size
LUT_3D_SIZE 5
#LUT data points
0.000000 0.000000 0.000000
0.036407 0.036407 0.036407
0.082306 0.082306 0.082306
0.128784 0.128784 0.128784
0.175903 0.175903 0.175903
0.059204 0.059204 0.059204
0.024048 0.024048 0.024048
0.067719 0.067719 0.067719
0.113953 0.113953 0.113953
0.160828 0.160828 0.160828
0.128723 0.128723 0.128723
0.090729 0.090729 0.090729
0.053009 0.053009 0.053009
0.099182 0.099182 0.099182
0.145874 0.145874 0.145874
0.199890 0.199890 0.199890
0.160889 0.160889 0.160889
0.122437 0.122437 0.122437
0.084412 0.084412 0.084412
0.131104 0.131104 0.131104
0.273773 0.273773 0.273773
0.233429 0.233429 0.233429
0.193542 0.193542 0.193542
0.154633 0.154633 0.154633
0.116394 0.116394 0.116394
0.053009 0.053009 0.053009
0.130890 0.130890 0.130890
0.178131 0.178131 0.178131
0.226501 0.226501 0.226501
0.276276 0.276276 0.276276
0.122467 0.122467 0.122467
0.202179 0.202179 0.202179
0.251282 0.251282 0.251282
0.301392 0.301392 0.301331
0.351440 0.351501 0.351410
0.193481 0.193481 0.193481
0.276245 0.276245 0.276245
0.235565 0.235565 0.235565
0.285461 0.285461 0.285431
0.335632 0.335663 0.335571
0.267426 0.267426 0.267426
0.351440 0.351532 0.351440
0.310547 0.310577 0.310516
0.269501 0.269501 0.269501
0.319733 0.319763 0.319672
0.343231 0.343262 0.343170
0.426147 0.426239 0.426147
0.385406 0.385498 0.385406
0.344696 0.344757 0.344666
0.303772 0.303772 0.303741
0.116028 0.116028 0.116028
0.195587 0.195587 0.195587
0.278564 0.278564 0.278564
0.328796 0.328857 0.328735
0.378632 0.378723 0.378632
0.186859 0.186859 0.186859
0.269440 0.269440 0.269440
0.353729 0.353790 0.353699
0.403534 0.403595 0.403534
0.453491 0.453552 0.453491
0.260406 0.260406 0.260406
0.344666 0.344757 0.344635
0.428497 0.428558 0.428497
0.478668 0.478760 0.478668
0.529480 0.529541 0.529449
0.335938 0.335999 0.335876
0.419464 0.419525 0.419464
0.504028 0.504089 0.503998
0.462708 0.462769 0.462708
0.513275 0.513336 0.513245
0.411072 0.411133 0.411072
0.494873 0.494934 0.494873
0.581177 0.581268 0.581177
0.538818 0.538910 0.538818
0.497131 0.497192 0.497101
0.180298 0.180298 0.180298
0.262573 0.262573 0.262573
0.346954 0.347015 0.346893
0.430695 0.430786 0.430695
0.480957 0.481018 0.480957
0.253540 0.253540 0.253540
0.337891 0.337952 0.337830
0.421661 0.421722 0.421661
0.506287 0.506348 0.506256
0.557556 0.557617 0.557526
0.328918 0.328979 0.328857
0.412628 0.412689 0.412628
0.497070 0.497131 0.497070
0.583557 0.583649 0.583527
0.636353 0.636444 0.636353
0.403870 0.403961 0.403870
0.487915 0.487976 0.487915
0.574127 0.574188 0.574097
0.663422 0.663544 0.663391
0.719666 0.719788 0.719666
0.479340 0.479401 0.479340
0.564728 0.564819 0.564697
0.653534 0.653625 0.653503
0.749573 0.749695 0.749573
0.701447 0.701538 0.701416
0.246674 0.246674 0.246674
0.331085 0.331116 0.331024
0.414825 0.414917 0.414825
0.499329 0.499390 0.499329
0.585846 0.585968 0.585846
0.321960 0.321991 0.321899
0.405762 0.405853 0.405762
0.490112 0.490173 0.490112
0.576385 0.576477 0.576355
0.665741 0.665833 0.665710
0.396912 0.397003 0.396912
0.480957 0.481018 0.480957
0.566986 0.567078 0.566956
0.655914 0.656006 0.655884
0.752136 0.752258 0.752136
0.472076 0.472137 0.472076
0.557587 0.557678 0.557556
0.646088 0.646179 0.646057
0.741211 0.741333 0.741211
0.862427 0.862549 0.862396
0.548950 0.549042 0.548920
0.636444 0.636536 0.636414
0.730316 0.730408 0.730286
0.847168 0.847290 0.847137
0.999878 1.000000 0.999847
