content/luts/b&w/black_and_white_02.cube
#Created by: inPixio
#Copyright: (C) Copyright 2019 inPixio
TITLE "B&W 2"
#LUT size
LUT_3D_SIZE 8
#data domain
#LUT data points
DOMAIN_MIN 0.000000 0.000000 0.000000
DOMAIN_MAX 0.903226 0.903226 0.903226
0.000000 0.000000 0.000000
0.028733 0.021897 0.037522
0.073548 0.066331 0.079667
0.132342 0.118853 0.132723
0.252873 0.225452 0.231708
0.425284 0.387060 0.377585
0.609995 0.585672 0.568322
0.751247 0.755764 0.751080
0.039490 0.031281 0.049348
0.061067 0.053269 0.068421
0.080400 0.072648 0.086061
0.140230 0.126162 0.139284
0.260929 0.232578 0.238270
0.430915 0.392874 0.382925
0.612345 0.588632 0.571557
0.753292 0.758175 0.753887
0.095796 0.086503 0.100786
0.105486 0.095216 0.109361
0.179538 0.160571 0.171588
0.209140 0.186923 0.196063
0.295293 0.263676 0.266545
0.457206 0.419593 0.407416
0.629145 0.608469 0.592142
0.759442 0.765438 0.762234
0.209049 0.186709 0.195911
0.220523 0.196872 0.205234
0.273732 0.244251 0.248890
0.425681 0.387915 0.378515
0.495018 0.459434 0.444938
0.516854 0.481804 0.465614
0.655314 0.639307 0.624140
0.773587 0.782498 0.781598
0.401343 0.363546 0.356374
0.408194 0.370245 0.362448
0.445197 0.407187 0.395956
0.532769 0.499275 0.482582
0.651484 0.634714 0.619226
0.716320 0.713329 0.703853
0.729686 0.729595 0.721798
0.790906 0.802350 0.804700
0.591714 0.564813 0.547295
0.598810 0.572900 0.555520
0.619410 0.596735 0.579751
0.656764 0.641062 0.625925
0.721752 0.719936 0.711162
0.786557 0.797345 0.798917
0.840589 0.856260 0.867460
0.861738 0.877333 0.890868
0.740536 0.742748 0.736523
0.743206 0.745998 0.740154
0.753491 0.758434 0.754223
0.772046 0.780575 0.779431
0.799527 0.812238 0.816236
0.841718 0.857435 0.868788
0.880415 0.895430 0.910277
0.921340 0.932769 0.946349
0.845624 0.861296 0.873091
0.846769 0.862440 0.874327
0.852216 0.867948 0.880568
0.862470 0.878157 0.891814
0.876692 0.891905 0.906615
0.898802 0.912474 0.927520
0.925139 0.936080 0.949310
0.948882 0.956802 0.966857
0.022873 0.017197 0.030488
0.035111 0.026581 0.044724
0.085389 0.077348 0.091356
0.160708 0.144396 0.156451
0.285237 0.254459 0.258213
0.450950 0.412833 0.401022
0.620661 0.598154 0.581216
0.756344 0.761868 0.758022
0.041962 0.033082 0.051972
0.067033 0.060487 0.073045
0.098344 0.088624 0.102937
0.169268 0.151965 0.163378
0.292912 0.261646 0.264653
0.455146 0.417380 0.405295
0.623499 0.601801 0.585245
0.757687 0.763470 0.759945
0.101381 0.091463 0.105669
0.118334 0.106432 0.120394
0.179370 0.160510 0.171588
0.221088 0.197513 0.205860
0.321798 0.288106 0.288624
0.479851 0.443061 0.429313
0.638239 0.619272 0.603433
0.764477 0.771389 0.769070
0.221469 0.197711 0.206058
0.236362 0.210910 0.218204
0.285725 0.255131 0.258778
0.429816 0.392233 0.382605
0.490776 0.455039 0.440894
0.527810 0.493889 0.477424
0.663386 0.649012 0.634470
0.777203 0.786679 0.786450
0.413031 0.374960 0.366644
0.418647 0.380606 0.371710
0.454414 0.416678 0.404700
0.535302 0.502068 0.485298
0.651637 0.634852 0.619333
0.713787 0.710216 0.700496
0.729046 0.728847 0.720974
0.794125 0.806027 0.808972
0.597742 0.571725 0.554284
0.604120 0.579095 0.561791
0.622797 0.600687 0.583825
0.658473 0.643076 0.628092
0.722850 0.721309 0.712673
0.787594 0.798550 0.800320
0.840192 0.855863 0.866987
0.861051 0.876661 0.890135
0.741878 0.744411 0.738445
0.745098 0.748333 0.742794
0.755139 0.760342 0.756405
0.773556 0.782330 0.781491
0.800458 0.813275 0.817441
0.841718 0.857389 0.868650
0.880339 0.895338 0.910155
0.921004 0.932433 0.946075
0.845792 0.861448 0.873243
0.846845 0.862516 0.874403
0.852613 0.868391 0.881087
0.863096 0.878737 0.892485
0.877272 0.892393 0.907134
0.899001 0.912673 0.927733
0.925292 0.936233 0.949462
0.948913 0.956832 0.966857
0.063523 0.055528 0.070161
0.068986 0.061799 0.075029
0.085725 0.077470 0.091234
0.166613 0.149477 0.161273
0.335683 0.301045 0.300313
0.516182 0.481117 0.464942
0.658991 0.643854 0.628992
0.773770 0.782437 0.781689
0.082170 0.074662 0.088075
0.090364 0.081590 0.095598
0.108629 0.097826 0.112230
0.200443 0.179263 0.188922
0.362554 0.326543 0.323247
0.520699 0.486122 0.469902
0.660731 0.645914 0.631312
0.775113 0.783932 0.783459
0.101869 0.091890 0.106249
0.120317 0.108171 0.122194
0.191440 0.171237 0.181598
0.271168 0.241871 0.246723
0.397818 0.360143 0.353338
0.538705 0.505653 0.488777
0.671809 0.659251 0.645441
0.781277 0.791165 0.791775
0.216785 0.193500 0.202243
0.243671 0.217411 0.224231
0.317433 0.284352 0.285176
0.439338 0.401633 0.391089
0.488808 0.452842 0.438727
0.571237 0.541695 0.524239
0.691280 0.682872 0.670665
0.792264 0.803937 0.806546
0.413916 0.375921 0.367559
0.436240 0.398322 0.387976
0.487526 0.450950 0.436606
0.553613 0.522072 0.504707
0.658259 0.642908 0.627939
0.709056 0.704463 0.694194
0.731838 0.732204 0.724651
0.806989 0.820539 0.825956
0.614649 0.591287 0.574197
0.620844 0.598505 0.581643
0.641352 0.622583 0.606546
0.672801 0.660349 0.646357
0.728237 0.727916 0.719890
0.791318 0.802976 0.805417
0.838590 0.854124 0.864973
0.859556 0.875273 0.888640
0.749920 0.754192 0.749371
0.752834 0.757702 0.753323
0.762707 0.769467 0.766766
0.780133 0.790082 0.790417
0.804517 0.817853 0.822797
0.843259 0.858885 0.870314
0.881346 0.896269 0.911101
0.920836 0.932281 0.945953
0.848875 0.864576 0.876753
0.849867 0.865583 0.877882
0.855482 0.871275 0.884306
0.865736 0.881315 0.895369
0.879500 0.894545 0.909316
0.899443 0.913069 0.928084
0.925841 0.936706 0.949859
0.949706 0.957458 0.967376
0.105486 0.095003 0.109453
0.112581 0.101564 0.115877
0.137667 0.123812 0.137301
0.172168 0.154315 0.165698
0.299245 0.267384 0.269932
0.507515 0.471931 0.456321
0.681071 0.670481 0.657389
0.797025 0.809232 0.812757
0.137530 0.123568 0.136996
0.143832 0.129030 0.142153
0.165026 0.148196 0.160006
0.200107 0.178988 0.188602
0.331045 0.296696 0.296376
0.529870 0.495934 0.479255
0.691859 0.683497 0.671367
0.798627 0.811063 0.814893
0.171359 0.153735 0.165087
0.192218 0.171939 0.182208
0.251286 0.224109 0.230350
0.295018 0.263523 0.266346
0.440345 0.402884 0.392340
0.597635 0.571618 0.554254
0.716930 0.714077 0.704463
0.804059 0.817227 0.822126
0.215381 0.192264 0.201068
0.236606 0.211109 0.218341
0.322087 0.288594 0.289052
0.457069 0.418891 0.406455
0.536095 0.502617 0.485649
0.635370 0.615641 0.599405
0.729656 0.729564 0.721828
0.812467 0.826352 0.832715
0.394171 0.356664 0.350271
0.415793 0.377859 0.369329
0.494209 0.457923 0.443015
0.578302 0.549889 0.532570
0.667048 0.653437 0.639185
0.700084 0.693614 0.682414
0.749828 0.754040 0.749203
0.825437 0.840482 0.849226
0.596155 0.569863 0.552361
0.606745 0.581979 0.564630
0.652476 0.635905 0.620508
0.693904 0.686030 0.674037
0.736339 0.737728 0.730816
0.795468 0.807630 0.810880
0.834684 0.850080 0.860304
0.856306 0.872160 0.885374
0.747051 0.750729 0.745495
0.752834 0.757580 0.753323
0.771084 0.779431 0.778088
0.790326 0.801877 0.804135
0.810971 0.824979 0.831159
0.846037 0.861784 0.873701
0.883604 0.898390 0.913314
0.920226 0.931746 0.945419
0.848783 0.864469 0.876661
0.851926 0.867674 0.880278
0.859602 0.875303 0.888731
0.869734 0.885161 0.899458
0.883055 0.897856 0.912810
0.900511 0.914031 0.928985
0.926436 0.937224 0.950225
0.950576 0.958206 0.967987
0.190921 0.170886 0.181170
0.199664 0.178454 0.188251
0.228565 0.203815 0.211749
0.271824 0.242420 0.247227
0.322118 0.288396 0.288930
0.466636 0.428748 0.415580
0.658763 0.643488 0.628550
0.787762 0.798810 0.800610
0.229114 0.204349 0.212253
0.235462 0.209934 0.217411
0.260807 0.232441 0.238163
0.300526 0.268345 0.270878
0.347555 0.312139 0.310277
0.488685 0.452003 0.437476
0.670527 0.657572 0.643366
0.794080 0.806104 0.809094
0.304830 0.272236 0.274449
0.317922 0.284489 0.285466
0.355444 0.319783 0.317174
0.390845 0.353491 0.347433
0.436530 0.398581 0.388144
0.567346 0.537453 0.520058
0.709148 0.704585 0.694301
0.811856 0.825818 0.832090
0.333608 0.299245 0.298650
0.352056 0.316564 0.314214
0.427909 0.389929 0.380301
0.517144 0.482139 0.466011
0.561776 0.531060 0.513634
0.665476 0.651606 0.637263
0.761105 0.767666 0.764614
0.835279 0.850767 0.861112
0.391455 0.354009 0.347952
0.414389 0.376715 0.368353
0.481468 0.444801 0.431006
0.584085 0.556252 0.538766
0.676020 0.664149 0.650217
0.721233 0.719371 0.710338
0.783673 0.794095 0.795117
0.845441 0.861173 0.872953
0.576974 0.547921 0.530175
0.589944 0.562738 0.545098
0.631159 0.610758 0.594308
0.698116 0.691173 0.679606
0.746914 0.750469 0.745190
0.800946 0.813718 0.817990
0.826291 0.841215 0.850019
0.859846 0.875578 0.889082
0.731701 0.732052 0.724575
0.736980 0.738537 0.731701
0.759014 0.765011 0.761715
0.793103 0.804913 0.807736
0.820050 0.834745 0.842542
0.848447 0.864332 0.876600
0.887373 0.901930 0.916991
0.917983 0.929748 0.943587
0.842130 0.857771 0.869078
0.844831 0.860487 0.872114
0.853712 0.869413 0.882124
0.871946 0.887236 0.901518
0.886854 0.901488 0.916610
0.902556 0.915923 0.930800
0.927077 0.937774 0.950744
0.951980 0.959396 0.968933
0.336080 0.301320 0.300588
0.343877 0.308751 0.307210
0.371527 0.334936 0.330724
0.415992 0.378012 0.369528
0.457984 0.420066 0.407660
0.510201 0.474754 0.458961
0.639262 0.620295 0.604242
0.771084 0.779263 0.777997
0.370733 0.334127 0.330022
0.376227 0.339406 0.334798
0.399985 0.362493 0.355535
0.439780 0.401648 0.390890
0.478584 0.441321 0.427390
0.528725 0.494591 0.477897
0.650004 0.633143 0.617762
0.777524 0.786801 0.786725
0.461723 0.423880 0.411215
0.468040 0.430396 0.417243
0.484794 0.447837 0.433463
0.515435 0.480064 0.463752
0.547692 0.515206 0.497795
0.586313 0.558694 0.541131
0.687343 0.678004 0.665293
0.796979 0.809049 0.812543
0.498314 0.461906 0.446616
0.509697 0.474037 0.458030
0.568277 0.538293 0.520729
0.609796 0.585763 0.568658
0.633936 0.613886 0.597543
0.662791 0.648356 0.633707
0.741878 0.744472 0.738338
0.827588 0.842863 0.852003
0.531258 0.497688 0.481086
0.542321 0.509819 0.492989
0.589395 0.562524 0.545235
0.656169 0.640406 0.625284
0.710460 0.706203 0.695903
0.736202 0.737575 0.730602
0.799573 0.812161 0.816129
0.862348 0.878004 0.891783
0.580636 0.552148 0.534463
0.594583 0.568200 0.550805
0.631052 0.610529 0.594095
0.688655 0.679637 0.667109
0.749874 0.754192 0.749294
0.805997 0.819669 0.824918
0.836423 0.852064 0.862684
0.880873 0.895827 0.910643
0.715419 0.712245 0.702541
0.721233 0.719356 0.710414
0.742046 0.744701 0.738598
0.779080 0.788922 0.789044
0.820829 0.835508 0.843442
0.853742 0.869520 0.882353
0.891264 0.905531 0.920546
0.912032 0.924392 0.938628
0.830182 0.845228 0.854597
0.833310 0.848539 0.858503
0.843824 0.859449 0.870955
0.863233 0.878904 0.892744
0.887343 0.901915 0.916915
0.907225 0.920119 0.934783
0.927916 0.938552 0.951461
0.954925 0.961959 0.971038
0.535500 0.502358 0.485664
0.540185 0.507515 0.490700
0.557595 0.526635 0.509392
0.586236 0.558724 0.541329
0.621149 0.599008 0.582254
0.640696 0.621973 0.606043
0.676020 0.664271 0.650462
0.768490 0.776318 0.774609
0.554192 0.522927 0.505791
0.558480 0.527657 0.510445
0.572915 0.543877 0.526604
0.598947 0.573282 0.555993
0.630869 0.610422 0.594064
0.649363 0.632288 0.616861
0.683330 0.673167 0.660075
0.772488 0.781140 0.780087
0.611917 0.588464 0.571649
0.615335 0.592340 0.575540
0.626368 0.605005 0.588403
0.644419 0.626459 0.610834
0.668803 0.655543 0.641352
0.684566 0.674708 0.661875
0.712612 0.708782 0.698772
0.789242 0.800549 0.802609
0.655482 0.639582 0.624430
0.663264 0.648875 0.634211
0.686717 0.677165 0.664393
0.702892 0.696941 0.685802
0.720104 0.717983 0.708797
0.734371 0.735393 0.728100
0.754559 0.759838 0.755642
0.815320 0.829587 0.836530
0.670817 0.657939 0.643732
0.676265 0.664530 0.650752
0.700374 0.693889 0.682475
0.740688 0.743023 0.736782
0.768292 0.776150 0.774380
0.781216 0.791348 0.791913
0.797574 0.809995 0.813626
0.848539 0.864439 0.876738
0.693233 0.685206 0.673106
0.697887 0.690868 0.679377
0.721325 0.719463 0.710475
0.754223 0.759274 0.755169
0.792554 0.804303 0.806989
0.828183 0.843412 0.852674
0.845045 0.860853 0.872663
0.889937 0.904250 0.919341
0.726070 0.725200 0.716793
0.732265 0.732738 0.725231
0.748150 0.752056 0.746883
0.778286 0.787869 0.787900
0.814191 0.828367 0.835096
0.854810 0.870665 0.883757
0.894713 0.908751 0.923949
0.918349 0.930114 0.943969
0.816724 0.831022 0.838178
0.819043 0.833524 0.841077
0.829221 0.844419 0.853803
0.849638 0.865385 0.877714
0.876494 0.891829 0.906706
0.906554 0.919478 0.934112
0.931090 0.941314 0.953811
0.958160 0.964706 0.973205
0.710536 0.706310 0.696193
0.712886 0.709163 0.699275
0.720226 0.718105 0.709117
0.733486 0.734249 0.727047
0.750942 0.755322 0.750652
0.769863 0.777829 0.776364
0.775631 0.784604 0.784161
0.794461 0.806333 0.809384
0.719387 0.717067 0.708003
0.720882 0.718929 0.710048
0.726848 0.726162 0.718044
0.738994 0.740856 0.734508
0.754742 0.759854 0.755917
0.772808 0.781247 0.780346
0.778943 0.788418 0.788602
0.797421 0.809567 0.813153
0.744793 0.747906 0.742306
0.746029 0.749371 0.743984
0.750225 0.754360 0.749706
0.760617 0.766873 0.763867
0.773144 0.781689 0.780835
0.788876 0.799954 0.801968
0.794812 0.806760 0.809873
0.811795 0.825727 0.832013
0.775692 0.784680 0.784283
0.776928 0.786069 0.785901
0.781262 0.791089 0.791714
0.789792 0.801007 0.803174
0.800015 0.812619 0.816739
0.812436 0.826383 0.832776
0.818494 0.832898 0.840391
0.833082 0.848524 0.858549
0.778897 0.788525 0.788678
0.781369 0.791455 0.792050
0.795239 0.807096 0.810315
0.815992 0.830213 0.837263
0.828275 0.843473 0.852720
0.838071 0.853758 0.864591
0.846586 0.862440 0.874495
0.859449 0.875303 0.888899
0.791302 0.803082 0.805478
0.793683 0.805737 0.808637
0.804074 0.817441 0.822339
0.822141 0.837079 0.845304
0.847715 0.863539 0.875746
0.868513 0.884093 0.898405
0.879576 0.894637 0.909545
0.891386 0.905669 0.920653
0.809766 0.823484 0.829389
0.812284 0.826108 0.832425
0.821805 0.836500 0.844556
0.838270 0.853773 0.864561
0.860746 0.876494 0.890120
0.887434 0.901915 0.916823
0.912841 0.925155 0.939437
0.924651 0.935668 0.948913
0.833631 0.849180 0.859297
0.836072 0.851667 0.862150
0.842420 0.858122 0.869520
0.857206 0.872984 0.886244
0.878279 0.893355 0.908171
0.903578 0.916823 0.931594
0.932113 0.942245 0.954696
0.960647 0.966842 0.974945
