content/luts/b&w/black_and_white_04.cube
#Created by: inPixio
#Copyright: (C) Copyright 2019 inPixio
TITLE "B&W 4"
#LUT size
LUT_3D_SIZE 32
#data domain
DOMAIN_MIN 0.0 0.0 0.0
DOMAIN_MAX 1.0 1.0 1.0
#LUT data points
0.022278 0.022278 0.022278
0.029328 0.029328 0.029328
0.036118 0.036118 0.036118
0.042145 0.042145 0.042145
0.044724 0.044724 0.044724
0.047791 0.047791 0.047791
0.051804 0.051804 0.051804
0.060197 0.060197 0.060197
0.061646 0.061646 0.061646
0.070420 0.070420 0.070420
0.078447 0.078447 0.078447
0.081361 0.081361 0.081361
0.094469 0.094469 0.094469
0.095995 0.095995 0.095995
0.102831 0.102831 0.102831
0.116396 0.116396 0.116396
0.112673 0.112673 0.112673
0.126940 0.126940 0.126940
0.132036 0.132036 0.132036
0.133318 0.133318 0.133318
0.155810 0.155810 0.155810
0.151186 0.151186 0.151186
0.164385 0.164385 0.164385
0.177676 0.177676 0.177676
0.170657 0.170657 0.170657
0.200046 0.200046 0.200000
0.200824 0.200824 0.200778
0.209094 0.209094 0.209049
0.237324 0.237369 0.237369
0.222614 0.222644 0.222690
0.250828 0.250858 0.250858
0.257816 0.257847 0.257847
0.045274 0.045274 0.045274
0.049165 0.049165 0.049165
0.052461 0.052461 0.052461
0.056458 0.056458 0.056458
0.060060 0.060060 0.060060
0.064378 0.064378 0.064378
0.068009 0.068009 0.068009
0.071336 0.071336 0.071336
0.077592 0.077592 0.077592
0.082994 0.082994 0.082994
0.088960 0.088960 0.088960
0.095308 0.095308 0.095308
0.102739 0.102739 0.102739
0.107439 0.107439 0.107439
0.114641 0.114641 0.114641
0.123491 0.123491 0.123491
0.124392 0.124392 0.124392
0.134737 0.134737 0.134737
0.138811 0.138811 0.138811
0.144808 0.144808 0.144808
0.163806 0.163806 0.163806
0.160128 0.160128 0.160128
0.172168 0.172168 0.172168
0.183932 0.183932 0.183932
0.182208 0.182208 0.182208
0.208713 0.208713 0.208667
0.207782 0.207828 0.207874
0.217899 0.217945 0.217990
0.244175 0.244221 0.244175
0.233097 0.233127 0.233127
0.260090 0.260060 0.260060
0.265278 0.265309 0.265309
0.062516 0.062516 0.062516
0.066194 0.066194 0.066194
0.070558 0.070558 0.070558
0.074037 0.074037 0.074037
0.076860 0.076860 0.076860
0.079667 0.079667 0.079667
0.083803 0.083803 0.083803
0.087510 0.087510 0.087510
0.092393 0.092393 0.092393
0.096483 0.096483 0.096483
0.102541 0.102541 0.102541
0.109453 0.109453 0.109453
0.114382 0.114382 0.114382
0.122103 0.122103 0.122103
0.128649 0.128649 0.128649
0.135103 0.135103 0.135103
0.137148 0.137148 0.137148
0.146777 0.146777 0.146777
0.151904 0.151904 0.151904
0.157656 0.157656 0.157656
0.172274 0.172274 0.172274
0.171756 0.171756 0.171756
0.183505 0.183505 0.183505
0.192676 0.192676 0.192630
0.195316 0.195361 0.195407
0.218433 0.218479 0.218433
0.219898 0.219944 0.219898
0.230701 0.230732 0.230701
0.252201 0.252247 0.252247
0.245975 0.246021 0.246021
0.270497 0.270527 0.270527
0.273610 0.273671 0.273640
0.076860 0.076860 0.076860
0.080522 0.080522 0.080522
0.083803 0.083803 0.083803
0.087861 0.087861 0.087861
0.091463 0.091463 0.091463
0.094575 0.094575 0.094575
0.098344 0.098344 0.098344
0.102251 0.102251 0.102251
0.106157 0.106157 0.106157
0.111528 0.111528 0.111528
0.116884 0.116884 0.116884
0.123171 0.123171 0.123171
0.128801 0.128801 0.128801
0.136767 0.136767 0.136767
0.142229 0.142229 0.142229
0.147189 0.147189 0.147189
0.154711 0.154711 0.154711
0.159579 0.159579 0.159579
0.168154 0.168154 0.168154
0.175403 0.175403 0.175403
0.182742 0.182742 0.182742
0.187778 0.187778 0.187778
0.199817 0.199817 0.199756
0.210361 0.210361 0.210300
0.213794 0.213840 0.213794
0.234272 0.234302 0.234302
0.237644 0.237690 0.237690
0.248737 0.248783 0.248783
0.266819 0.266865 0.266865
0.265568 0.265522 0.265522
0.288563 0.288624 0.288594
0.291707 0.291768 0.291737
0.084611 0.084611 0.084611
0.088746 0.088746 0.088746
0.093614 0.093614 0.093614
0.097826 0.097826 0.097826
0.102449 0.102449 0.102449
0.106981 0.106981 0.106981
0.110903 0.110903 0.110903
0.115343 0.115343 0.115343
0.119905 0.119905 0.119905
0.124804 0.124804 0.124804
0.130617 0.130617 0.130617
0.136553 0.136553 0.136553
0.142443 0.142443 0.142443
0.148455 0.148455 0.148455
0.155093 0.155093 0.155093
0.161395 0.161395 0.161395
0.167620 0.167620 0.167620
0.174914 0.174914 0.174914
0.182696 0.182696 0.182696
0.189746 0.189746 0.189746
0.195605 0.195605 0.195544
0.205432 0.205432 0.205371
0.213275 0.213336 0.213275
0.225055 0.225101 0.225055
0.237720 0.237766 0.237766
0.246326 0.246372 0.246449
0.260777 0.260807 0.260807
0.272129 0.272206 0.272160
0.283253 0.283314 0.283284
0.291173 0.291127 0.291127
0.311055 0.311116 0.311086
0.316365 0.316335 0.316335
0.091234 0.091234 0.091234
0.094255 0.094255 0.094255
0.098924 0.098924 0.098924
0.105379 0.105379 0.105379
0.111345 0.111345 0.111345
0.117052 0.117052 0.117052
0.122683 0.122683 0.122683
0.127413 0.127413 0.127413
0.132494 0.132494 0.132494
0.137301 0.137301 0.137301
0.142718 0.142718 0.142718
0.148730 0.148730 0.148730
0.154971 0.154971 0.154971
0.161029 0.161029 0.161029
0.167849 0.167849 0.167849
0.174960 0.174960 0.174960
0.182315 0.182315 0.182315
0.188769 0.188769 0.188769
0.195956 0.195956 0.195911
0.203281 0.203281 0.203235
0.211292 0.211292 0.211246
0.219150 0.219196 0.219150
0.230015 0.230060 0.230060
0.241077 0.241108 0.241108
0.251515 0.251560 0.251591
0.261357 0.261387 0.261387
0.276341 0.276402 0.276371
0.287968 0.287938 0.287938
0.301289 0.301259 0.301259
0.320928 0.320882 0.320897
0.327947 0.327886 0.327916
0.336980 0.336996 0.336980
0.097612 0.097612 0.097612
0.101671 0.101671 0.101671
0.106066 0.106066 0.106066
0.111879 0.111879 0.111879
0.119097 0.119097 0.119097
0.126009 0.126009 0.126009
0.131899 0.131899 0.131899
0.137957 0.137957 0.137957
0.143206 0.143206 0.143206
0.148791 0.148791 0.148791
0.154055 0.154055 0.154055
0.160449 0.160449 0.160449
0.167208 0.167208 0.167208
0.174395 0.174395 0.174395
0.181338 0.181338 0.181338
0.188510 0.188510 0.188510
0.195804 0.195804 0.195758
0.203479 0.203479 0.203418
0.210910 0.210956 0.211002
0.219013 0.219059 0.219104
0.227207 0.227253 0.227253
0.236606 0.236637 0.236637
0.245579 0.245625 0.245625
0.255497 0.255528 0.255528
0.266896 0.266926 0.266926
0.278828 0.278798 0.278798
0.290654 0.290654 0.290684
0.306294 0.306264 0.306264
0.321019 0.320958 0.320989
0.335027 0.335058 0.335027
0.348440 0.348455 0.348455
0.356146 0.356176 0.356115
0.102449 0.102449 0.102449
0.105776 0.105776 0.105776
0.111696 0.111696 0.111696
0.119753 0.119753 0.119753
0.126940 0.126940 0.126940
0.133700 0.133700 0.133700
0.140826 0.140826 0.140826
0.146777 0.146777 0.146777
0.153018 0.153018 0.153018
0.158908 0.158908 0.158908
0.165576 0.165576 0.165576
0.172168 0.172168 0.172168
0.179858 0.179858 0.179858
0.187244 0.187244 0.187244
0.195071 0.195071 0.195010
0.202396 0.202396 0.202350
0.210361 0.210361 0.210300
0.217945 0.217990 0.218036
0.226780 0.226825 0.226780
0.235859 0.235905 0.235905
0.244846 0.244877 0.244877
0.253513 0.253559 0.253559
0.263523 0.263569 0.263569
0.273701 0.273777 0.273732
0.284291 0.284260 0.284260
0.295705 0.295674 0.295674
0.309697 0.309667 0.309667
0.323339 0.323308 0.323308
0.338415 0.338369 0.338384
0.353826 0.353857 0.353811
0.367392 0.367346 0.367392
0.373236 0.373190 0.373190
0.111254 0.111254 0.111254
0.115175 0.115175 0.115175
0.120470 0.120470 0.120470
0.127733 0.127733 0.127733
0.136690 0.136690 0.136690
0.144671 0.144671 0.144671
0.151324 0.151324 0.151324
0.157717 0.157717 0.157717
0.163623 0.163623 0.163623
0.169802 0.169802 0.169802
0.176593 0.176593 0.176593
0.183932 0.183932 0.183932
0.191074 0.191074 0.191074
0.199420 0.199420 0.199374
0.206912 0.206958 0.207004
0.215473 0.215518 0.215564
0.224491 0.224537 0.224537
0.234058 0.234089 0.234089
0.243427 0.243473 0.243473
0.253666 0.253712 0.253712
0.263233 0.263279 0.263279
0.273106 0.273182 0.273152
0.281926 0.282002 0.281972
0.292409 0.292470 0.292439
0.303731 0.303792 0.303761
0.315587 0.315557 0.315557
0.328084 0.328039 0.328054
0.344091 0.344045 0.344060
0.359304 0.359243 0.359274
0.373098 0.373053 0.373098
0.385596 0.385565 0.385550
0.394583 0.394583 0.394583
0.126391 0.126391 0.126391
0.129748 0.129748 0.129748
0.133547 0.133547 0.133547
0.139712 0.139712 0.139712
0.147601 0.147601 0.147601
0.155093 0.155093 0.155093
0.162463 0.162463 0.162463
0.167971 0.167971 0.167971
0.173419 0.173419 0.173419
0.179324 0.179324 0.179324
0.185672 0.185672 0.185672
0.193759 0.193759 0.193713
0.202640 0.202701 0.202747
0.211841 0.211841 0.211795
0.221683 0.221729 0.221775
0.230823 0.230869 0.230823
0.240833 0.240879 0.240879
0.250324 0.250355 0.250355
0.260411 0.260456 0.260411
0.269734 0.269764 0.269764
0.280613 0.280690 0.280659
0.290425 0.290517 0.290517
0.301656 0.301717 0.301686
0.312459 0.312520 0.312490
0.324880 0.324819 0.324849
0.337484 0.337423 0.337453
0.350958 0.350912 0.350927
0.364736 0.364675 0.364706
0.378988 0.378973 0.378943
0.393210 0.393210 0.393210
0.407187 0.407202 0.407187
0.417639 0.417639 0.417639
0.139925 0.139925 0.139925
0.142794 0.142794 0.142794
0.145968 0.145968 0.145968
0.152422 0.152422 0.152422
0.160830 0.160830 0.160830
0.167742 0.167742 0.167742
0.175189 0.175189 0.175189
0.181598 0.181598 0.181598
0.187305 0.187305 0.187305
0.193301 0.193301 0.193240
0.200443 0.200488 0.200534
0.208393 0.208393 0.208347
0.216968 0.217014 0.216968
0.225849 0.225895 0.225986
0.234928 0.234974 0.234928
0.244526 0.244572 0.244526
0.253636 0.253666 0.253666
0.263859 0.263890 0.263890
0.274174 0.274235 0.274235
0.286519 0.286580 0.286549
0.298650 0.298711 0.298680
0.311254 0.311254 0.311284
0.322438 0.322377 0.322408
0.334478 0.334508 0.334478
0.345708 0.345647 0.345678
0.358511 0.358450 0.358511
0.371115 0.371069 0.371069
0.385229 0.385229 0.385229
0.400717 0.400717 0.400717
0.418402 0.418448 0.418448
0.433585 0.433585 0.433585
0.445625 0.445579 0.445579
0.150927 0.150927 0.150927
0.154650 0.154650 0.154650
0.158908 0.158908 0.158908
0.165148 0.165148 0.165148
0.173083 0.173083 0.173083
0.182147 0.182147 0.182147
0.189181 0.189181 0.189181
0.195117 0.195117 0.195071
0.200931 0.200931 0.200885
0.206394 0.206394 0.206348
0.212604 0.212650 0.212604
0.220035 0.220081 0.220127
0.228443 0.228489 0.228489
0.237598 0.237644 0.237644
0.247379 0.247425 0.247425
0.258167 0.258213 0.258213
0.269703 0.269734 0.269734
0.281148 0.281224 0.281193
0.293751 0.293721 0.293721
0.305821 0.305882 0.305852
0.318380 0.318364 0.318364
0.329702 0.329702 0.329671
0.342107 0.342046 0.342077
0.353307 0.353262 0.353292
0.365728 0.365759 0.365713
0.378988 0.378973 0.378988
0.394080 0.394049 0.394034
0.409049 0.409049 0.409049
0.426551 0.426505 0.426505
0.443717 0.443748 0.443732
0.457237 0.457237 0.457237
0.465934 0.465950 0.465965
0.168917 0.168917 0.168917
0.170947 0.170947 0.170947
0.174273 0.174273 0.174273
0.179156 0.179156 0.179156
0.186099 0.186099 0.186099
0.194568 0.194568 0.194522
0.203082 0.203082 0.203037
0.210163 0.210163 0.210117
0.216022 0.216068 0.216114
0.222080 0.222126 0.222171
0.228565 0.228611 0.228611
0.236362 0.236393 0.236393
0.245197 0.245228 0.245197
0.255100 0.255131 0.255100
0.265385 0.265415 0.265385
0.275731 0.275807 0.275761
0.286473 0.286549 0.286519
0.297658 0.297719 0.297688
0.309041 0.309010 0.309010
0.321492 0.321462 0.321462
0.334340 0.334295 0.334310
0.347433 0.347387 0.347402
0.360403 0.360357 0.360388
0.374624 0.374594 0.374624
0.387930 0.387915 0.387884
0.402411 0.402411 0.402411
0.416922 0.416922 0.416922
0.432517 0.432517 0.432517
0.448234 0.448203 0.448203
0.464714 0.464698 0.464729
0.478248 0.478309 0.478279
0.488411 0.488396 0.488411
0.184756 0.184756 0.184756
0.187244 0.187244 0.187244
0.190097 0.190097 0.190097
0.194110 0.194110 0.194064
0.201419 0.201465 0.201511
0.209659 0.209659 0.209613
0.217136 0.217182 0.217136
0.225498 0.225544 0.225544
0.233372 0.233417 0.233417
0.238926 0.238956 0.238956
0.245350 0.245396 0.245472
0.252537 0.252567 0.252567
0.261097 0.261143 0.261097
0.270314 0.270359 0.270359
0.280659 0.280720 0.280690
0.291325 0.291386 0.291356
0.302388 0.302358 0.302358
0.313954 0.313924 0.313924
0.325872 0.325841 0.325841
0.339269 0.339300 0.339269
0.353628 0.353582 0.353613
0.367697 0.367651 0.367651
0.382330 0.382300 0.382330
0.395453 0.395453 0.395499
0.409522 0.409461 0.409476
0.423133 0.423133 0.423133
0.438621 0.438621 0.438621
0.454521 0.454521 0.454521
0.470756 0.470741 0.470756
0.487160 0.487221 0.487190
0.501900 0.501885 0.501885
0.511193 0.511147 0.511162
0.193957 0.193957 0.193912
0.197406 0.197406 0.197360
0.201312 0.201312 0.201267
0.206912 0.206912 0.206867
0.214160 0.214206 0.214252
0.223636 0.223682 0.223682
0.234089 0.234134 0.234134
0.241795 0.241825 0.241825
0.249943 0.249989 0.249989
0.257527 0.257557 0.257557
0.263493 0.263523 0.263523
0.270497 0.270527 0.270527
0.278355 0.278416 0.278386
0.287770 0.287846 0.287816
0.297994 0.298055 0.298024
0.309361 0.309331 0.309331
0.321202 0.321172 0.321172
0.333120 0.333059 0.333089
0.345464 0.345495 0.345464
0.358190 0.358129 0.358160
0.371923 0.371878 0.371878
0.386252 0.386236 0.386206
0.400916 0.400839 0.400870
0.415412 0.415457 0.415457
0.429908 0.429908 0.429908
0.444648 0.444617 0.444617
0.460136 0.460151 0.460182
0.476844 0.476860 0.476860
0.493263 0.493278 0.493278
0.510185 0.510170 0.510170
0.524315 0.524315 0.524331
0.532845 0.532784 0.532815
0.213474 0.213520 0.213565
0.214603 0.214649 0.214603
0.215930 0.215976 0.216022
0.220035 0.220081 0.220127
0.227039 0.227085 0.227176
0.235706 0.235737 0.235737
0.246052 0.246098 0.246174
0.258701 0.258747 0.258747
0.267323 0.267353 0.267353
0.275105 0.275166 0.275105
0.283711 0.283772 0.283711
0.290913 0.290868 0.290868
0.298802 0.298863 0.298833
0.307744 0.307713 0.307713
0.318135 0.318105 0.318105
0.328893 0.328832 0.328862
0.341024 0.341039 0.341024
0.353246 0.353185 0.353216
0.365377 0.365271 0.365332
0.377874 0.377859 0.377829
0.390723 0.390692 0.390677
0.404242 0.404242 0.404242
0.418784 0.418784 0.418784
0.434394 0.434440 0.434440
0.450843 0.450874 0.450858
0.466362 0.466362 0.466331
0.482445 0.482460 0.482460
0.499184 0.499168 0.499184
0.515877 0.515862 0.515862
0.532296 0.532280 0.532280
0.547128 0.547128 0.547112
0.554437 0.554452 0.554421
0.230091 0.230137 0.230137
0.231952 0.231998 0.232075
0.234348 0.234394 0.234394
0.237888 0.237919 0.237919
0.242542 0.242573 0.242573
0.250675 0.250706 0.250706
0.261326 0.261357 0.261357
0.273320 0.273396 0.273365
0.285771 0.285832 0.285802
0.296162 0.296132 0.296132
0.304036 0.304006 0.304006
0.311864 0.311925 0.311864
0.319524 0.319509 0.319509
0.327855 0.327855 0.327825
0.337194 0.337209 0.337194
0.347433 0.347463 0.347433
0.358389 0.358328 0.358358
0.370382 0.370337 0.370382
0.383322 0.383291 0.383291
0.396368 0.396368 0.396368
0.410285 0.410285 0.410285
0.424872 0.424872 0.424872
0.439887 0.439887 0.439902
0.455573 0.455589 0.455619
0.471901 0.471931 0.471946
0.488258 0.488273 0.488273
0.504616 0.504601 0.504585
0.520516 0.520501 0.520501
0.537026 0.536965 0.536996
0.552911 0.552926 0.552911
0.567453 0.567437 0.567468
0.576379 0.576379 0.576394
0.238087 0.238117 0.238117
0.241276 0.241321 0.241321
0.244953 0.244999 0.244999
0.250202 0.250248 0.250279
0.257160 0.257191 0.257191
0.265812 0.265858 0.265858
0.276173 0.276234 0.276204
0.287739 0.287816 0.287770
0.299489 0.299458 0.299458
0.312490 0.312459 0.312459
0.324529 0.324498 0.324498
0.332418 0.332418 0.332387
0.341024 0.341039 0.341024
0.349828 0.349859 0.349828
0.359426 0.359381 0.359426
0.369909 0.369863 0.369909
0.381842 0.381827 0.381842
0.394186 0.394186 0.394186
0.407828 0.407767 0.407782
0.421332 0.421332 0.421332
0.434333 0.434333 0.434333
0.447227 0.447227 0.447227
0.460533 0.460548 0.460578
0.474510 0.474510 0.474495
0.489601 0.489586 0.489601
0.505455 0.505470 0.505470
0.522576 0.522591 0.522591
0.540139 0.540078 0.540108
0.557763 0.557733 0.557763
0.574670 0.574701 0.574701
0.589242 0.589242 0.589227
0.600351 0.600351 0.600366
0.259037 0.259068 0.259068
0.260090 0.260121 0.260121
0.261250 0.261280 0.261280
0.263859 0.263890 0.263890
0.270909 0.270939 0.270939
0.279851 0.279927 0.279851
0.291096 0.291066 0.291066
0.304494 0.304555 0.304524
0.319783 0.319753 0.319753
0.333288 0.333288 0.333257
0.345235 0.345190 0.345220
0.357244 0.357198 0.357244
0.365347 0.365301 0.365347
0.373892 0.373831 0.373831
0.383230 0.383200 0.383200
0.392966 0.392966 0.392966
0.403769 0.403769 0.403769
0.415320 0.415320 0.415320
0.427451 0.427451 0.427451
0.439872 0.439826 0.439826
0.452750 0.452750 0.452750
0.465904 0.465919 0.465934
0.479957 0.479973 0.479973
0.495018 0.495003 0.495003
0.510338 0.510353 0.510338
0.527184 0.527215 0.527199
0.544625 0.544671 0.544640
0.562081 0.562051 0.562081
0.579660 0.579614 0.579644
0.595544 0.595575 0.595575
0.609369 0.609400 0.609400
0.618067 0.618082 0.618097
0.277485 0.277546 0.277516
0.279240 0.279301 0.279271
0.281254 0.281315 0.281315
0.284169 0.284230 0.284199
0.287999 0.288075 0.288029
0.293278 0.293355 0.293309
0.304433 0.304433 0.304463
0.318441 0.318502 0.318471
0.334508 0.334524 0.334508
0.352377 0.352392 0.352346
0.364859 0.364813 0.364828
0.376471 0.376455 0.376471
0.388235 0.388235 0.388235
0.397208 0.397208 0.397223
0.406607 0.406607 0.406607
0.416892 0.416892 0.416892
0.427710 0.427756 0.427726
0.439658 0.439658 0.439658
0.452506 0.452506 0.452506
0.466056 0.466056 0.466041
0.479866 0.479881 0.479881
0.493721 0.493736 0.493736
0.506752 0.506767 0.506767
0.519524 0.519539 0.519539
0.533013 0.532998 0.532998
0.547189 0.547189 0.547173
0.562966 0.562951 0.562951
0.579507 0.579507 0.579507
0.596414 0.596445 0.596445
0.613657 0.613672 0.613687
0.627970 0.628000 0.627985
0.637263 0.637278 0.637293
0.286870 0.286961 0.286961
0.288960 0.289021 0.288991
0.291707 0.291768 0.291737
0.295674 0.295750 0.295705
0.302327 0.302388 0.302358
0.310750 0.310750 0.310781
0.320958 0.320958 0.320989
0.333120 0.333059 0.333089
0.348776 0.348791 0.348776
0.365545 0.365499 0.365515
0.383871 0.383841 0.383841
0.400458 0.400458 0.400458
0.411750 0.411795 0.411795
0.422843 0.422843 0.422843
0.433143 0.433143 0.433143
0.442954 0.442954 0.442954
0.453941 0.453986 0.453941
0.465141 0.465110 0.465141
0.476997 0.477012 0.477012
0.489555 0.489571 0.489571
0.502556 0.502541 0.502541
0.515465 0.515450 0.515450
0.528328 0.528313 0.528313
0.540932 0.540932 0.540917
0.553552 0.553567 0.553536
0.567529 0.567544 0.567529
0.582635 0.582635 0.582635
0.599344 0.599344 0.599329
0.616526 0.616541 0.616571
0.633570 0.633570 0.633570
0.650111 0.650156 0.650141
0.657298 0.657313 0.657298
0.310018 0.309987 0.309987
0.311116 0.311086 0.311086
0.312367 0.312337 0.312337
0.315618 0.315679 0.315648
0.321996 0.321981 0.321981
0.330083 0.330083 0.330053
0.339971 0.339910 0.339941
0.351507 0.351537 0.351553
0.365805 0.365759 0.365805
0.382361 0.382406 0.382422
0.400320 0.400336 0.400320
0.419913 0.419867 0.419867
0.436149 0.436194 0.436194
0.447395 0.447364 0.447364
0.458763 0.458763 0.458763
0.469215 0.469169 0.469154
0.479576 0.479637 0.479606
0.490669 0.490684 0.490684
0.502129 0.502144 0.502129
0.514687 0.514702 0.514702
0.527504 0.527489 0.527489
0.540703 0.540703 0.540719
0.553689 0.553704 0.553719
0.566308 0.566323 0.566308
0.578698 0.578653 0.578683
0.590829 0.590799 0.590814
0.604318 0.604318 0.604318
0.619013 0.619043 0.619028
0.635004 0.635050 0.635035
0.651652 0.651667 0.651652
0.666117 0.666117 0.666117
0.677562 0.677562 0.677592
0.330694 0.330694 0.330678
0.332418 0.332418 0.332387
0.334340 0.334371 0.334340
0.337102 0.337133 0.337102
0.340841 0.340856 0.340841
0.345525 0.345541 0.345525
0.353826 0.353857 0.353811
0.365255 0.365271 0.365225
0.382559 0.382544 0.382544
0.401938 0.401938 0.401938
0.422782 0.422782 0.422782
0.440620 0.440620 0.440620
0.456062 0.456077 0.456092
0.472709 0.472740 0.472755
0.484016 0.484047 0.484047
0.494652 0.494713 0.494682
0.506142 0.506157 0.506157
0.517189 0.517174 0.517174
0.528557 0.528542 0.528542
0.540841 0.540810 0.540841
0.552743 0.552758 0.552728
0.565530 0.565499 0.565499
0.577264 0.577295 0.577295
0.589395 0.589395 0.589395
0.601022 0.601022 0.601022
0.613077 0.613108 0.613108
0.625345 0.625376 0.625361
0.639139 0.639155 0.639139
0.653925 0.653925 0.653925
0.669581 0.669581 0.669596
0.683635 0.683665 0.683650
0.693507 0.693523 0.693492
0.344961 0.344900 0.344930
0.346441 0.346456 0.346441
0.348257 0.348211 0.348226
0.351553 0.351507 0.351537
0.356451 0.356405 0.356420
0.362631 0.362539 0.362585
0.370337 0.370291 0.370337
0.381445 0.381415 0.381399
0.396948 0.396948 0.396948
0.414954 0.414954 0.414954
0.434791 0.434836 0.434836
0.457954 0.458000 0.458000
0.476204 0.476219 0.476219
0.495232 0.495308 0.495277
0.510643 0.510628 0.510628
0.522530 0.522515 0.522515
0.533974 0.533959 0.533959
0.544747 0.544747 0.544762
0.555428 0.555428 0.555428
0.566659 0.566674 0.566659
0.577752 0.577737 0.577737
0.589746 0.589715 0.589731
0.601343 0.601312 0.601312
0.612772 0.612818 0.612833
0.624338 0.624353 0.624384
0.635523 0.635538 0.635523
0.647379 0.647379 0.647379
0.659388 0.659373 0.659358
0.673014 0.673014 0.673030
0.687617 0.687602 0.687602
0.701549 0.701579 0.701564
0.710338 0.710323 0.710338
0.366766 0.366720 0.366766
0.367697 0.367727 0.367742
0.368856 0.368811 0.368856
0.372259 0.372213 0.372259
0.376974 0.376883 0.376928
0.383505 0.383505 0.383551
0.393133 0.393133 0.393133
0.405203 0.405234 0.405203
0.419104 0.419150 0.419150
0.435050 0.435050 0.435050
0.454902 0.454917 0.454933
0.476570 0.476570 0.476555
0.500069 0.500099 0.500069
0.521111 0.521096 0.521096
0.533349 0.533333 0.533333
0.546334 0.546334 0.546319
0.558221 0.558190 0.558221
0.569024 0.569009 0.569024
0.580087 0.580102 0.580087
0.591287 0.591241 0.591257
0.601968 0.601968 0.601984
0.613611 0.613611 0.613626
0.624460 0.624430 0.624414
0.635691 0.635676 0.635691
0.646372 0.646387 0.646387
0.657237 0.657237 0.657237
0.668849 0.668864 0.668864
0.680644 0.680674 0.680659
0.693416 0.693385 0.693385
0.706066 0.706081 0.706066
0.719142 0.719142 0.719142
0.727504 0.727504 0.727504
0.390936 0.390936 0.390936
0.392554 0.392584 0.392554
0.394400 0.394446 0.394446
0.397208 0.397208 0.397208
0.400931 0.400931 0.400931
0.405646 0.405646 0.405646
0.413779 0.413779 0.413779
0.425071 0.425025 0.425025
0.437171 0.437171 0.437171
0.449378 0.449378 0.449394
0.470451 0.470481 0.470466
0.492104 0.492119 0.492119
0.515328 0.515328 0.515343
0.538140 0.538140 0.538155
0.557443 0.557427 0.557473
0.573404 0.573388 0.573404
0.586816 0.586847 0.586847
0.597894 0.597864 0.597879
0.607904 0.607904 0.607904
0.617914 0.617945 0.617929
0.626963 0.626963 0.626963
0.637598 0.637583 0.637583
0.647410 0.647425 0.647425
0.658518 0.658518 0.658534
0.669307 0.669307 0.669307
0.679912 0.679881 0.679881
0.690837 0.690806 0.690822
0.701396 0.701396 0.701396
0.712612 0.712596 0.712612
0.724269 0.724269 0.724269
0.735393 0.735393 0.735378
0.745480 0.745419 0.745419
0.407919 0.407919 0.407919
0.409461 0.409476 0.409461
0.411200 0.411200 0.411200
0.413718 0.413718 0.413718
0.417411 0.417380 0.417380
0.423972 0.423972 0.423972
0.432059 0.432059 0.432059
0.441581 0.441627 0.441627
0.452415 0.452415 0.452415
0.469398 0.469429 0.469413
0.491096 0.491112 0.491096
0.515984 0.515984 0.515999
0.542489 0.542535 0.542504
0.562173 0.562188 0.562173
0.580545 0.580545 0.580545
0.600061 0.600092 0.600092
0.610849 0.610849 0.610864
0.621210 0.621256 0.621271
0.631495 0.631525 0.631525
0.640589 0.640574 0.640574
0.650065 0.650034 0.650050
0.660090 0.660105 0.660090
0.670161 0.670176 0.670176
0.680842 0.680842 0.680842
0.691295 0.691295 0.691295
0.701869 0.701854 0.701869
0.712520 0.712505 0.712520
0.722805 0.722820 0.722835
0.734310 0.734310 0.734295
0.744915 0.744930 0.744930
0.755627 0.755642 0.755642
0.762799 0.762768 0.762768
0.428244 0.428214 0.428214
0.429358 0.429358 0.429358
0.431876 0.431846 0.431846
0.435615 0.435615 0.435615
0.440742 0.440711 0.440726
0.447120 0.447120 0.447120
0.454948 0.454917 0.454933
0.463905 0.463905 0.463905
0.475654 0.475670 0.475685
0.489815 0.489799 0.489769
0.509209 0.509224 0.509224
0.532723 0.532754 0.532738
0.554604 0.554574 0.554604
0.581766 0.581766 0.581766
0.601556 0.601556 0.601556
0.622004 0.622004 0.622004
0.635782 0.635767 0.635767
0.647379 0.647395 0.647410
