content/luts/b&w/black_and_white_05.cube
#Created by: inPixio
#Copyright: (C) Copyright 2019 inPixio
TITLE "B&W 5"
#LUT size
LUT_3D_SIZE 5
#data domain
#LUT data points
DOMAIN_MIN 0.000000 0.000000 0.000000
DOMAIN_MAX 0.903226 0.903226 0.903226
0.022278 0.022278 0.022278
0.048142 0.048142 0.048142
0.083803 0.083803 0.083803
0.128496 0.128496 0.128496
0.220386 0.220432 0.220386
0.083574 0.083574 0.083574
0.117388 0.117388 0.117388
0.163745 0.163745 0.163745
0.228138 0.228183 0.228138
0.318303 0.318303 0.318334
0.159579 0.159579 0.159579
0.207919 0.207965 0.208011
0.265751 0.265782 0.265782
0.354406 0.354421 0.354421
0.475288 0.475288 0.475258
0.268025 0.268055 0.268055
0.310140 0.310140 0.310170
0.418296 0.418296 0.418296
0.504250 0.504234 0.504250
0.611841 0.611856 0.611856
0.414618 0.414618 0.414618
0.447257 0.447257 0.447257
0.576211 0.576227 0.576211
0.670283 0.670314 0.670298
0.772808 0.772808 0.772793
0.036713 0.036713 0.036713
0.087968 0.087968 0.087968
0.134661 0.134661 0.134661
0.165209 0.165209 0.165209
0.262593 0.262623 0.262669
0.100389 0.100389 0.100389
0.151904 0.151904 0.151904
0.191959 0.191959 0.191959
0.266728 0.266758 0.266758
0.385473 0.385458 0.385428
0.178943 0.178943 0.178943
0.219501 0.219547 0.219577
0.309667 0.309636 0.309636
0.391257 0.391226 0.391211
0.482673 0.482689 0.482689
0.279164 0.279240 0.279194
0.312841 0.312810 0.312810
0.439979 0.439979 0.439979
0.523369 0.523400 0.523385
0.635782 0.635767 0.635767
0.428443 0.428443 0.428473
0.462181 0.462226 0.462226
0.551736 0.551705 0.551736
0.686183 0.686214 0.686183
0.778714 0.778729 0.778729
0.061219 0.061219 0.061219
0.148333 0.148333 0.148333
0.236927 0.236957 0.236957
0.274891 0.274968 0.274922
0.322484 0.322454 0.322454
0.153933 0.153933 0.153933
0.219013 0.219059 0.219013
0.288533 0.288594 0.288563
0.363272 0.363226 0.363272
0.445701 0.445701 0.445701
0.217578 0.217624 0.217578
0.286519 0.286610 0.286610
0.388479 0.388479 0.388479
0.444663 0.444663 0.444663
0.541680 0.541680 0.541665
0.327459 0.327459 0.327443
0.365850 0.365805 0.365835
0.481254 0.481270 0.481270
0.589227 0.589197 0.589212
0.679423 0.679393 0.679423
0.481132 0.481148 0.481148
0.511162 0.511177 0.511177
0.586542 0.586542 0.586542
0.717464 0.717464 0.717464
0.806302 0.806302 0.806287
0.106432 0.106432 0.106432
0.178073 0.178073 0.178073
0.348592 0.348623 0.348592
0.413413 0.413382 0.413367
0.410605 0.410544 0.410575
0.240086 0.240116 0.240116
0.308385 0.308354 0.308354
0.395651 0.395651 0.395651
0.493263 0.493278 0.493278
0.537636 0.537636 0.537636
0.296346 0.296422 0.296376
0.386069 0.386069 0.386069
0.484245 0.484260 0.484260
0.552453 0.552468 0.552453
0.621531 0.621531 0.621531
0.375723 0.375631 0.375677
0.445457 0.445457 0.445457
0.565911 0.565927 0.565911
0.653025 0.653010 0.652995
0.713420 0.713420 0.713405
0.522667 0.522667 0.522683
0.562585 0.562600 0.562585
0.657557 0.657527 0.657542
0.758282 0.758267 0.758267
0.859648 0.859632 0.859617
0.166964 0.166964 0.166964
0.223728 0.223758 0.223758
0.395911 0.395911 0.395956
0.490761 0.490730 0.490730
0.545266 0.545266 0.545281
0.341222 0.341177 0.341207
0.397650 0.397650 0.397650
0.466514 0.466499 0.466529
0.603983 0.603967 0.603983
0.677485 0.677516 0.677470
0.409323 0.409323 0.409323
0.512245 0.512230 0.512230
0.590341 0.590341 0.590356
0.634485 0.634531 0.634516
0.735637 0.735653 0.735668
0.490242 0.490257 0.490257
0.567590 0.567605 0.567590
0.663401 0.663417 0.663386
0.732845 0.732860 0.732860
0.792630 0.792599 0.792599
0.588876 0.588907 0.588922
0.640360 0.640375 0.640391
0.742870 0.742870 0.742870
0.823682 0.823713 0.823697
0.888029 0.888014 0.888014
