content/luts/b&w/black_and_white_01.cube
#Created by: inPixio
#Copyright: (C) Copyright 2019 inPixio
TITLE "B&W 1"
#LUT size
LUT_3D_SIZE 8
#data domain
#LUT data points
DOMAIN_MIN 0.000000 0.000000 0.000000
DOMAIN_MAX 0.903226 0.903226 0.903226
0.142855 0.133700 0.164614
0.154055 0.143908 0.176761
0.183337 0.171527 0.208866
0.245777 0.229923 0.273640
0.345937 0.323751 0.366903
0.496742 0.466224 0.485649
0.659236 0.625269 0.608316
0.774151 0.743755 0.709987
0.169207 0.158465 0.193713
0.176242 0.164920 0.201175
0.196567 0.183993 0.223041
0.256931 0.240360 0.284657
0.355810 0.333059 0.375326
0.502892 0.472252 0.490227
0.655161 0.621286 0.605325
0.779553 0.749477 0.715511
0.263493 0.246525 0.290913
0.273106 0.255528 0.300191
0.299123 0.279927 0.324956
0.330221 0.308980 0.352545
0.411856 0.385702 0.420981
0.539147 0.507103 0.516915
0.690089 0.656672 0.634180
0.785031 0.755291 0.720836
0.439429 0.411765 0.442329
0.447074 0.419043 0.448142
0.477348 0.447883 0.471016
0.528893 0.497215 0.509377
0.579706 0.546578 0.547021
0.626108 0.592248 0.582239
0.728512 0.696010 0.667277
0.809216 0.781033 0.745281
0.645243 0.611307 0.597208
0.647822 0.613870 0.599313
0.667155 0.633417 0.615122
0.693233 0.659937 0.637064
0.713954 0.681025 0.654566
0.752819 0.721279 0.689662
0.783169 0.753231 0.718837
0.832029 0.805692 0.769818
0.772686 0.742153 0.708598
0.775555 0.745159 0.711376
0.784070 0.754192 0.719661
0.796704 0.767636 0.732403
0.805921 0.777524 0.741970
0.815595 0.787915 0.752056
0.846418 0.821454 0.785779
0.867491 0.844709 0.810330
0.852796 0.828458 0.793103
0.853483 0.829267 0.793942
0.855619 0.831586 0.796338
0.860182 0.836561 0.801617
0.865477 0.842496 0.807874
0.869780 0.847273 0.813016
0.875532 0.853666 0.819928
0.888930 0.868742 0.836484
0.889769 0.869688 0.837522
0.889952 0.869856 0.837720
0.890868 0.870909 0.838911
0.892577 0.872801 0.841016
0.894972 0.875547 0.844099
0.897612 0.878554 0.847456
0.899809 0.881041 0.850324
0.902358 0.883909 0.853590
0.148653 0.139147 0.170886
0.152621 0.142794 0.175403
0.187564 0.175525 0.213474
0.257298 0.240787 0.285130
0.357595 0.334630 0.376898
0.502648 0.471962 0.490074
0.646433 0.612512 0.598169
0.771557 0.740932 0.707500
0.163561 0.153079 0.187457
0.170657 0.159701 0.195163
0.204852 0.191653 0.231617
0.269169 0.251820 0.296452
0.367361 0.343801 0.384878
0.506157 0.475319 0.492577
0.650980 0.617151 0.602045
0.773953 0.743587 0.709987
0.254078 0.237766 0.281697
0.262333 0.245350 0.289723
0.290044 0.271336 0.316457
0.328756 0.307622 0.351553
0.417487 0.391012 0.425483
0.550652 0.518334 0.525490
0.679774 0.646265 0.625696
0.785885 0.756130 0.721706
0.430228 0.403082 0.435172
0.436439 0.408942 0.439948
0.466774 0.437751 0.463050
0.512795 0.481773 0.497551
0.561654 0.529046 0.533669
0.620615 0.586877 0.578210
0.724392 0.691798 0.663829
0.806043 0.777630 0.741955
0.637659 0.603754 0.591226
0.639704 0.605798 0.592950
0.655482 0.621683 0.605692
0.680293 0.646738 0.626032
0.702297 0.669032 0.644251
0.743893 0.712047 0.681483
0.777737 0.747463 0.713466
0.830060 0.803586 0.767666
0.766354 0.735515 0.702480
0.768811 0.738079 0.704814
0.775540 0.745159 0.711238
0.789731 0.760159 0.725322
0.802869 0.774289 0.738918
0.816159 0.788525 0.752743
0.845365 0.820264 0.784665
0.865980 0.843076 0.808560
0.850263 0.825650 0.790204
0.850965 0.826444 0.791028
0.853056 0.828763 0.793408
0.858076 0.834272 0.799176
0.863890 0.840711 0.805951
0.868559 0.845853 0.811490
0.874464 0.852522 0.818677
0.888502 0.868223 0.835889
0.888823 0.868589 0.836317
0.888945 0.868727 0.836454
0.890028 0.869963 0.837858
0.892058 0.872221 0.840406
0.894667 0.875197 0.843687
0.897520 0.878416 0.847349
0.899702 0.880919 0.850187
0.902129 0.883696 0.853300
0.161532 0.151186 0.185306
0.164218 0.153597 0.188098
0.180469 0.168856 0.205905
0.247578 0.231617 0.275456
0.365423 0.341970 0.383246
0.529305 0.497536 0.509636
0.668376 0.634607 0.615992
0.777966 0.747738 0.713817
0.182315 0.170550 0.207736
0.187564 0.175525 0.213428
0.202152 0.189227 0.228901
0.270207 0.252873 0.297475
0.388556 0.363760 0.402091
0.536843 0.504860 0.515206
0.669230 0.635523 0.616861
0.780652 0.750637 0.716594
0.232044 0.217090 0.259693
0.241672 0.226032 0.269337
0.271016 0.253483 0.298558
0.342657 0.320623 0.363684
0.450904 0.422614 0.451408
0.569513 0.536614 0.539391
0.691447 0.658030 0.635187
0.792676 0.763348 0.728466
0.405448 0.379629 0.415717
0.413687 0.387396 0.422141
0.445548 0.417639 0.446906
0.499046 0.468467 0.487327
0.550042 0.517723 0.525032
0.630060 0.596246 0.585473
0.727840 0.695323 0.666804
0.812528 0.784588 0.748776
0.621286 0.587411 0.578500
0.624918 0.591119 0.581415
0.641230 0.607370 0.594202
0.671351 0.637598 0.618402
0.695323 0.661952 0.638346
0.734615 0.702373 0.672938
0.773770 0.743282 0.709560
0.833539 0.807370 0.771420
0.760494 0.729336 0.696849
0.761914 0.730770 0.698116
0.768887 0.738079 0.704707
0.783185 0.753292 0.718868
0.798184 0.769238 0.734005
0.812955 0.785061 0.749233
0.842390 0.817044 0.781323
0.864881 0.841825 0.807202
0.846738 0.821851 0.786221
0.847471 0.822599 0.787015
0.849699 0.825071 0.789578
0.855085 0.830961 0.795682
0.861799 0.838377 0.803494
0.867231 0.844419 0.810010
0.873640 0.851576 0.817639
0.888258 0.867994 0.835676
0.887816 0.867475 0.835081
0.887984 0.867659 0.835294
0.889082 0.868895 0.836637
0.891142 0.871229 0.839292
0.894011 0.874434 0.842863
0.896986 0.877913 0.846723
0.899458 0.880613 0.849867
0.902266 0.883818 0.853468
0.186770 0.174731 0.212604
0.190768 0.178561 0.216785
0.202350 0.189380 0.229145
0.236927 0.221775 0.264881
0.335287 0.313665 0.357336
0.497139 0.466636 0.485893
0.658366 0.624582 0.608042
0.780209 0.750134 0.716075
0.217090 0.203174 0.244419
0.219806 0.205661 0.247227
0.226703 0.212116 0.254459
0.258030 0.241474 0.285832
0.357717 0.334798 0.376837
0.514351 0.483162 0.498650
0.668940 0.635264 0.616602
0.785397 0.755642 0.721294
0.260639 0.243824 0.288228
0.272969 0.255421 0.300252
0.305455 0.285695 0.330678
0.333852 0.312306 0.356039
0.441306 0.413626 0.443702
0.580011 0.546838 0.547280
0.709957 0.676844 0.650874
0.800000 0.771191 0.735805
0.362493 0.339239 0.380606
0.372213 0.348440 0.388830
0.410575 0.384482 0.419883
0.468330 0.439094 0.464576
0.555627 0.523018 0.529061
0.649409 0.615503 0.600610
0.738781 0.706676 0.676738
0.816678 0.789120 0.753292
0.595300 0.561837 0.558740
0.599420 0.565896 0.561837
0.616892 0.583154 0.575265
0.649287 0.615442 0.600717
0.683650 0.650050 0.628489
0.721370 0.688685 0.661097
0.777752 0.747494 0.713542
0.838239 0.812512 0.776654
0.750103 0.718410 0.687022
0.752178 0.720577 0.688914
0.758969 0.727703 0.695293
0.773068 0.742565 0.709026
0.790555 0.761090 0.726329
0.806989 0.778637 0.743038
0.837308 0.811490 0.775631
0.862226 0.838804 0.804013
0.842435 0.817075 0.781323
0.843259 0.817990 0.782284
0.846174 0.821180 0.785550
0.852094 0.827649 0.792203
0.859403 0.835721 0.800717
0.866224 0.843290 0.808774
0.872435 0.850187 0.816175
0.887236 0.866804 0.834348
0.886992 0.866545 0.834058
0.887282 0.866850 0.834409
0.888182 0.867857 0.835538
0.890227 0.870176 0.838102
0.893050 0.873365 0.841657
0.896391 0.877150 0.845899
0.899031 0.880156 0.849332
0.901900 0.883406 0.853010
0.231373 0.216526 0.259190
0.235218 0.219989 0.263066
0.246281 0.230533 0.274281
0.265126 0.248096 0.292882
0.324926 0.304067 0.348440
0.457649 0.429007 0.456519
0.625849 0.592065 0.582147
0.763714 0.732693 0.699977
0.262913 0.245930 0.290547
0.265385 0.248371 0.293034
0.274006 0.256336 0.301320
0.287160 0.268742 0.313893
0.345388 0.323278 0.366354
0.476326 0.446723 0.470420
0.638453 0.604532 0.591867
0.771557 0.740917 0.707424
0.334447 0.312963 0.356924
0.341848 0.319875 0.363256
0.360037 0.336950 0.378576
0.372534 0.348714 0.389242
0.421729 0.395010 0.428748
0.541131 0.509072 0.518410
0.680873 0.647334 0.626474
0.789746 0.760235 0.725490
0.404288 0.378607 0.414862
0.413565 0.387320 0.422293
0.453269 0.424888 0.453147
0.514397 0.483177 0.498665
0.547280 0.514962 0.522911
0.636576 0.602808 0.590662
0.736690 0.704418 0.674632
0.816129 0.788495 0.752682
0.537713 0.505699 0.515877
0.545571 0.513359 0.521691
0.570779 0.537835 0.540383
0.612787 0.579141 0.572091
0.655589 0.621592 0.605341
0.718471 0.685649 0.658442
0.783291 0.753338 0.718944
0.839765 0.814115 0.778317
0.728283 0.695705 0.667018
0.730816 0.698329 0.669291
0.740398 0.708309 0.678050
0.756115 0.724773 0.692805
0.776638 0.746380 0.712520
0.800916 0.772091 0.736675
0.828138 0.801495 0.765591
0.860105 0.836515 0.801541
0.833707 0.807553 0.771649
0.834562 0.808469 0.772549
0.838132 0.812375 0.776501
0.845045 0.819852 0.784161
0.853666 0.829450 0.794080
0.863081 0.839811 0.805066
0.871489 0.849165 0.815030
0.885741 0.865141 0.832502
0.884093 0.863264 0.830442
0.884337 0.863539 0.830762
0.885313 0.864653 0.831968
0.887999 0.867674 0.835309
0.891325 0.871428 0.839475
0.895003 0.875578 0.844114
0.898329 0.879362 0.848402
0.901412 0.882872 0.852400
0.302327 0.282902 0.327977
0.305364 0.285695 0.330755
0.315969 0.295613 0.340414
0.334264 0.312718 0.356649
0.363104 0.339757 0.381491
0.444495 0.416571 0.446464
0.596796 0.563394 0.560006
0.739620 0.707500 0.677546
0.330373 0.309102 0.353216
0.332418 0.311055 0.354971
0.340963 0.319066 0.362387
0.356848 0.333928 0.376104
0.383001 0.358511 0.397879
0.462837 0.433906 0.460288
0.610254 0.576730 0.570382
0.747646 0.715908 0.684947
0.424414 0.397467 0.430900
0.427009 0.399954 0.432883
0.433814 0.406409 0.438178
0.446021 0.417990 0.447669
0.462379 0.433494 0.460029
0.527321 0.495720 0.508263
0.652003 0.618189 0.602808
0.767697 0.736965 0.703990
0.486214 0.456230 0.477882
0.494331 0.463951 0.483879
0.542947 0.510689 0.519661
0.573083 0.540093 0.542092
0.582284 0.549081 0.548913
0.621393 0.587594 0.578698
0.712215 0.679194 0.652873
0.801541 0.772839 0.737362
0.586297 0.553094 0.552026
0.591379 0.558099 0.555886
0.613062 0.579416 0.572412
0.647196 0.613291 0.598886
0.687099 0.653559 0.631418
0.706996 0.673884 0.648402
0.770596 0.739971 0.706584
0.834806 0.808743 0.772839
0.690929 0.657450 0.634546
0.695811 0.662425 0.638712
0.707836 0.674723 0.649073
0.730053 0.697597 0.668727
0.756695 0.725353 0.693278
0.785443 0.755581 0.720882
0.825925 0.799069 0.763088
0.862348 0.839002 0.804181
0.820584 0.793362 0.757458
0.821881 0.794690 0.758801
0.826825 0.800061 0.764065
0.835874 0.809873 0.773938
0.845777 0.820752 0.785107
0.857466 0.833585 0.798489
0.868803 0.846189 0.811826
0.882002 0.860960 0.827878
0.880705 0.859495 0.826276
0.880980 0.859861 0.826642
0.882185 0.861173 0.828122
0.884855 0.864134 0.831373
0.888472 0.868208 0.835920
0.892760 0.873060 0.841306
0.897231 0.878050 0.846967
0.901030 0.882445 0.851896
0.413825 0.387594 0.422538
0.416587 0.390189 0.424735
0.425879 0.398901 0.431983
0.441520 0.413748 0.444129
0.460105 0.431373 0.458305
0.497734 0.467231 0.486397
0.582742 0.549416 0.549172
0.719768 0.686961 0.659571
0.440406 0.412757 0.443122
0.442283 0.414511 0.444633
0.449851 0.421622 0.450355
0.462730 0.433829 0.460212
0.478859 0.449210 0.472328
0.512490 0.481468 0.497322
0.593713 0.560266 0.557504
0.724956 0.692317 0.664134
0.524605 0.493141 0.506188
0.525963 0.494392 0.507210
0.530053 0.498299 0.510216
0.537743 0.505776 0.515892
0.547707 0.515358 0.523217
0.569101 0.536187 0.539086
0.636576 0.602701 0.590494
0.747967 0.716213 0.685176
0.602609 0.568978 0.564218
0.609751 0.576059 0.569665
0.628977 0.595102 0.584512
0.636774 0.602930 0.590738
0.642298 0.608331 0.594904
0.650935 0.617090 0.601892
0.696559 0.663172 0.639353
0.782437 0.752453 0.718227
0.653086 0.619226 0.603632
0.656230 0.622370 0.606119
0.673350 0.639597 0.620005
0.707775 0.674678 0.649073
0.729015 0.696529 0.667826
0.732204 0.699809 0.670634
0.758877 0.727657 0.695354
0.819684 0.792294 0.756375
0.737514 0.705379 0.675547
0.739361 0.707271 0.677287
0.748638 0.716930 0.685771
0.762356 0.731334 0.698741
0.779751 0.749615 0.715511
0.804547 0.775998 0.740429
0.817380 0.789838 0.753948
0.855055 0.830900 0.795636
0.805524 0.777066 0.741405
0.807263 0.778943 0.743236
0.811688 0.783673 0.747845
0.820157 0.792767 0.756787
0.831968 0.805570 0.769635
0.846906 0.822004 0.786374
0.861936 0.838560 0.803616
0.880934 0.859785 0.826566
0.872984 0.850843 0.816907
0.873457 0.851331 0.817472
0.875471 0.853620 0.819913
0.879408 0.858000 0.824674
0.884550 0.863752 0.830930
0.889494 0.869383 0.837202
0.894987 0.875563 0.844144
0.900389 0.881743 0.851072
0.577707 0.544686 0.545586
0.579812 0.546685 0.547128
0.584146 0.550851 0.550332
0.592493 0.559075 0.556664
0.602625 0.569085 0.564370
0.612558 0.578882 0.571969
0.654139 0.620279 0.604456
0.716121 0.683223 0.656443
0.596796 0.563439 0.560037
0.597787 0.564401 0.560784
0.600412 0.566934 0.562692
0.607095 0.573556 0.567880
0.615106 0.581491 0.574014
0.624399 0.590723 0.581216
0.662211 0.628412 0.611032
0.721218 0.688609 0.661112
0.652155 0.618326 0.602945
0.652323 0.618555 0.603189
0.653239 0.619516 0.604089
0.658030 0.624201 0.607675
0.662028 0.628290 0.611093
0.668116 0.634409 0.615946
0.694163 0.660700 0.637385
0.745403 0.713527 0.682704
0.718792 0.686030 0.658900
0.719112 0.686381 0.659220
0.719326 0.686610 0.659510
0.722194 0.689494 0.661784
0.724254 0.691646 0.663630
0.726360 0.693782 0.665476
0.737728 0.705608 0.675761
0.778683 0.748470 0.714412
0.742397 0.710430 0.680003
0.744930 0.713054 0.682338
0.758999 0.727764 0.695598
0.776974 0.746716 0.712779
0.782239 0.752255 0.717983
0.782773 0.752789 0.718395
0.786542 0.756802 0.722164
0.814908 0.787137 0.751232
0.793454 0.764126 0.729061
0.794263 0.765011 0.729915
0.797925 0.768917 0.733639
0.805173 0.776730 0.741085
0.821317 0.794064 0.758129
0.834119 0.807935 0.771985
0.836240 0.810254 0.774334
0.851698 0.827192 0.791791
0.842496 0.817090 0.781308
0.843000 0.817670 0.781918
0.845106 0.820005 0.784329
0.848905 0.824170 0.788678
0.854582 0.830381 0.795148
0.861891 0.838544 0.803662
0.872770 0.850568 0.816571
0.878752 0.857313 0.823896
0.872755 0.850599 0.816571
0.873182 0.851057 0.817075
0.874281 0.852277 0.818418
0.876921 0.855253 0.821622
0.880522 0.859266 0.826032
0.885390 0.864729 0.832044
0.891722 0.871855 0.839963
0.898314 0.879347 0.848386
