content/luts/b&w/black_and_white_03.cube
#Created by: inPixio
#Copyright: (C) Copyright 2019 inPixio
TITLE "B&W 3"
#LUT size
LUT_3D_SIZE 32
#data domain
DOMAIN_MIN 0.0 0.0 0.0
DOMAIN_MAX 1.0 1.0 1.0
#LUT data points
0.142153 0.142153 0.142153
0.144457 0.144457 0.144457
0.146777 0.146777 0.146777
0.151446 0.151446 0.151446
0.159152 0.159152 0.159152
0.166796 0.166796 0.166796
0.174624 0.174624 0.174624
0.182467 0.182467 0.182467
0.192004 0.192004 0.192004
0.201022 0.201022 0.200977
0.211200 0.211200 0.211154
0.222309 0.222355 0.222385
0.233219 0.233249 0.233341
0.246174 0.246204 0.246281
0.259770 0.259800 0.259800
0.273182 0.273259 0.273213
0.288685 0.288762 0.288731
0.302724 0.302785 0.302754
0.319982 0.319966 0.319966
0.339696 0.339651 0.339666
0.359579 0.359594 0.359548
0.384024 0.384009 0.383978
0.407477 0.407477 0.407477
0.432456 0.432502 0.432502
0.462303 0.462303 0.462303
0.487282 0.487327 0.487327
0.518990 0.518990 0.519005
0.551736 0.551705 0.551736
0.582239 0.582239 0.582239
0.619806 0.619822 0.619822
0.651652 0.651667 0.651652
0.674098 0.674098 0.674098
0.149279 0.149279 0.149279
0.148058 0.148058 0.148058
0.149004 0.149004 0.149004
0.150668 0.150668 0.150668
0.156634 0.156634 0.156634
0.164675 0.164675 0.164675
0.172854 0.172854 0.172854
0.180896 0.180896 0.180896
0.189685 0.189685 0.189685
0.199664 0.199664 0.199619
0.209842 0.209842 0.209796
0.220035 0.220081 0.220157
0.232166 0.232197 0.232197
0.244877 0.244923 0.244923
0.258549 0.258595 0.258595
0.272862 0.272938 0.272908
0.286549 0.286610 0.286580
0.301808 0.301778 0.301778
0.319158 0.319127 0.319127
0.337667 0.337621 0.337636
0.358434 0.358389 0.358404
0.381918 0.381888 0.381918
0.406241 0.406241 0.406241
0.431556 0.431556 0.431556
0.459846 0.459846 0.459846
0.485573 0.485588 0.485588
0.517525 0.517586 0.517556
0.550515 0.550530 0.550515
0.581430 0.581430 0.581430
0.619379 0.619394 0.619410
0.650370 0.650385 0.650385
0.672496 0.672496 0.672526
0.160571 0.160571 0.160571
0.159640 0.159640 0.159640
0.156008 0.156008 0.156008
0.156130 0.156130 0.156130
0.157076 0.157076 0.157076
0.160266 0.160266 0.160266
0.169039 0.169039 0.169039
0.178012 0.178012 0.178012
0.187137 0.187137 0.187137
0.196521 0.196521 0.196475
0.206775 0.206821 0.206867
0.217945 0.217990 0.218036
0.229770 0.229801 0.229801
0.243244 0.243275 0.243275
0.257054 0.257084 0.257084
0.270771 0.270802 0.270802
0.284260 0.284321 0.284291
0.299947 0.299916 0.299916
0.316854 0.316823 0.316823
0.335424 0.335454 0.335424
0.357168 0.357122 0.357137
0.378988 0.378973 0.378988
0.403723 0.403693 0.403677
0.429831 0.429831 0.429831
0.457176 0.457145 0.457145
0.483604 0.483635 0.483635
0.515526 0.515511 0.515511
0.548486 0.548486 0.548486
0.580331 0.580331 0.580331
0.619089 0.619074 0.619089
0.648951 0.648936 0.648951
0.670710 0.670710 0.670726
0.180301 0.180301 0.180301
0.181872 0.181872 0.181872
0.179324 0.179324 0.179324
0.172732 0.172732 0.172732
0.166903 0.166903 0.166903
0.163439 0.163439 0.163439
0.164920 0.164920 0.164920
0.173083 0.173083 0.173083
0.181109 0.181109 0.181109
0.191806 0.191806 0.191806
0.202503 0.202503 0.202441
0.214115 0.214160 0.214206
0.226658 0.226703 0.226703
0.240238 0.240284 0.240284
0.253178 0.253224 0.253224
0.266728 0.266758 0.266789
0.281422 0.281483 0.281453
0.296315 0.296376 0.296346
0.313832 0.313802 0.313802
0.332738 0.332677 0.332708
0.353368 0.353307 0.353338
0.375036 0.375021 0.374991
0.399756 0.399741 0.399710
0.426078 0.426108 0.426093
0.453361 0.453361 0.453330
0.480293 0.480324 0.480324
0.512596 0.512612 0.512596
0.545647 0.545617 0.545632
0.579187 0.579187 0.579202
0.618265 0.618265 0.618250
0.647608 0.647593 0.647608
0.669673 0.669642 0.669657
0.204486 0.204486 0.204440
0.206485 0.206485 0.206439
0.208530 0.208576 0.208621
0.204486 0.204532 0.204578
0.192889 0.192889 0.192828
0.182147 0.182147 0.182147
0.173999 0.173999 0.173999
0.170489 0.170489 0.170489
0.177112 0.177112 0.177112
0.184863 0.184863 0.184863
0.197070 0.197070 0.197025
0.208911 0.208957 0.209003
0.221088 0.221134 0.221180
0.233921 0.233967 0.233967
0.247746 0.247791 0.247791
0.261799 0.261830 0.261830
0.276371 0.276433 0.276402
0.292241 0.292210 0.292210
0.309789 0.309758 0.309758
0.328039 0.327977 0.328008
0.348364 0.348379 0.348364
0.369909 0.369802 0.369863
0.398581 0.398581 0.398581
0.424308 0.424338 0.424323
0.448570 0.448570 0.448570
0.477638 0.477699 0.477684
0.508888 0.508873 0.508873
0.542580 0.542580 0.542565
0.578409 0.578378 0.578393
0.617197 0.617197 0.617182
0.645380 0.645365 0.645365
0.668452 0.668452 0.668467
0.231113 0.231159 0.231159
0.232364 0.232410 0.232410
0.234180 0.234226 0.234226
0.236118 0.236149 0.236149
0.231998 0.232044 0.232044
0.215564 0.215610 0.215656
0.199863 0.199863 0.199817
0.187244 0.187244 0.187244
0.179965 0.179965 0.179965
0.184161 0.184161 0.184161
0.188296 0.188296 0.188296
0.201068 0.201068 0.201022
0.214069 0.214115 0.214069
0.226963 0.226993 0.226993
0.241032 0.241077 0.241032
0.255863 0.255894 0.255894
0.271107 0.271138 0.271138
0.286229 0.286290 0.286259
0.303334 0.303395 0.303365
0.322484 0.322454 0.322454
0.342916 0.342870 0.342901
0.365469 0.365423 0.365469
0.395789 0.395712 0.395743
0.421607 0.421607 0.421607
0.444022 0.444053 0.444038
0.474891 0.474891 0.474861
0.506569 0.506554 0.506554
0.540536 0.540505 0.540520
0.576761 0.576715 0.576745
0.614817 0.614832 0.614847
0.639658 0.639674 0.639674
0.664820 0.664820 0.664836
0.259327 0.259358 0.259358
0.260563 0.260594 0.260594
0.262043 0.262089 0.262089
0.263752 0.263783 0.263783
0.264515 0.264546 0.264546
0.258518 0.258549 0.258549
0.239887 0.239918 0.239918
0.221042 0.221088 0.221134
0.206058 0.206058 0.205997
0.194415 0.194415 0.194369
0.194415 0.194415 0.194369
0.193866 0.193866 0.193805
0.206867 0.206867 0.206821
0.219944 0.219989 0.220035
0.233509 0.233539 0.233539
0.247868 0.247898 0.247898
0.263310 0.263356 0.263356
0.279759 0.279820 0.279789
0.296635 0.296605 0.296605
0.315465 0.315435 0.315435
0.336507 0.336461 0.336477
0.360647 0.360601 0.360617
0.386877 0.386847 0.386832
0.413291 0.413230 0.413245
0.438148 0.438102 0.438102
0.470207 0.470222 0.470237
0.500252 0.500328 0.500282
0.536309 0.536309 0.536324
0.571786 0.571756 0.571771
0.601343 0.601312 0.601328
0.634012 0.634043 0.634043
0.660197 0.660166 0.660182
0.289159 0.289128 0.289128
0.290364 0.290333 0.290333
0.292973 0.293034 0.293004
0.296635 0.296696 0.296666
0.298436 0.298497 0.298467
0.293446 0.293416 0.293416
0.284428 0.284489 0.284459
0.264073 0.264103 0.264103
0.243397 0.243427 0.243427
0.227588 0.227634 0.227588
0.213092 0.213138 0.213092
0.208347 0.208393 0.208438
0.200443 0.200443 0.200397
0.212116 0.212116 0.212070
0.224109 0.224155 0.224155
0.238712 0.238758 0.238758
0.254154 0.254200 0.254200
0.270100 0.270146 0.270100
0.287388 0.287449 0.287419
0.307027 0.306996 0.306996
0.326009 0.325979 0.325979
0.348180 0.348211 0.348180
0.372549 0.372503 0.372503
0.399161 0.399161 0.399161
0.428595 0.428595 0.428595
0.459739 0.459770 0.459739
0.493446 0.493462 0.493477
0.524376 0.524361 0.524361
0.555886 0.555856 0.555886
0.588480 0.588510 0.588510
0.626062 0.626108 0.626108
0.655070 0.655085 0.655085
0.319295 0.319280 0.319280
0.320729 0.320699 0.320699
0.322972 0.322942 0.322942
0.326467 0.326436 0.326436
0.332525 0.332464 0.332494
0.332891 0.332845 0.332876
0.324880 0.324849 0.324849
0.311055 0.311025 0.311025
0.289632 0.289693 0.289662
0.266926 0.266972 0.266972
0.251286 0.251331 0.251331
0.235218 0.235248 0.235248
0.224018 0.224064 0.224064
0.209888 0.209888 0.209842
0.219272 0.219318 0.219364
0.226535 0.226566 0.226566
0.243122 0.243168 0.243168
0.259541 0.259587 0.259541
0.276707 0.276768 0.276738
0.294667 0.294728 0.294698
0.313741 0.313726 0.313726
0.335638 0.335653 0.335638
0.359838 0.359869 0.359823
0.387030 0.387030 0.387030
0.417456 0.417502 0.417502
0.446113 0.446113 0.446113
0.476692 0.476692 0.476677
0.506996 0.507012 0.507012
0.540551 0.540551 0.540566
0.579400 0.579370 0.579385
0.619562 0.619547 0.619562
0.650111 0.650080 0.650080
0.354482 0.354421 0.354482
0.355657 0.355688 0.355688
0.357137 0.357092 0.357122
0.360769 0.360723 0.360754
0.366445 0.366400 0.366430
0.374197 0.374151 0.374197
0.377081 0.377066 0.377081
0.361685 0.361700 0.361700
0.341650 0.341604 0.341634
0.318441 0.318441 0.318471
0.293309 0.293385 0.293355
0.276463 0.276539 0.276494
0.260197 0.260227 0.260227
0.244251 0.244297 0.244297
0.227588 0.227634 0.227634
0.233295 0.233341 0.233341
0.232319 0.232364 0.232364
0.248325 0.248371 0.248371
0.265095 0.265126 0.265095
0.281865 0.281926 0.281895
0.301625 0.301686 0.301656
0.323674 0.323644 0.323644
0.347814 0.347768 0.347799
0.373999 0.373953 0.373999
0.401175 0.401144 0.401129
0.429145 0.429114 0.429130
0.459800 0.459800 0.459800
0.492683 0.492729 0.492714
0.531930 0.531914 0.531914
0.571771 0.571756 0.571756
0.611658 0.611658 0.611658
0.641901 0.641886 0.641886
0.394049 0.394049 0.394049
0.395041 0.395041 0.395041
0.396170 0.396170 0.396170
0.399100 0.399100 0.399100
0.403677 0.403677 0.403677
0.410834 0.410773 0.410788
0.417823 0.417823 0.417853
0.418326 0.418326 0.418326
0.398657 0.398657 0.398657
0.374731 0.374640 0.374685
0.349752 0.349691 0.349722
0.323110 0.323079 0.323079
0.305760 0.305730 0.305730
0.289860 0.289921 0.289891
0.273426 0.273396 0.273396
0.254658 0.254688 0.254688
0.250401 0.250431 0.250431
0.235737 0.235782 0.235782
0.250858 0.250904 0.250904
0.268956 0.268986 0.268986
0.289418 0.289479 0.289448
0.310643 0.310704 0.310674
0.334203 0.334234 0.334203
0.358251 0.358206 0.358236
0.385657 0.385641 0.385611
0.415518 0.415488 0.415488
0.446998 0.446998 0.446998
0.480751 0.480736 0.480766
0.519844 0.519860 0.519860
0.559487 0.559503 0.559487
0.597665 0.597696 0.597696
0.632288 0.632334 0.632319
0.432136 0.432136 0.432136
0.433845 0.433845 0.433845
0.435859 0.435859 0.435859
0.438911 0.438911 0.438911
0.443137 0.443107 0.443122
0.449592 0.449592 0.449622
0.455741 0.455711 0.455726
0.459693 0.459709 0.459724
0.459846 0.459846 0.459846
0.436927 0.436927 0.436927
0.411612 0.411612 0.411612
0.387060 0.387030 0.387015
0.363424 0.363378 0.363394
0.343755 0.343786 0.343755
0.325216 0.325185 0.325185
0.305364 0.305333 0.305333
0.284718 0.284779 0.284749
0.271214 0.271244 0.271214
0.252567 0.252613 0.252567
0.263859 0.263890 0.263935
0.277989 0.278050 0.278019
0.296101 0.296101 0.296132
0.318303 0.318273 0.318273
0.342794 0.342809 0.342794
0.371099 0.371054 0.371099
0.400092 0.400092 0.400122
0.431678 0.431678 0.431678
0.465354 0.465339 0.465370
0.504921 0.504936 0.504921
0.543603 0.543572 0.543587
0.584161 0.584115 0.584131
0.619242 0.619211 0.619211
0.476997 0.476982 0.476982
0.477577 0.477577 0.477562
0.478660 0.478660 0.478630
0.481056 0.481086 0.481056
0.485863 0.485847 0.485847
0.491753 0.491783 0.491753
0.499672 0.499657 0.499657
0.504875 0.504860 0.504875
0.506249 0.506264 0.506264
0.502083 0.502068 0.502068
0.479561 0.479545 0.479545
0.455406 0.455406 0.455406
0.430167 0.430213 0.430213
0.401785 0.401785 0.401785
0.379019 0.378988 0.378973
0.358908 0.358923 0.358923
0.335760 0.335790 0.335790
0.313375 0.313344 0.313344
0.294133 0.294194 0.294133
0.274281 0.274342 0.274311
0.275761 0.275837 0.275807
0.283543 0.283619 0.283574
0.300282 0.300343 0.300313
0.324529 0.324498 0.324498
0.351583 0.351537 0.351553
0.380743 0.380713 0.380743
0.411490 0.411490 0.411505
0.443473 0.443473 0.443473
0.478355 0.478340 0.478340
0.520501 0.520485 0.520485
0.563607 0.563623 0.563607
0.601160 0.601129 0.601129
0.520836 0.520851 0.520836
0.521599 0.521614 0.521599
0.522408 0.522423 0.522423
0.523674 0.523659 0.523659
0.526574 0.526558 0.526558
0.531914 0.531884 0.531899
0.539208 0.539208 0.539223
0.547585 0.547585 0.547601
0.553002 0.553018 0.552987
0.549111 0.549111 0.549126
0.539788 0.539788 0.539788
0.518639 0.518654 0.518654
0.493248 0.493263 0.493263
0.466316 0.466331 0.466346
0.438407 0.438407 0.438407
0.412192 0.412192 0.412192
0.389014 0.388937 0.388968
0.367819 0.367834 0.367788
0.346563 0.346593 0.346563
0.326238 0.326207 0.326207
0.303883 0.303945 0.303914
0.297078 0.297139 0.297108
0.292348 0.292409 0.292378
0.304097 0.304067 0.304067
0.326467 0.326436 0.326436
0.351431 0.351461 0.351431
0.381262 0.381231 0.381262
0.415137 0.415137 0.415137
0.452613 0.452613 0.452628
0.497017 0.497002 0.497002
0.544167 0.544167 0.544183
0.576501 0.576486 0.576471
0.559930 0.559945 0.559930
0.561349 0.561318 0.561334
0.562875 0.562890 0.562875
0.565118 0.565133 0.565118
0.568139 0.568109 0.568124
0.571817 0.571801 0.571817
0.577279 0.577295 0.577295
0.585138 0.585138 0.585138
0.594019 0.594019 0.594019
0.601068 0.601038 0.601053
0.592859 0.592859 0.592859
0.579843 0.579858 0.579843
0.558877 0.558892 0.558907
0.535012 0.535012 0.535027
0.509484 0.509453 0.509453
0.481376 0.481361 0.481361
0.455497 0.455497 0.455497
0.431159 0.431128 0.431128
0.406775 0.406775 0.406775
0.382040 0.382071 0.382040
0.358755 0.358785 0.358724
0.333990 0.333928 0.333959
0.317144 0.317113 0.317113
0.299641 0.299702 0.299672
0.307713 0.307683 0.307683
0.331289 0.331289 0.331258
0.358434 0.358389 0.358404
0.394873 0.394873 0.394873
0.434623 0.434623 0.434638
0.474556 0.474540 0.474556
0.518212 0.518212 0.518227
0.549889 0.549905 0.549874
0.605249 0.605280 0.605280
0.605478 0.605478 0.605478
0.605692 0.605692 0.605692
0.606928 0.606928 0.606943
0.609949 0.609949 0.609949
0.613687 0.613703 0.613718
0.618204 0.618204 0.618189
0.623453 0.623468 0.623468
0.630320 0.630320 0.630320
0.638148 0.638132 0.638148
0.644236 0.644236 0.644236
0.631281 0.631296 0.631281
0.615641 0.615671 0.615656
0.594842 0.594873 0.594873
0.569894 0.569879 0.569879
0.543557 0.543526 0.543542
0.514351 0.514336 0.514336
0.487648 0.487663 0.487663
0.464775 0.464805 0.464790
0.443290 0.443336 0.443336
0.421073 0.421073 0.421088
0.397864 0.397849 0.397818
0.373663 0.373693 0.373648
0.353826 0.353857 0.353811
0.330755 0.330755 0.330724
0.328039 0.328039 0.328008
0.346197 0.346136 0.346166
0.367941 0.367880 0.367941
0.404349 0.404349 0.404349
0.444999 0.444999 0.444999
0.488853 0.488869 0.488853
0.522759 0.522789 0.522759
0.638773 0.638804 0.638804
0.639231 0.639246 0.639262
0.639780 0.639780 0.639780
0.640620 0.640635 0.640635
0.641749 0.641764 0.641779
0.644923 0.644938 0.644938
0.649363 0.649348 0.649363
0.654521 0.654566 0.654566
0.660426 0.660426 0.660426
0.666072 0.666072 0.666072
0.671794 0.671809 0.671794
0.674052 0.674052 0.674067
0.662043 0.662058 0.662074
0.646906 0.646906 0.646906
0.627710 0.627741 0.627726
0.604959 0.604944 0.604959
0.580819 0.580835 0.580819
0.554894 0.554864 0.554864
0.530327 0.530358 0.530343
0.509361 0.509346 0.509361
0.488930 0.488945 0.488960
0.465812 0.465812 0.465782
0.442710 0.442664 0.442680
0.417639 0.417639 0.417639
0.392981 0.392981 0.392981
0.363714 0.363668 0.363684
0.351064 0.351003 0.351034
0.363836 0.363775 0.363806
0.374380 0.374365 0.374334
0.413993 0.413993 0.413993
0.457084 0.457099 0.457115
0.499565 0.499550 0.499550
0.670100 0.670115 0.670085
0.671443 0.671458 0.671458
0.672984 0.672999 0.672984
0.675197 0.675227 0.675212
0.678080 0.678050 0.678080
0.681621 0.681590 0.681590
0.685741 0.685741 0.685741
0.689342 0.689342 0.689342
0.693416 0.693431 0.693416
0.697978 0.697994 0.697978
0.701824 0.701824 0.701824
0.702113 0.702113 0.702113
0.701534 0.701549 0.701534
0.690395 0.690395 0.690395
0.675273 0.675242 0.675273
0.658061 0.658061 0.658076
0.636622 0.636622 0.636622
0.615030 0.615061 0.615045
0.592218 0.592218 0.592218
0.569802 0.569772 0.569787
0.550546 0.550561 0.550546
0.532586 0.532570 0.532570
0.509712 0.509697 0.509697
0.488899 0.488914 0.488914
0.464088 0.464088 0.464088
0.439323 0.439323 0.439323
0.410224 0.410224 0.410224
0.388159 0.388144 0.388113
0.385016 0.384985 0.384970
0.387457 0.387457 0.387457
0.428885 0.428855 0.428855
0.469505 0.469505 0.469490
0.698085 0.698116 0.698116
0.698482 0.698482 0.698467
0.698940 0.698940 0.698940
0.699962 0.699977 0.699962
0.701808 0.701824 0.701808
0.703960 0.703944 0.703960
0.706630 0.706630 0.706630
0.709804 0.709819 0.709819
0.713222 0.713222 0.713222
0.717617 0.717617 0.717617
0.722347 0.722347 0.722347
0.727306 0.727306 0.727291
0.725582 0.725597 0.725612
0.721676 0.721676 0.721691
0.711818 0.711803 0.711818
0.697551 0.697536 0.697566
0.682796 0.682826 0.682841
0.663035 0.663035 0.663050
0.644572 0.644526 0.644541
0.623072 0.623072 0.623072
0.602670 0.602701 0.602701
0.588190 0.588190 0.588190
0.574517 0.574533 0.574517
0.553430 0.553445 0.553430
0.535378 0.535378 0.535393
0.510994 0.510979 0.510979
0.488457 0.488472 0.488472
0.460517 0.460517 0.460517
0.434943 0.434943 0.434943
0.419699 0.419699 0.419715
0.405707 0.405692 0.405661
0.434730 0.434730 0.434730
0.721828 0.721828 0.721828
0.722240 0.722240 0.722240
0.722713 0.722713 0.722713
0.723415 0.723415 0.723415
0.724331 0.724331 0.724331
0.725704 0.725704 0.725704
0.727688 0.727688 0.727672
0.729625 0.729625 0.729625
0.731975 0.731975 0.731960
0.735180 0.735195 0.735210
0.740154 0.740139 0.740154
0.745785 0.745800 0.745815
0.751186 0.751202 0.751202
0.748058 0.748074 0.748089
0.743236 0.743252 0.743267
0.733745 0.733745 0.733730
0.721157 0.721157 0.721157
0.708110 0.708156 0.708156
0.690562 0.690562 0.690562
0.673335 0.673335 0.673335
0.653605 0.653620 0.653620
0.634791 0.634775 0.634775
0.622187 0.622171 0.622171
0.611109 0.611139 0.611139
0.594675 0.594675 0.594690
0.580179 0.580133 0.580163
0.558862 0.558877 0.558862
0.540978 0.541024 0.540993
0.514611 0.514641 0.514641
0.489937 0.489983 0.489983
0.462394 0.462425 0.462440
0.445594 0.445640 0.445640
0.746120 0.746136 0.746136
0.746578 0.746593 0.746578
0.747112 0.747128 0.747112
0.747921 0.747936 0.747921
0.749371 0.749386 0.749371
0.751217 0.751232 0.751217
0.753475 0.753491 0.753475
0.756024 0.756039 0.756024
0.759106 0.759121 0.759121
0.762738 0.762753 0.762753
0.766598 0.766583 0.766583
0.770932 0.770947 0.770932
0.775204 0.775189 0.775189
0.779309 0.779294 0.779294
0.775448 0.775448 0.775433
0.767575 0.767559 0.767559
0.757397 0.757412 0.757397
0.744640 0.744640 0.744625
0.732265 0.732265 0.732250
0.714977 0.714977 0.714977
0.699291 0.699321 0.699291
0.682231 0.682216 0.682200
0.666728 0.666713 0.666713
0.657191 0.657145 0.657145
0.649149 0.649134 0.649149
0.636866 0.636896 0.636881
0.625910 0.625910 0.625910
0.608988 0.608988 0.608957
0.598169 0.598169 0.598154
0.578866 0.578882 0.578866
0.561822 0.561791 0.561822
0.539468 0.539468 0.539483
0.771313 0.771313 0.771298
0.771496 0.771496 0.771496
0.771695 0.771695 0.771695
0.772366 0.772366 0.772351
0.773724 0.773709 0.773693
0.775082 0.775082 0.775082
0.776577 0.776593 0.776577
0.778363 0.778363 0.778347
0.780575 0.780591 0.780575
0.783734 0.783764 0.783764
0.788083 0.788083 0.788098
0.792813 0.792813 0.792828
0.796628 0.796628 0.796613
0.799100 0.799100 0.799085
0.801679 0.801679 0.801679
0.797513 0.797513 0.797498
0.788464 0.788479 0.788479
0.780011 0.780011 0.779995
0.768231 0.768231 0.768246
0.757641 0.757656 0.757656
0.743206 0.743236 0.743206
0.729625 0.729625 0.729625
0.715297 0.715297 0.715282
0.702083 0.702098 0.702083
0.693599 0.693568 0.693568
0.686824 0.686809 0.686824
0.678203 0.678203 0.678203
0.669261 0.669276 0.669261
0.657420 0.657420 0.657420
0.648463 0.648447 0.648447
0.634318 0.634302 0.634318
0.623438 0.623468 0.623453
0.797055 0.797040 0.797055
0.797330 0.797284 0.797299
0.797620 0.797650 0.797635
0.798047 0.798077 0.798062
0.798657 0.798657 0.798657
0.799420 0.799390 0.799390
0.800732 0.800717 0.800717
0.802670 0.802640 0.802640
0.804990 0.804974 0.804974
0.807599 0.807599 0.807599
0.810727 0.810742 0.810742
0.814466 0.814481 0.814466
0.818174 0.818189 0.818204
0.822171 0.822187 0.822202
0.823484 0.823484 0.823468
0.824109 0.824125 0.824140
0.821088 0.821103 0.821103
0.812955 0.812985 0.812985
0.805249 0.805264 0.805264
0.794354 0.794369 0.794354
0.784085 0.784070 0.784070
0.770657 0.770672 0.770657
0.757351 0.757382 0.757382
0.743969 0.743969 0.743954
0.731563 0.731579 0.731594
0.723690 0.723690 0.723690
0.719112 0.719112 0.719112
0.713481 0.713512 0.713512
0.707195 0.707210 0.707210
0.699657 0.699672 0.699657
0.695079 0.695064 0.695079
0.688914 0.688914 0.688914
0.819349 0.819364 0.819364
0.819593 0.819562 0.819593
0.819837 0.819852 0.819837
0.820340 0.820371 0.820356
0.821088 0.821103 0.821103
0.822065 0.822034 0.822034
0.823209 0.823179 0.823179
0.824598 0.824567 0.824582
0.826566 0.826551 0.826566
0.829084 0.829068 0.829068
0.831952 0.831922 0.831922
0.834714 0.834730 0.834730
0.837827 0.837842 0.837842
0.840909 0.840940 0.840940
0.844358 0.844358 0.844358
0.844724 0.844694 0.844724
0.843900 0.843931 0.843931
0.840513 0.840482 0.840482
0.833127 0.833112 0.833112
0.825940 0.825956 0.825956
0.816480 0.816465 0.816480
0.807172 0.807172 0.807172
0.795392 0.795361 0.795361
0.782956 0.782940 0.782956
0.770733 0.770733 0.770733
0.759793 0.759793 0.759808
0.753109 0.753094 0.753094
0.750637 0.750652 0.750652
0.748287 0.748287 0.748287
0.744854 0.744839 0.744839
0.742290 0.742290 0.742275
0.741360 0.741360 0.741360
0.841352 0.841382 0.841367
0.841459 0.841459 0.841444
0.841581 0.841550 0.841550
0.842084 0.842069 0.842069
0.842817 0.842802 0.842802
0.843702 0.843702 0.843687
0.844862 0.844846 0.844862
0.846220 0.846189 0.846204
0.847791 0.847791 0.847776
0.849653 0.849622 0.849638
0.852216 0.852247 0.852247
0.854856 0.854872 0.854872
0.857740 0.857740 0.857755
0.860838 0.860838 0.860853
0.864057 0.864027 0.864027
0.867445 0.867430 0.867430
0.867063 0.867048 0.867048
0.863844 0.863844 0.863829
0.860288 0.860273 0.860258
0.853315 0.853315 0.853315
0.846693 0.846708 0.846708
0.838285 0.838300 0.838300
0.829831 0.829816 0.829816
0.819257 0.819272 0.819272
0.808118 0.808133 0.808133
0.797040 0.796994 0.797009
0.788129 0.788129 0.788144
0.783078 0.783078 0.783063
0.783185 0.783215 0.783200
0.783581 0.783597 0.783581
0.782773 0.782773 0.782757
0.784054 0.784070 0.784070
0.861692 0.861677 0.861692
0.861814 0.861799 0.861799
0.861921 0.861921 0.861936
0.862181 0.862165 0.862150
0.862516 0.862516 0.862532
0.862959 0.862959 0.862974
0.863798 0.863798 0.863829
0.865003 0.864988 0.864988
0.866468 0.866453 0.866453
0.868299 0.868284 0.868284
0.870298 0.870283 0.870314
0.872633 0.872618 0.872602
0.875029 0.875044 0.875044
0.877546 0.877562 0.877546
0.880293 0.880293 0.880308
0.882933 0.882979 0.882963
0.885390 0.885390 0.885390
0.885618 0.885618 0.885618
0.882628 0.882612 0.882612
0.879042 0.879057 0.879042
0.873579 0.873594 0.873579
0.868009 0.867979 0.867979
0.861311 0.861296 0.861296
0.853758 0.853773 0.853773
0.845167 0.845136 0.845167
0.834806 0.834791 0.834806
0.825086 0.825086 0.825101
0.817456 0.817472 0.817472
0.812970 0.812985 0.812955
0.815396 0.815412 0.815412
0.818677 0.818692 0.818692
0.820661 0.820676 0.820661
0.879088 0.879118 0.879103
0.879240 0.879255 0.879255
0.879439 0.879423 0.879423
0.879667 0.879652 0.879667
0.880034 0.880049 0.880049
0.880827 0.880827 0.880842
0.881804 0.881804 0.881804
0.882963 0.882963 0.882979
0.884443 0.884443 0.884428
0.886137 0.886152 0.886152
0.888426 0.888426 0.888426
0.891218 0.891218 0.891203
0.894179 0.894179 0.894194
0.896803 0.896834 0.896819
0.900038 0.900069 0.900053
0.903487 0.903471 0.903487
0.905898 0.905898 0.905898
0.908232 0.908217 0.908232
0.909011 0.908995 0.908995
0.905181 0.905165 0.905181
0.901350 0.901335 0.901335
0.896269 0.896254 0.896269
0.890868 0.890883 0.890868
0.884901 0.884901 0.884917
0.877867 0.877867 0.877882
0.870375 0.870375 0.870390
0.861128 0.861128 0.861128
0.853040 0.853040 0.853040
0.847730 0.847715 0.847715
0.845090 0.845075 0.845075
0.848981 0.848997 0.848981
0.852628 0.852659 0.852659
0.898451 0.898467 0.898467
0.898528 0.898558 0.898543
0.898833 0.898863 0.898848
0.899290 0.899321 0.899306
0.899931 0.899962 0.899947
0.900725 0.900755 0.900740
0.901732 0.901762 0.901747
0.902922 0.902937 0.902937
0.904280 0.904265 0.904280
0.905776 0.905806 0.905791
0.908003 0.907988 0.908003
0.910689 0.910720 0.910704
0.912718 0.912718 0.912718
0.914595 0.914595 0.914595
0.917372 0.917342 0.917342
0.919829 0.919799 0.919799
0.922484 0.922499 0.922499
0.924468 0.924453 0.924468
