content/luts/b&w/black_and_white_09.cube
#Created by: inPixio
#Copyright: (C) Copyright 2022 inPixio
TITLE "Black & White 04"
#LUT size
LUT_3D_SIZE 33
#LUT data points
0.000000 0.000000 0.000000
0.009247 0.009247 0.009247
0.019012 0.019012 0.019012
0.028320 0.028320 0.028320
0.038086 0.038086 0.038086
0.047607 0.047607 0.047607
0.057404 0.057404 0.057404
0.067352 0.067352 0.067352
0.077362 0.077362 0.077362
0.087524 0.087524 0.087524
0.097870 0.097870 0.097870
0.108307 0.108307 0.108307
0.118866 0.118866 0.118866
0.129578 0.129578 0.129578
0.140442 0.140442 0.140442
0.151367 0.151367 0.151367
0.162384 0.162384 0.162384
0.173462 0.173462 0.173462
0.184601 0.184601 0.184601
0.195770 0.195770 0.195770
0.207001 0.207001 0.207001
0.218170 0.218170 0.218170
0.229279 0.229279 0.229279
0.240479 0.240479 0.240479
0.251587 0.251587 0.251587
0.262573 0.262573 0.262573
0.273499 0.273499 0.273499
0.284302 0.284302 0.284302
0.295013 0.295013 0.294983
0.305634 0.305634 0.305573
0.315979 0.316010 0.315918
0.326263 0.326324 0.326233
0.336365 0.336426 0.336334
0.009247 0.009247 0.009247
0.018677 0.018677 0.018677
0.027924 0.027924 0.027924
0.037720 0.037720 0.037720
0.047516 0.047516 0.047516
0.057373 0.057373 0.057373
0.067078 0.067078 0.067078
0.077087 0.077087 0.077087
0.087280 0.087280 0.087280
0.097504 0.097504 0.097504
0.108032 0.108032 0.108032
0.118622 0.118622 0.118622
0.129303 0.129303 0.129303
0.140106 0.140106 0.140106
0.151031 0.151031 0.151031
0.162048 0.162048 0.162048
0.173096 0.173096 0.173096
0.184235 0.184235 0.184235
0.195465 0.195465 0.195465
0.206635 0.206635 0.206635
0.217804 0.217804 0.217804
0.228943 0.228943 0.228943
0.240112 0.240112 0.240112
0.251221 0.251221 0.251221
0.262146 0.262146 0.262146
0.273102 0.273102 0.273102
0.283997 0.283997 0.283997
0.294586 0.294586 0.294586
0.305176 0.305176 0.305115
0.315613 0.315613 0.315552
0.325958 0.325989 0.325897
0.336121 0.336151 0.336060
0.346161 0.346191 0.346100
0.018311 0.018311 0.018311
0.027893 0.027893 0.027893
0.037354 0.037354 0.037354
0.047180 0.047180 0.047180
0.056854 0.056854 0.056854
0.066803 0.066803 0.066803
0.076843 0.076843 0.076843
0.086884 0.086884 0.086884
0.097168 0.097168 0.097168
0.107727 0.107727 0.107727
0.118286 0.118286 0.118286
0.129028 0.129028 0.129028
0.139832 0.139832 0.139832
0.150696 0.150696 0.150696
0.161713 0.161713 0.161713
0.172791 0.172791 0.172791
0.183899 0.183899 0.183899
0.195038 0.195038 0.195038
0.206238 0.206238 0.206238
0.217438 0.217438 0.217438
0.228607 0.228607 0.228607
0.239746 0.239746 0.239746
0.250885 0.250885 0.250885
0.261902 0.261902 0.261902
0.272797 0.272797 0.272797
0.283600 0.283600 0.283600
0.294281 0.294281 0.294281
0.304840 0.304840 0.304779
0.315247 0.315277 0.315186
0.325623 0.325684 0.325562
0.335785 0.335846 0.335754
0.345673 0.345764 0.345642
0.355591 0.355682 0.355591
0.027466 0.027466 0.027466
0.037292 0.037292 0.037292
0.046875 0.046875 0.046875
0.056519 0.056519 0.056519
0.066284 0.066284 0.066284
0.076385 0.076385 0.076385
0.086609 0.086609 0.086609
0.096802 0.096802 0.096802
0.107239 0.107239 0.107239
0.117889 0.117889 0.117889
0.128601 0.128601 0.128601
0.139404 0.139404 0.139404
0.150299 0.150299 0.150299
0.161285 0.161285 0.161285
0.172394 0.172394 0.172394
0.183502 0.183502 0.183502
0.194641 0.194641 0.194641
0.205841 0.205841 0.205841
0.217041 0.217041 0.217041
0.228241 0.228241 0.228241
0.239380 0.239380 0.239380
0.250427 0.250427 0.250427
0.261414 0.261414 0.261414
0.272339 0.272339 0.272339
0.283203 0.283203 0.283203
0.293915 0.293915 0.293884
0.304535 0.304535 0.304474
0.314941 0.314972 0.314880
0.325226 0.325287 0.325165
0.335449 0.335510 0.335388
0.345398 0.345459 0.345337
0.355316 0.355408 0.355316
0.365021 0.365112 0.365021
0.036926 0.036926 0.036926
0.046265 0.046265 0.046265
0.056244 0.056244 0.056244
0.066040 0.066040 0.066040
0.075928 0.075928 0.075928
0.086212 0.086212 0.086212
0.096527 0.096527 0.096527
0.106903 0.106903 0.106903
0.117462 0.117462 0.117462
0.128235 0.128235 0.128235
0.139069 0.139069 0.139069
0.149963 0.149963 0.149963
0.160919 0.160919 0.160919
0.171997 0.171997 0.171997
0.183105 0.183105 0.183105
0.194275 0.194275 0.194275
0.205444 0.205444 0.205444
0.216644 0.216644 0.216644
0.227844 0.227844 0.227844
0.238983 0.238983 0.238983
0.250061 0.250061 0.250061
0.261078 0.261078 0.261078
0.272003 0.272003 0.272003
0.282867 0.282867 0.282867
0.293579 0.293579 0.293549
0.304138 0.304138 0.304077
0.314606 0.314606 0.314545
0.324890 0.324951 0.324860
0.335052 0.335114 0.334991
0.345123 0.345184 0.345093
0.354950 0.355011 0.354919
0.364746 0.364838 0.364746
0.374359 0.374451 0.374359
0.046204 0.046204 0.046204
0.055878 0.055878 0.055878
0.065674 0.065674 0.065674
0.075684 0.075684 0.075684
0.085815 0.085815 0.085815
0.096161 0.096161 0.096161
0.106537 0.106537 0.106537
0.117157 0.117157 0.117157
0.127838 0.127838 0.127838
0.138672 0.138672 0.138672
0.149628 0.149628 0.149628
0.160583 0.160583 0.160583
0.171631 0.171631 0.171631
0.182709 0.182709 0.182709
0.193909 0.193909 0.193909
0.205109 0.205109 0.205109
0.216248 0.216248 0.216248
0.227386 0.227386 0.227386
0.238586 0.238586 0.238586
0.249695 0.249695 0.249695
0.260712 0.260712 0.260712
0.271667 0.271667 0.271667
0.282501 0.282501 0.282501
0.293213 0.293213 0.293182
0.303802 0.303802 0.303741
0.314240 0.314270 0.314178
0.324524 0.324585 0.324463
0.334686 0.334747 0.334656
0.344727 0.344788 0.344696
0.354645 0.354706 0.354614
0.364410 0.364502 0.364410
0.374023 0.374115 0.374023
0.383636 0.383728 0.383636
0.055573 0.055573 0.055573
0.065460 0.065460 0.065460
0.075409 0.075409 0.075409
0.085541 0.085541 0.085541
0.095764 0.095764 0.095764
0.106293 0.106293 0.106293
0.116821 0.116821 0.116821
0.127502 0.127502 0.127502
0.138367 0.138367 0.138367
0.149261 0.149261 0.149261
0.160217 0.160217 0.160217
0.171295 0.171295 0.171295
0.182404 0.182404 0.182404
0.193573 0.193573 0.193573
0.204742 0.204742 0.204742
0.215912 0.215912 0.215912
0.227081 0.227081 0.227081
0.238220 0.238220 0.238220
0.249329 0.249329 0.249329
0.260376 0.260376 0.260376
0.271301 0.271301 0.271301
0.282135 0.282135 0.282135
0.292908 0.292908 0.292877
0.303467 0.303467 0.303436
0.313904 0.313904 0.313843
0.324219 0.324280 0.324188
0.334412 0.334473 0.334381
0.344452 0.344513 0.344391
0.354309 0.354401 0.354309
0.364075 0.364197 0.364075
0.373749 0.373840 0.373749
0.383362 0.383453 0.383362
0.392822 0.392914 0.392822
0.065125 0.065125 0.065125
0.075134 0.075134 0.075134
0.085205 0.085205 0.085205
0.095398 0.095398 0.095398
0.105804 0.105804 0.105804
0.116486 0.116486 0.116486
0.127228 0.127228 0.127228
0.137970 0.137970 0.137970
0.148865 0.148865 0.148865
0.159851 0.159851 0.159851
0.170959 0.170959 0.170959
0.182037 0.182037 0.182037
0.193176 0.193176 0.193176
0.204376 0.204376 0.204376
0.215515 0.215515 0.215515
0.226715 0.226715 0.226715
0.237885 0.237885 0.237885
0.248962 0.248962 0.248962
0.259979 0.259979 0.259979
0.270935 0.270935 0.270935
0.281799 0.281799 0.281799
0.292511 0.292511 0.292480
0.303101 0.303101 0.303040
0.313568 0.313568 0.313507
0.323914 0.323944 0.323853
0.334076 0.334137 0.334015
0.344055 0.344147 0.344025
0.353973 0.354065 0.353973
0.363800 0.363892 0.363800
0.373474 0.373566 0.373474
0.383057 0.383148 0.383057
0.392456 0.392548 0.392456
0.401764 0.401855 0.401764
0.074707 0.074707 0.074707
0.084900 0.084900 0.084900
0.095123 0.095123 0.095123
0.105560 0.105560 0.105560
0.116058 0.116058 0.116058
0.126740 0.126740 0.126740
0.137573 0.137573 0.137573
0.148499 0.148499 0.148499
0.159485 0.159485 0.159485
0.170502 0.170502 0.170502
0.181610 0.181610 0.181610
0.192841 0.192841 0.192841
0.204010 0.204010 0.204010
0.215149 0.215149 0.215149
0.226349 0.226349 0.226349
0.237488 0.237488 0.237488
0.248596 0.248596 0.248596
0.259613 0.259613 0.259613
0.270569 0.270569 0.270569
0.281403 0.281403 0.281403
0.292145 0.292145 0.292114
0.302734 0.302734 0.302704
0.313232 0.313232 0.313171
0.323517 0.323578 0.323486
0.333710 0.333771 0.333679
0.343750 0.343842 0.343719
0.353607 0.353699 0.353607
0.363434 0.363525 0.363434
0.373138 0.373230 0.373138
0.382721 0.382812 0.382721
0.392181 0.392273 0.392181
0.401459 0.401550 0.401459
0.410675 0.410767 0.410675
0.084503 0.084503 0.084503
0.094818 0.094818 0.094818
0.105316 0.105316 0.105316
0.115662 0.115662 0.115662
0.126465 0.126465 0.126465
0.137268 0.137268 0.137268
0.148163 0.148163 0.148163
0.159119 0.159119 0.159119
0.170166 0.170166 0.170166
0.181305 0.181305 0.181305
0.192444 0.192444 0.192444
0.203583 0.203583 0.203583
0.214813 0.214813 0.214813
0.226013 0.226013 0.226013
0.237122 0.237122 0.237122
0.248260 0.248260 0.248260
0.259277 0.259277 0.259277
0.270203 0.270203 0.270203
0.281067 0.281067 0.281067
0.291779 0.291779 0.291748
0.302399 0.302399 0.302368
0.312866 0.312866 0.312805
0.323181 0.323212 0.323120
0.333374 0.333435 0.333313
0.343414 0.343475 0.343384
0.353302 0.353394 0.353271
0.363098 0.363190 0.363098
0.372803 0.372894 0.372803
0.382355 0.382446 0.382355
0.391846 0.391937 0.391846
0.401154 0.401245 0.401154
0.410400 0.410492 0.410400
0.419556 0.419647 0.419556
0.094452 0.094452 0.094452
0.104919 0.104919 0.104919
0.115479 0.115479 0.115479
0.126129 0.126129 0.126129
0.136841 0.136841 0.136841
0.147766 0.147766 0.147766
0.158813 0.158813 0.158813
0.169800 0.169800 0.169800
0.180939 0.180939 0.180939
0.192078 0.192078 0.192078
0.203339 0.203339 0.203339
0.214417 0.214417 0.214417
0.225586 0.225586 0.225586
0.236786 0.236786 0.236786
0.247894 0.247894 0.247894
0.258942 0.258942 0.258942
0.269867 0.269867 0.269867
0.280701 0.280701 0.280701
0.291443 0.291443 0.291412
0.302032 0.302032 0.302002
0.312500 0.312531 0.312439
0.322845 0.322876 0.322784
0.333038 0.333069 0.332977
0.343109 0.343170 0.343048
0.353027 0.353119 0.352997
0.362793 0.362885 0.362793
0.372467 0.372559 0.372467
0.382050 0.382141 0.382050
0.391541 0.391602 0.391541
0.400909 0.401001 0.400909
0.410126 0.410217 0.410126
0.419281 0.419342 0.419281
0.428314 0.428375 0.428314
0.104614 0.104614 0.104614
0.115143 0.115143 0.115143
0.125793 0.125793 0.125793
0.136505 0.136505 0.136505
0.147430 0.147430 0.147430
0.158386 0.158386 0.158386
0.169434 0.169434 0.169434
0.180542 0.180542 0.180542
0.191681 0.191681 0.191681
0.202850 0.202850 0.202850
0.214020 0.214020 0.214020
0.225250 0.225250 0.225250
0.236328 0.236328 0.236328
0.247467 0.247467 0.247467
0.258545 0.258545 0.258545
0.269531 0.269531 0.269531
0.280334 0.280334 0.280334
0.291046 0.291046 0.291016
0.301666 0.301666 0.301636
0.312134 0.312164 0.312073
0.322479 0.322510 0.322418
0.332703 0.332733 0.332642
0.342743 0.342804 0.342682
0.352661 0.352753 0.352661
0.362457 0.362549 0.362457
0.372162 0.372284 0.372162
0.381744 0.381836 0.381744
0.391205 0.391296 0.391205
0.400574 0.400665 0.400574
0.409821 0.409912 0.409821
0.418976 0.419037 0.418976
0.428040 0.428101 0.428040
0.437012 0.437073 0.437012
0.114838 0.114838 0.114838
0.125458 0.125458 0.125458
0.136230 0.136230 0.136230
0.147034 0.147034 0.147034
0.158081 0.158081 0.158081
0.169067 0.169067 0.169067
0.180206 0.180206 0.180206
0.191376 0.191376 0.191376
0.202484 0.202484 0.202484
0.213654 0.213654 0.213654
0.224854 0.224854 0.224854
0.236053 0.236053 0.236053
0.247131 0.247131 0.247131
0.258118 0.258118 0.258118
0.269073 0.269073 0.269073
0.279968 0.279968 0.279968
0.290741 0.290741 0.290710
0.301300 0.301300 0.301270
0.311798 0.311798 0.311737
0.322144 0.322174 0.322083
0.332336 0.332397 0.332306
0.342438 0.342499 0.342377
0.352356 0.352448 0.352325
0.362152 0.362244 0.362152
0.371826 0.371918 0.371826
0.381409 0.381500 0.381409
0.390900 0.390991 0.390900
0.400269 0.400330 0.400269
0.409515 0.409607 0.409515
0.418671 0.418762 0.418671
0.427734 0.427795 0.427734
0.436707 0.436768 0.436707
0.445557 0.445618 0.445557
0.125000 0.125000 0.125000
0.135864 0.135864 0.135864
0.146759 0.146759 0.146759
0.157715 0.157715 0.157715
0.168732 0.168732 0.168732
0.179779 0.179779 0.179779
0.190979 0.190979 0.190979
0.202148 0.202148 0.202148
0.213318 0.213318 0.213318
0.224487 0.224487 0.224487
0.235626 0.235626 0.235626
0.246765 0.246765 0.246765
0.257812 0.257812 0.257812
0.268768 0.268768 0.268768
0.279602 0.279602 0.279602
0.290344 0.290344 0.290314
0.300964 0.300964 0.300934
0.311432 0.311462 0.311401
0.321808 0.321838 0.321747
0.332001 0.332062 0.331970
0.342072 0.342133 0.342041
0.352020 0.352081 0.351990
0.361816 0.361908 0.361816
0.371521 0.371613 0.371521
0.381134 0.381226 0.381134
0.390564 0.390656 0.390564
0.399902 0.399994 0.399902
0.409210 0.409271 0.409210
0.418365 0.418457 0.418365
0.427429 0.427521 0.427429
0.436401 0.436462 0.436401
0.445251 0.445343 0.445251
0.454010 0.454071 0.454010
0.135406 0.135406 0.135406
0.146423 0.146423 0.146423
0.157349 0.157349 0.157349
0.168365 0.168365 0.168365
0.179413 0.179413 0.179413
0.190582 0.190582 0.190582
0.201782 0.201782 0.201782
0.212982 0.212982 0.212982
0.224121 0.224121 0.224121
0.235321 0.235321 0.235321
0.246399 0.246399 0.246399
0.257416 0.257416 0.257416
0.268402 0.268402 0.268402
0.279297 0.279297 0.279297
0.289978 0.289978 0.289978
0.300629 0.300629 0.300598
0.311096 0.311127 0.311066
0.321472 0.321503 0.321411
0.331635 0.331696 0.331604
0.341766 0.341827 0.341705
0.351715 0.351776 0.351685
0.361481 0.361572 0.361481
0.371185 0.371277 0.371185
0.380798 0.380890 0.380798
0.390289 0.390381 0.390289
0.399658 0.399750 0.399658
0.408875 0.408966 0.408875
0.418060 0.418152 0.418060
0.427155 0.427246 0.427155
0.436127 0.436218 0.436127
0.444977 0.445038 0.444977
0.453766 0.453857 0.453766
0.462494 0.462555 0.462494
0.146088 0.146088 0.146088
0.157074 0.157074 0.157074
0.168060 0.168060 0.168060
0.179108 0.179108 0.179108
0.190216 0.190216 0.190216
0.201416 0.201416 0.201416
0.212616 0.212616 0.212616
0.223816 0.223816 0.223816
0.234894 0.234894 0.234894
0.246063 0.246063 0.246063
0.257141 0.257141 0.257141
0.268066 0.268066 0.268066
0.278931 0.278931 0.278931
0.289703 0.289703 0.289673
0.300323 0.300323 0.300293
0.310730 0.310760 0.310699
0.321136 0.321167 0.321075
0.331329 0.331360 0.331268
0.341431 0.341492 0.341400
0.351349 0.351410 0.351318
0.361176 0.361267 0.361176
0.370880 0.370972 0.370880
0.380463 0.380554 0.380463
0.389954 0.390045 0.389954
0.399353 0.399445 0.399353
0.408600 0.408691 0.408600
0.417725 0.417816 0.417725
0.426849 0.426910 0.426849
0.435822 0.435913 0.435822
0.444733 0.444794 0.444733
0.453491 0.453552 0.453491
0.462189 0.462250 0.462189
0.470856 0.470917 0.470856
0.156769 0.156769 0.156769
0.167816 0.167816 0.167816
0.178833 0.178833 0.178833
0.189911 0.189911 0.189911
0.201050 0.201050 0.201050
0.212219 0.212219 0.212219
0.223419 0.223419 0.223419
0.234589 0.234589 0.234589
0.245697 0.245697 0.245697
0.256744 0.256744 0.256744
0.267731 0.267731 0.267731
0.278595 0.278595 0.278595
0.289337 0.289337 0.289337
0.299988 0.299988 0.299957
0.310455 0.310455 0.310394
0.320770 0.320801 0.320740
0.330994 0.331024 0.330933
0.341064 0.341125 0.341034
0.350983 0.351074 0.350952
0.360870 0.360931 0.360840
0.370544 0.370636 0.370544
0.380127 0.380219 0.380127
0.389587 0.389679 0.389587
0.399017 0.399109 0.399017
0.408325 0.408386 0.408325
0.417480 0.417572 0.417480
0.426483 0.426575 0.426483
0.435516 0.435608 0.435516
0.444427 0.444489 0.444427
0.453217 0.453278 0.453217
0.461914 0.462006 0.461914
0.470520 0.470581 0.470520
0.479095 0.479187 0.479095
0.167419 0.167419 0.167419
0.178558 0.178558 0.178558
0.189575 0.189575 0.189575
0.200714 0.200714 0.200714
0.211884 0.211884 0.211884
0.223022 0.223022 0.223022
0.234192 0.234192 0.234192
0.245361 0.245361 0.245361
0.256409 0.256409 0.256409
0.267365 0.267365 0.267365
0.278229 0.278229 0.278229
0.289001 0.289001 0.288971
0.299591 0.299591 0.299561
0.310089 0.310120 0.310059
0.320435 0.320465 0.320374
0.330658 0.330688 0.330597
0.340759 0.340790 0.340698
0.350708 0.350800 0.350708
0.360535 0.360626 0.360535
0.370239 0.370331 0.370239
0.379852 0.379944 0.379852
0.389313 0.389404 0.389313
0.398682 0.398773 0.398682
0.407959 0.408051 0.407959
0.417175 0.417236 0.417175
0.426239 0.426331 0.426239
0.435181 0.435272 0.435181
0.444092 0.444183 0.444092
0.452942 0.453003 0.452942
0.461670 0.461731 0.461670
0.470245 0.470337 0.470245
0.478821 0.478882 0.478821
0.487305 0.487396 0.487305
0.178162 0.178162 0.178162
0.189331 0.189331 0.189331
0.200439 0.200439 0.200439
0.211609 0.211609 0.211609
0.222717 0.222717 0.222717
0.233826 0.233826 0.233826
0.244995 0.244995 0.244995
0.256073 0.256073 0.256073
0.266998 0.266998 0.266998
0.277893 0.277893 0.277893
0.288635 0.288635 0.288635
0.299286 0.299286 0.299255
0.309814 0.309814 0.309753
0.320099 0.320129 0.320038
0.330322 0.330383 0.330292
0.340424 0.340515 0.340393
0.350342 0.350403 0.350311
0.360199 0.360291 0.360199
0.369873 0.369995 0.369873
0.379517 0.379608 0.379517
0.389038 0.389130 0.389038
0.398376 0.398468 0.398376
0.407654 0.407745 0.407654
0.416840 0.416931 0.416840
0.425903 0.425995 0.425903
0.434875 0.434967 0.434875
0.443787 0.443878 0.443787
0.452637 0.452698 0.452637
0.461334 0.461395 0.461334
0.470032 0.470093 0.470032
0.478577 0.478638 0.478577
0.487091 0.487152 0.487091
0.495483 0.495544 0.495483
0.188965 0.188965 0.188965
0.200165 0.200165 0.200165
0.211334 0.211334 0.211334
0.222412 0.222412 0.222412
0.233521 0.233521 0.233521
0.244598 0.244598 0.244598
0.255737 0.255737 0.255737
0.266663 0.266663 0.266663
0.277527 0.277527 0.277527
0.288300 0.288300 0.288300
0.298950 0.298950 0.298920
0.309418 0.309448 0.309387
0.319794 0.319824 0.319733
0.330017 0.330078 0.329956
0.340118 0.340179 0.340057
0.350098 0.350159 0.350067
0.359924 0.360016 0.359894
0.369568 0.369659 0.369568
0.379181 0.379272 0.379181
0.388672 0.388763 0.388672
0.398102 0.398193 0.398102
0.407379 0.407471 0.407379
0.416504 0.416565 0.416504
0.425629 0.425690 0.425629
0.434631 0.434692 0.434631
0.443512 0.443573 0.443512
0.452332 0.452393 0.452332
0.461090 0.461151 0.461090
0.469727 0.469788 0.469727
0.478302 0.478363 0.478302
0.486816 0.486877 0.486816
0.495270 0.495331 0.495239
0.503601 0.503662 0.503571
0.199799 0.199799 0.199799
0.211029 0.211029 0.211029
0.222198 0.222198 0.222198
0.233215 0.233215 0.233215
0.244293 0.244293 0.244293
0.255341 0.255341 0.255341
0.266357 0.266357 0.266357
0.277161 0.277161 0.277161
0.287964 0.287964 0.287964
0.298615 0.298615 0.298584
0.309113 0.309113 0.309052
0.319458 0.319489 0.319397
0.329651 0.329712 0.329590
0.339722 0.339783 0.339691
0.349762 0.349823 0.349731
0.359589 0.359680 0.359558
0.369293 0.369415 0.369293
0.378906 0.378998 0.378906
0.388397 0.388489 0.388397
0.397736 0.397827 0.397736
0.407074 0.407166 0.407074
0.416290 0.416382 0.416290
0.425293 0.425385 0.425293
0.434265 0.434326 0.434265
0.443237 0.443329 0.443237
0.452057 0.452118 0.452057
0.460785 0.460846 0.460785
0.469452 0.469513 0.469452
0.478027 0.478088 0.478027
0.486481 0.486572 0.486481
0.494965 0.495026 0.494965
0.503387 0.503448 0.503357
0.511688 0.511749 0.511658
0.210663 0.210663 0.210663
0.221954 0.221954 0.221954
0.233063 0.233063 0.233063
0.244080 0.244080 0.244080
0.255066 0.255066 0.255066
0.265961 0.265961 0.265961
0.276886 0.276886 0.276886
0.287598 0.287598 0.287567
0.298248 0.298248 0.298218
0.308777 0.308777 0.308746
0.319153 0.319183 0.319092
0.329376 0.329407 0.329315
0.339478 0.339508 0.339417
0.349365 0.349457 0.349365
0.359222 0.359314 0.359222
0.368988 0.369080 0.368988
0.378571 0.378662 0.378571
0.388092 0.388184 0.388092
0.397491 0.397583 0.397491
0.406769 0.406860 0.406769
0.415924 0.415985 0.415924
0.425079 0.425140 0.425079
0.434052 0.434113 0.434052
0.442932 0.442993 0.442932
0.451721 0.451782 0.451721
0.460449 0.460510 0.460449
0.469147 0.469208 0.469147
0.477753 0.477814 0.477753
0.486237 0.486298 0.486237
0.494659 0.494720 0.494659
0.503052 0.503113 0.503021
0.511444 0.511505 0.511414
0.519714 0.519775 0.519684
0.221405 0.221405 0.221405
0.232758 0.232758 0.232758
0.243805 0.243805 0.243805
0.254791 0.254791 0.254791
0.265717 0.265717 0.265717
0.276489 0.276489 0.276489
0.287292 0.287292 0.287292
0.297943 0.297943 0.297913
0.308441 0.308472 0.308411
0.318787 0.318817 0.318726
0.329071 0.329102 0.329010
0.339142 0.339233 0.339111
0.349121 0.349213 0.349091
0.358978 0.359070 0.358978
0.368652 0.368744 0.368652
0.378265 0.378357 0.378265
0.387787 0.387878 0.387787
0.397125 0.397217 0.397125
0.406433 0.406525 0.406433
0.415619 0.415710 0.415619
0.424744 0.424805 0.424744
0.433746 0.433807 0.433746
0.442719 0.442810 0.442719
0.451508 0.451569 0.451508
0.460205 0.460266 0.460205
0.468872 0.468933 0.468872
0.477386 0.477448 0.477386
0.485901 0.485992 0.485901
0.494385 0.494446 0.494385
0.502808 0.502869 0.502777
0.511139 0.511200 0.511108
0.519348 0.519409 0.519318
0.527588 0.527649 0.527557
0.232330 0.232330 0.232330
0.243500 0.243500 0.243500
0.254547 0.254547 0.254547
0.265503 0.265503 0.265503
0.276276 0.276276 0.276276
0.286987 0.286987 0.286957
0.297607 0.297607 0.297577
0.308136 0.308136 0.308075
0.318542 0.318542 0.318481
0.328766 0.328796 0.328705
0.338867 0.338928 0.338837
0.348816 0.348907 0.348816
0.358643 0.358734 0.358643
0.368378 0.368469 0.368378
0.378021 0.378113 0.378021
0.387512 0.387604 0.387512
0.396881 0.396942 0.396881
0.406128 0.406219 0.406128
0.415344 0.415436 0.415344
0.424438 0.424530 0.424438
0.433411 0.433472 0.433411
0.442322 0.442413 0.442322
0.451202 0.451263 0.451202
0.459961 0.460022 0.459961
0.468567 0.468628 0.468567
0.477173 0.477264 0.477173
0.485657 0.485718 0.485657
0.494110 0.494171 0.494080
0.502502 0.502594 0.502502
0.510864 0.510925 0.510834
0.519165 0.519226 0.519135
0.527344 0.527405 0.527313
0.535522 0.535583 0.535492
0.243164 0.243164 0.243164
0.254303 0.254303 0.254303
0.265167 0.265167 0.265167
0.275970 0.275970 0.275970
0.286713 0.286713 0.286713
0.297333 0.297333 0.297302
0.307800 0.307800 0.307739
0.318176 0.318207 0.318146
0.328430 0.328461 0.328369
0.338531 0.338593 0.338470
0.348541 0.348602 0.348511
0.358368 0.358459 0.358368
0.368103 0.368195 0.368103
0.377716 0.377808 0.377716
0.387177 0.387268 0.387177
0.396576 0.396667 0.396576
0.405853 0.405914 0.405853
0.415009 0.415070 0.415009
0.424103 0.424194 0.424103
0.433197 0.433258 0.433197
0.442047 0.442139 0.442047
0.450836 0.450897 0.450836
0.459625 0.459717 0.459625
0.468292 0.468353 0.468292
0.476807 0.476898 0.476807
0.485413 0.485474 0.485413
0.493835 0.493896 0.493805
0.502289 0.502350 0.502258
0.510590 0.510651 0.510559
0.518890 0.518951 0.518860
0.527130 0.527191 0.527100
0.535278 0.535339 0.535248
0.543457 0.543549 0.543427
0.253815 0.253815 0.253815
0.265015 0.265015 0.265015
0.275696 0.275696 0.275696
0.286407 0.286407 0.286377
0.297028 0.297028 0.296997
0.307526 0.307526 0.307465
0.317902 0.317932 0.317841
0.328156 0.328186 0.328094
0.338226 0.338287 0.338196
0.348175 0.348236 0.348145
0.358063 0.358154 0.358063
0.367798 0.367889 0.367798
0.377411 0.377502 0.377411
0.386932 0.387024 0.386932
0.396301 0.396393 0.396301
0.405609 0.405701 0.405609
0.414795 0.414886 0.414795
0.423828 0.423920 0.423828
0.432861 0.432922 0.432861
0.441772 0.441833 0.441772
0.450592 0.450653 0.450592
0.459351 0.459412 0.459351
0.467987 0.468048 0.467987
0.476562 0.476654 0.476562
0.485107 0.485168 0.485107
0.493561 0.493622 0.493561
0.501953 0.502014 0.501923
0.510284 0.510345 0.510254
0.518616 0.518677 0.518585
0.526794 0.526855 0.526764
0.535095 0.535156 0.535065
0.543182 0.543274 0.543152
0.551331 0.551422 0.551300
0.264496 0.264496 0.264496
0.275665 0.275665 0.275665
0.286163 0.286163 0.286163
0.296844 0.296844 0.296783
0.307312 0.307312 0.307251
0.317627 0.317657 0.317566
0.327881 0.327942 0.327820
0.337921 0.337982 0.337891
0.347931 0.347992 0.347900
0.357727 0.357819 0.357727
0.367462 0.367554 0.367462
0.377075 0.377167 0.377075
0.386566 0.386658 0.386566
0.395996 0.396088 0.395996
0.405304 0.405396 0.405304
0.414490 0.414581 0.414490
0.423584 0.423676 0.423584
0.432587 0.432648 0.432587
0.441467 0.441559 0.441467
0.450348 0.450439 0.450348
0.459106 0.459167 0.459106
0.467743 0.467804 0.467743
0.476379 0.476471 0.476379
0.484863 0.484955 0.484863
0.493286 0.493347 0.493286
0.501709 0.501770 0.501678
