content/luts/b&w/black_and_white_10.cube
#Created by: inPixio
#Copyright: (C) Copyright 2022 inPixio
TITLE "Black & White 12"
#LUT size
LUT_3D_SIZE 33
#LUT data points
0.000000 0.000000 0.000000
0.004608 0.004608 0.004608
0.008881 0.008881 0.008881
0.013733 0.013733 0.013733
0.019745 0.019745 0.019745
0.026733 0.026733 0.026733
0.035553 0.035553 0.035553
0.045441 0.045441 0.045441
0.055817 0.055817 0.055817
0.066406 0.066406 0.066406
0.077332 0.077332 0.077332
0.088684 0.088684 0.088684
0.100433 0.100433 0.100433
0.112579 0.112579 0.112579
0.125275 0.125275 0.125275
0.138489 0.138489 0.138489
0.152313 0.152313 0.152313
0.166809 0.166809 0.166809
0.182098 0.182007 0.181854
0.198578 0.198120 0.197571
0.216278 0.215088 0.213928
0.235016 0.232971 0.230865
0.254852 0.251587 0.248291
0.275574 0.270905 0.266113
0.296967 0.290619 0.284119
0.318909 0.310608 0.302246
0.340973 0.330811 0.320404
0.363251 0.350952 0.338501
0.385437 0.371002 0.356415
0.407410 0.390808 0.374146
0.428772 0.410156 0.391479
0.449707 0.429199 0.408508
0.469879 0.447540 0.425140
0.003479 0.003479 0.003479
0.008087 0.008087 0.008087
0.012939 0.012939 0.012939
0.018341 0.018341 0.018341
0.025208 0.025208 0.025208
0.033691 0.033691 0.033691
0.043365 0.043365 0.043365
0.053650 0.053650 0.053650
0.064209 0.064209 0.064209
0.075165 0.075165 0.075165
0.086395 0.086395 0.086395
0.098083 0.098083 0.098083
0.110199 0.110199 0.110199
0.122742 0.122742 0.122742
0.135864 0.135864 0.135864
0.149597 0.149597 0.149597
0.163910 0.163849 0.163849
0.179047 0.178894 0.178802
0.195282 0.194885 0.194458
0.212646 0.211700 0.210663
0.231171 0.229370 0.227509
0.250824 0.247864 0.244812
0.271423 0.267029 0.262543
0.292694 0.286621 0.280548
0.314331 0.306519 0.298553
0.336578 0.326752 0.316803
0.358856 0.346924 0.334900
0.380859 0.366882 0.352722
0.402893 0.386719 0.370483
0.424438 0.406219 0.387909
0.445587 0.425415 0.405121
0.465851 0.443970 0.421844
0.485413 0.461884 0.438141
0.007294 0.007294 0.007294
0.011719 0.011719 0.011719
0.017212 0.017212 0.017212
0.024048 0.024048 0.024048
0.031799 0.031799 0.031799
0.041290 0.041290 0.041290
0.051483 0.051483 0.051483
0.062012 0.062012 0.062012
0.072998 0.072998 0.072998
0.084198 0.084198 0.084198
0.095703 0.095703 0.095703
0.107727 0.107727 0.107727
0.120148 0.120148 0.120148
0.133179 0.133179 0.133179
0.146851 0.146851 0.146851
0.161041 0.161041 0.161041
0.175964 0.175964 0.175842
0.191986 0.191711 0.191284
0.209106 0.208313 0.207367
0.227448 0.225861 0.224091
0.246948 0.244171 0.241364
0.267334 0.263153 0.259033
0.288452 0.282715 0.276978
0.310150 0.302643 0.295044
0.332153 0.322723 0.313171
0.354340 0.342834 0.331238
0.376587 0.363007 0.349274
0.398560 0.382874 0.367004
0.420166 0.402374 0.384430
0.441376 0.421600 0.401703
0.461823 0.440277 0.418518
0.481537 0.458282 0.434845
0.500580 0.475830 0.450928
0.010895 0.010895 0.010895
0.016357 0.016357 0.016357
0.022552 0.022552 0.022552
0.030212 0.030212 0.030212
0.039520 0.039520 0.039520
0.049500 0.049500 0.049500
0.059967 0.059967 0.059967
0.070770 0.070770 0.070770
0.081818 0.081818 0.081818
0.093323 0.093323 0.093323
0.105255 0.105255 0.105255
0.117676 0.117676 0.117676
0.130585 0.130585 0.130585
0.144012 0.144012 0.144012
0.158142 0.158142 0.158142
0.172882 0.172882 0.172852
0.188660 0.188446 0.188141
0.205566 0.204895 0.204071
0.223724 0.222260 0.220703
0.242981 0.240448 0.237885
0.263184 0.259338 0.255402
0.284119 0.278748 0.273285
0.305695 0.298553 0.291351
0.327667 0.318665 0.309479
0.349884 0.338867 0.327637
0.372131 0.358948 0.345642
0.394135 0.378876 0.363464
0.415924 0.398560 0.381012
0.437134 0.417755 0.398285
0.457764 0.436493 0.415100
0.477631 0.454681 0.431610
0.496796 0.472382 0.447723
0.515137 0.489441 0.463501
0.014862 0.014862 0.014862
0.021027 0.021027 0.021027
0.028687 0.028687 0.028687
0.037598 0.037598 0.037598
0.047577 0.047577 0.047577
0.057739 0.057739 0.057739
0.068512 0.068512 0.068512
0.079559 0.079559 0.079559
0.091034 0.091034 0.091034
0.102875 0.102875 0.102875
0.115204 0.115204 0.115204
0.127960 0.127960 0.127960
0.141266 0.141266 0.141266
0.155243 0.155243 0.155243
0.169891 0.169861 0.169830
0.185455 0.185303 0.185059
0.202118 0.201569 0.200897
0.220001 0.218750 0.217377
0.238983 0.236755 0.234375
0.259033 0.255493 0.251892
0.279907 0.274811 0.269684
0.301331 0.294586 0.287720
0.323273 0.314606 0.305878
0.345490 0.334808 0.324036
0.367706 0.354950 0.342072
0.389801 0.374908 0.359894
0.411621 0.394592 0.377533
0.432953 0.413940 0.394867
0.453644 0.432800 0.411804
0.473694 0.451111 0.428314
0.493011 0.468842 0.444550
0.511566 0.486084 0.460388
0.529999 0.503265 0.475922
0.019775 0.019775 0.019775
0.026733 0.026733 0.026733
0.035645 0.035645 0.035645
0.045532 0.045532 0.045532
0.055817 0.055817 0.055817
0.066437 0.066437 0.066437
0.077362 0.077362 0.077362
0.088654 0.088654 0.088654
0.100464 0.100464 0.100464
0.112610 0.112610 0.112610
0.125366 0.125366 0.125366
0.138580 0.138580 0.138580
0.152435 0.152435 0.152435
0.166901 0.166901 0.166870
0.182251 0.182159 0.182007
0.198761 0.198273 0.197723
0.216370 0.215240 0.214020
0.235107 0.233093 0.230957
0.254944 0.251709 0.248352
0.275665 0.270966 0.266113
0.297058 0.290649 0.284119
0.318848 0.310608 0.302246
0.340973 0.330780 0.320404
0.363251 0.350891 0.338470
0.385376 0.370941 0.356354
0.407227 0.390686 0.374023
0.428650 0.410095 0.391357
0.449524 0.429077 0.408386
0.469696 0.447449 0.425018
0.489166 0.465363 0.441345
0.507904 0.482697 0.457245
0.526337 0.499817 0.472809
0.545288 0.517578 0.488068
0.025208 0.025208 0.025208
0.033630 0.033630 0.033630
0.043427 0.043427 0.043427
0.053650 0.053650 0.053650
0.064240 0.064240 0.064240
0.075073 0.075073 0.075073
0.086456 0.086456 0.086456
0.098053 0.098053 0.098053
0.110168 0.110168 0.110168
0.122803 0.122803 0.122803
0.135895 0.135895 0.135895
0.149628 0.149628 0.149628
0.164001 0.164001 0.163971
0.179169 0.179108 0.178955
0.195404 0.195007 0.194550
0.212799 0.211853 0.210785
0.231384 0.229523 0.227570
0.251007 0.247986 0.244873
0.271515 0.267120 0.262604
0.292725 0.286713 0.280579
0.314514 0.306641 0.298676
0.336609 0.326752 0.316803
0.358826 0.346924 0.334900
0.381012 0.366974 0.352814
0.402893 0.386780 0.370514
0.424438 0.406250 0.387939
0.445404 0.425323 0.405060
0.465790 0.443878 0.421783
0.485382 0.461823 0.438110
0.504242 0.479248 0.454132
0.522675 0.496399 0.469727
0.541534 0.514038 0.485077
0.560944 0.532288 0.500031
0.031677 0.031677 0.031677
0.041473 0.041473 0.041473
0.051514 0.051514 0.051514
0.062042 0.062042 0.062042
0.072845 0.072845 0.072845
0.084076 0.084076 0.084076
0.095673 0.095673 0.095673
0.107788 0.107788 0.107788
0.120178 0.120178 0.120178
0.133240 0.133240 0.133240
0.146851 0.146851 0.146851
0.161041 0.161041 0.161041
0.176117 0.175964 0.175903
0.192108 0.191803 0.191376
0.209290 0.208405 0.207489
0.227600 0.225952 0.224152
0.247040 0.244232 0.241394
0.267365 0.263214 0.259033
0.288452 0.282715 0.276947
0.310120 0.302612 0.295013
0.332153 0.322723 0.313171
0.354370 0.342865 0.331268
0.376556 0.362946 0.349213
0.398529 0.382843 0.366974
0.420166 0.402405 0.384460
0.441284 0.421509 0.401611
0.461731 0.440155 0.418427
0.481506 0.458252 0.434875
0.500519 0.475800 0.450928
0.519012 0.492981 0.466675
0.537689 0.510468 0.481995
0.557007 0.528564 0.497070
0.576721 0.547150 0.511719
0.039307 0.039307 0.039307
0.049530 0.049530 0.049530
0.059967 0.059967 0.059967
0.070770 0.070770 0.070770
0.081818 0.081818 0.081818
0.093292 0.093292 0.093292
0.105286 0.105286 0.105286
0.117706 0.117706 0.117706
0.130646 0.130646 0.130646
0.144104 0.144104 0.144104
0.158203 0.158203 0.158203
0.172974 0.172943 0.172882
0.188843 0.188538 0.188232
0.205811 0.205017 0.204224
0.223846 0.222443 0.220825
0.243103 0.240570 0.237946
0.263245 0.259430 0.255493
0.284210 0.278809 0.273346
0.305786 0.298615 0.291412
0.327759 0.318665 0.309540
0.349915 0.338837 0.327637
0.372131 0.358948 0.345642
0.394165 0.378845 0.363434
0.415833 0.398468 0.381012
0.437073 0.417725 0.398224
0.457672 0.436462 0.415100
0.477570 0.454651 0.431580
0.496765 0.472321 0.447723
0.515289 0.489563 0.463531
0.533936 0.506927 0.478973
0.553131 0.524933 0.494049
0.572784 0.543427 0.508789
0.592682 0.562225 0.523254
0.047424 0.047424 0.047424
0.057922 0.057922 0.057922
0.068665 0.068665 0.068665
0.079529 0.079529 0.079529
0.091034 0.091034 0.091034
0.102875 0.102875 0.102875
0.115204 0.115204 0.115204
0.127991 0.127991 0.127991
0.141418 0.141418 0.141418
0.155334 0.155334 0.155334
0.170013 0.169983 0.169952
0.185638 0.185425 0.185120
0.202301 0.201721 0.201019
0.220184 0.218903 0.217468
0.239227 0.236938 0.234497
0.259216 0.255646 0.251953
0.279999 0.274933 0.269745
0.301453 0.294678 0.287781
0.323334 0.314667 0.305908
0.345490 0.334808 0.324036
0.367706 0.354919 0.342041
0.389771 0.374878 0.359894
0.411560 0.394562 0.377502
0.432861 0.413910 0.394806
0.453583 0.432739 0.411743
0.473602 0.451050 0.428314
0.492920 0.468811 0.444519
0.511658 0.486145 0.460388
0.530182 0.503448 0.475922
0.549286 0.521301 0.491089
0.568848 0.539703 0.505859
0.588745 0.558472 0.520386
0.608734 0.577454 0.534668
0.055756 0.055756 0.055756
0.066437 0.066437 0.066437
0.077393 0.077393 0.077393
0.088715 0.088715 0.088715
0.100464 0.100464 0.100464
0.112640 0.112640 0.112640
0.125397 0.125397 0.125397
0.138611 0.138611 0.138611
0.152466 0.152466 0.152466
0.167023 0.166962 0.166931
0.182465 0.182312 0.182129
0.198975 0.198395 0.197815
0.216644 0.215424 0.214111
0.235352 0.233246 0.231079
0.255127 0.251862 0.248474
0.275879 0.271088 0.266205
0.297150 0.290710 0.284180
0.318939 0.310669 0.302277
0.341064 0.330811 0.320374
0.363251 0.350922 0.338440
0.385376 0.370911 0.356354
0.407227 0.390656 0.373993
0.428619 0.410065 0.391357
0.449493 0.429016 0.408386
0.469696 0.447449 0.425049
0.489105 0.465271 0.441284
0.507904 0.482697 0.457214
0.526489 0.500000 0.472839
0.545441 0.517731 0.488037
0.564941 0.536041 0.502960
0.584778 0.554718 0.517517
0.604706 0.573669 0.531860
0.624634 0.592682 0.545959
0.064392 0.064392 0.064392
0.075195 0.075195 0.075195
0.086426 0.086426 0.086426
0.098022 0.098022 0.098022
0.110168 0.110168 0.110168
0.122772 0.122772 0.122772
0.135925 0.135925 0.135925
0.149658 0.149658 0.149658
0.163971 0.163971 0.163971
0.179199 0.179138 0.178986
0.195526 0.195129 0.194580
0.212982 0.211975 0.210907
0.231506 0.229675 0.227661
0.251160 0.248108 0.244934
0.271637 0.267181 0.262665
0.292847 0.286774 0.280609
0.314606 0.306671 0.298676
0.336609 0.326752 0.316772
0.358765 0.346893 0.334839
0.380920 0.366913 0.352753
0.402863 0.386719 0.370453
0.424377 0.406189 0.387909
0.445312 0.425232 0.404999
0.465668 0.443787 0.421722
0.485291 0.461761 0.438080
0.504211 0.479218 0.454071
0.522766 0.496521 0.469727
0.541626 0.514130 0.485046
0.561005 0.532349 0.499969
0.580780 0.550995 0.514618
0.600739 0.569885 0.528992
0.620667 0.588928 0.543152
0.640503 0.607941 0.557190
0.073029 0.073029 0.073029
0.084198 0.084198 0.084198
0.095764 0.095764 0.095764
0.107666 0.107666 0.107666
0.120209 0.120209 0.120209
0.133209 0.133209 0.133209
0.146912 0.146912 0.146912
0.161072 0.161072 0.161041
0.176086 0.176025 0.175934
0.192200 0.191803 0.191376
0.209381 0.208527 0.207550
0.227722 0.226074 0.224243
0.247131 0.244354 0.241455
0.267456 0.263336 0.259094
0.288574 0.282806 0.276978
0.310211 0.302673 0.295074
0.332184 0.322754 0.313171
0.354370 0.342865 0.331268
0.376495 0.362915 0.349213
0.398468 0.382782 0.366943
0.420074 0.402313 0.384430
0.441162 0.421448 0.401581
0.461609 0.440094 0.418396
0.481415 0.458191 0.434814
0.500458 0.475739 0.450897
0.519073 0.493042 0.466614
0.537811 0.510559 0.481995
0.557098 0.528656 0.497040
0.576843 0.547241 0.511688
0.596741 0.566101 0.526123
0.616699 0.585083 0.540314
0.636536 0.604126 0.554413
0.656158 0.623138 0.568390
0.081848 0.081848 0.081848
0.093445 0.093445 0.093445
0.105377 0.105377 0.105377
0.117676 0.117676 0.117676
0.130585 0.130585 0.130585
0.144012 0.144012 0.144012
0.158173 0.158173 0.158173
0.172974 0.172943 0.172882
0.188812 0.188568 0.188263
0.205811 0.205078 0.204254
0.223999 0.222443 0.220856
0.243164 0.240631 0.237976
0.263367 0.259460 0.255524
0.284241 0.278900 0.273376
0.305878 0.298706 0.291443
0.327820 0.318726 0.309540
0.349915 0.338867 0.327637
0.372070 0.358917 0.345612
0.394104 0.378815 0.363403
0.415771 0.398438 0.380951
0.436981 0.417633 0.398163
0.457581 0.436401 0.415039
0.477478 0.454590 0.431549
0.496674 0.472260 0.447693
0.515381 0.489624 0.463501
0.534058 0.507050 0.478943
0.553192 0.524994 0.493988
0.572845 0.543488 0.508789
0.592773 0.562317 0.523254
0.612701 0.581299 0.537506
0.632568 0.600311 0.551605
0.652252 0.619354 0.565613
0.671570 0.638275 0.579590
0.091003 0.091003 0.091003
0.103058 0.103058 0.103058
0.115204 0.115204 0.115204
0.127991 0.127991 0.127991
0.141327 0.141327 0.141327
0.155243 0.155243 0.155243
0.169952 0.169922 0.169922
0.185516 0.185333 0.185089
0.202301 0.201660 0.200989
0.220215 0.218903 0.217468
0.239227 0.236938 0.234528
0.259277 0.255676 0.251984
0.280060 0.274994 0.269806
0.301514 0.294739 0.287811
0.323364 0.314697 0.305939
0.345551 0.334869 0.324036
0.367706 0.354919 0.342072
0.389709 0.374878 0.359863
0.411469 0.394531 0.377472
0.432770 0.413849 0.394745
0.453491 0.432678 0.411713
0.473541 0.450989 0.428284
0.492859 0.468750 0.444489
0.511658 0.486176 0.460358
0.530304 0.503571 0.475891
0.549377 0.521393 0.491058
0.568909 0.539764 0.505829
0.588776 0.558533 0.520386
0.608734 0.577515 0.534698
0.628601 0.596558 0.548798
0.648315 0.615540 0.562836
0.667786 0.634552 0.576843
0.686798 0.653351 0.590881
0.100525 0.100525 0.100525
0.112854 0.112854 0.112854
0.125427 0.125427 0.125427
0.138611 0.138611 0.138611
0.152466 0.152466 0.152466
0.166901 0.166901 0.166901
0.182343 0.182190 0.182037
0.198853 0.198334 0.197754
0.216553 0.215363 0.214142
0.235352 0.233246 0.231049
0.255188 0.251892 0.248505
0.275848 0.271088 0.266205
0.297211 0.290741 0.284210
0.319031 0.310730 0.302307
0.341095 0.330872 0.320404
0.363281 0.350922 0.338470
0.385345 0.370911 0.356323
0.407166 0.390625 0.373962
0.428558 0.410034 0.391296
0.449402 0.428955 0.408325
0.469574 0.447357 0.424957
0.489044 0.465240 0.441284
0.507935 0.482697 0.457214
0.526611 0.500092 0.472809
0.545532 0.517822 0.488037
0.565002 0.536102 0.502899
0.584778 0.554779 0.517487
0.604767 0.573730 0.531830
0.624664 0.592743 0.545990
0.644409 0.611786 0.560028
0.663879 0.630737 0.574005
0.683044 0.649628 0.588104
0.701843 0.668335 0.602264
0.110352 0.110352 0.110352
0.122955 0.122955 0.122955
0.136047 0.136047 0.136047
0.149689 0.149689 0.149689
0.164001 0.164001 0.164001
0.179108 0.179077 0.178925
0.195435 0.195007 0.194580
0.212891 0.211914 0.210815
0.231476 0.229523 0.227600
0.251129 0.248047 0.244934
0.271698 0.267212 0.262665
0.292877 0.286804 0.280609
0.314606 0.306702 0.298706
0.336670 0.326782 0.316803
0.358856 0.346924 0.334869
0.380951 0.366943 0.352753
0.402832 0.386688 0.370422
0.424286 0.406158 0.387848
0.445251 0.425171 0.404907
0.465576 0.443726 0.421661
0.485168 0.461670 0.438019
0.504181 0.479187 0.454010
0.522858 0.496582 0.469666
0.541748 0.514221 0.485016
0.561096 0.532410 0.499939
0.580841 0.551025 0.514587
0.600739 0.569885 0.528961
0.620697 0.588959 0.543182
0.640472 0.607971 0.557220
0.660004 0.626953 0.571228
0.679230 0.645874 0.585266
0.698090 0.664612 0.599426
0.716553 0.683136 0.613708
0.120392 0.120392 0.120392
0.133453 0.133453 0.133453
0.146942 0.146942 0.146942
0.161072 0.161072 0.161072
0.176025 0.175964 0.175873
0.192017 0.191772 0.191376
0.209259 0.208405 0.207489
0.227661 0.225952 0.224213
0.247070 0.244293 0.241425
0.267426 0.263275 0.259064
0.288605 0.282837 0.277039
0.310272 0.302704 0.295074
0.332245 0.322784 0.313202
0.354370 0.342896 0.331268
0.376556 0.362915 0.349182
0.398468 0.382782 0.366943
0.420013 0.402283 0.384399
0.441101 0.421356 0.401520
0.461517 0.440033 0.418365
0.481262 0.458099 0.434753
0.500366 0.475739 0.450836
0.519135 0.493134 0.466553
0.537903 0.510681 0.481934
0.557190 0.528717 0.496979
0.576874 0.547272 0.511688
0.596771 0.566132 0.526093
0.616699 0.585083 0.540314
0.636536 0.604187 0.554413
0.656128 0.623169 0.568420
0.675415 0.642090 0.582458
0.694336 0.660858 0.596558
0.712891 0.679474 0.610870
0.730988 0.697784 0.625244
0.130737 0.130737 0.130737
0.144257 0.144257 0.144257
0.158295 0.158295 0.158295
0.173004 0.173004 0.172943
0.188751 0.188507 0.188202
0.205719 0.205017 0.204224
0.223846 0.222412 0.220856
0.243134 0.240570 0.237976
0.263306 0.259430 0.255524
0.284271 0.278870 0.273407
0.305878 0.298706 0.291473
0.327820 0.318756 0.309570
0.349976 0.338898 0.327698
0.372131 0.358948 0.345642
0.394135 0.378845 0.363434
0.415802 0.398438 0.380951
0.436951 0.417603 0.398163
0.457489 0.436340 0.415009
0.477386 0.454498 0.431519
0.496552 0.472198 0.447662
0.515411 0.489655 0.463470
0.534149 0.507172 0.478882
0.553284 0.525116 0.493958
0.572906 0.543549 0.508759
0.592773 0.562347 0.523224
0.612701 0.581329 0.537506
0.632538 0.600342 0.551605
0.652222 0.619385 0.565643
0.671570 0.638306 0.579651
0.690582 0.657135 0.593750
0.709198 0.675751 0.607971
0.727417 0.694183 0.622375
0.745117 0.712280 0.636871
0.141510 0.141510 0.141510
0.155487 0.155487 0.155487
0.170105 0.170105 0.170105
0.185577 0.185455 0.185211
0.202301 0.201691 0.201019
0.220154 0.218842 0.217438
0.239197 0.236938 0.234528
0.259216 0.255646 0.252014
0.280060 0.274963 0.269806
0.301514 0.294739 0.287842
0.323425 0.314758 0.305969
0.345551 0.334869 0.324066
0.367706 0.354980 0.342072
0.389740 0.374908 0.359894
0.411499 0.394562 0.377472
0.432800 0.413849 0.394775
0.453491 0.432678 0.411713
0.473480 0.450928 0.428253
0.492767 0.468689 0.444458
0.511658 0.486176 0.460297
0.530396 0.503662 0.475830
0.549469 0.521484 0.490997
0.568939 0.539856 0.505798
0.588776 0.558563 0.520325
0.608734 0.577515 0.534668
0.628571 0.596558 0.548798
0.648285 0.615570 0.562836
0.667725 0.634552 0.576874
0.686829 0.653381 0.590942
0.705536 0.672028 0.605164
0.723785 0.690491 0.619507
0.741608 0.708679 0.634003
0.758911 0.726501 0.648621
0.152649 0.152649 0.152649
0.167236 0.167236 0.167206
0.182495 0.182373 0.182251
0.198883 0.198395 0.197815
0.216492 0.215393 0.214172
0.235321 0.233246 0.231079
0.255188 0.251923 0.248505
0.275787 0.271088 0.266235
0.297211 0.290771 0.284241
0.319031 0.310760 0.302338
0.341095 0.330841 0.320465
0.363312 0.350952 0.338501
0.385406 0.370941 0.356384
0.407196 0.390656 0.373962
0.428589 0.410065 0.391327
0.449432 0.428955 0.408356
0.469604 0.447357 0.425018
0.489014 0.465210 0.441284
0.507904 0.482697 0.457214
0.526642 0.500122 0.472748
0.545593 0.517883 0.487976
0.565033 0.536163 0.502869
0.584808 0.554810 0.517456
0.604706 0.573730 0.531799
0.624634 0.592743 0.545990
0.644348 0.611786 0.560028
0.663818 0.630737 0.574066
0.683014 0.649628 0.588135
0.701813 0.668335 0.602295
0.720184 0.686829 0.616638
0.738068 0.705048 0.631104
0.755493 0.722992 0.645721
0.772339 0.740479 0.660431
0.164185 0.164185 0.164185
0.179504 0.179443 0.179321
0.195648 0.195312 0.194855
0.212982 0.212006 0.210968
0.231415 0.229645 0.227692
0.251068 0.248047 0.244965
0.271698 0.267273 0.262726
0.292847 0.286835 0.280609
0.314636 0.306732 0.298737
0.336731 0.326874 0.316864
0.358917 0.346985 0.334930
0.381042 0.366974 0.352814
0.402924 0.386780 0.370514
0.424408 0.406219 0.387909
0.445343 0.425232 0.404968
0.465668 0.443756 0.421722
0.485199 0.461700 0.438049
0.504181 0.479248 0.454041
0.522888 0.496643 0.469696
0.541779 0.514282 0.484985
0.561127 0.532440 0.499908
0.580872 0.551086 0.514587
0.600769 0.569977 0.528961
0.620667 0.588959 0.543152
0.640411 0.608002 0.557220
0.659943 0.626953 0.571259
0.679199 0.645844 0.585297
0.698059 0.664612 0.599457
0.716522 0.683136 0.613739
0.734497 0.701447 0.628174
0.752014 0.719391 0.642792
0.769043 0.737030 0.657501
0.785431 0.754211 0.672302
0.176208 0.176147 0.176117
0.192322 0.192017 0.191681
0.209473 0.208771 0.207855
0.227783 0.226105 0.224396
0.247101 0.244385 0.241577
0.267426 0.263336 0.259155
0.288666 0.282898 0.277100
0.310303 0.302765 0.295135
0.332336 0.322845 0.313263
0.354492 0.343018 0.331329
0.376678 0.363037 0.349274
0.398621 0.382874 0.367035
0.420166 0.402405 0.384491
0.441254 0.421509 0.401642
0.461670 0.440125 0.418427
0.481415 0.458191 0.434845
0.500427 0.475769 0.450897
0.519135 0.493164 0.466583
0.537933 0.510712 0.481964
0.557220 0.528748 0.496979
0.576874 0.547302 0.511658
0.596771 0.566132 0.526093
0.616730 0.585175 0.540344
0.636536 0.604218 0.554443
0.656097 0.623199 0.568451
0.675385 0.642090 0.582520
0.694305 0.660828 0.596619
0.712860 0.679443 0.610870
0.730927 0.697784 0.625305
0.748535 0.715851 0.639862
0.765656 0.733521 0.654541
0.782196 0.750793 0.669342
0.798157 0.767639 0.684204
0.189026 0.188782 0.188599
0.206055 0.205353 0.204590
0.224091 0.222687 0.221161
0.243408 0.240845 0.238251
0.263458 0.259583 0.255707
0.284302 0.278992 0.273529
0.306000 0.298828 0.291595
0.327911 0.318848 0.309692
0.350098 0.338989 0.327789
0.372314 0.359100 0.345795
0.394318 0.378998 0.363556
0.415924 0.398560 0.381073
0.437103 0.417755 0.398254
0.457672 0.436462 0.415100
0.477570 0.454681 0.431610
0.496704 0.472321 0.447754
0.515442 0.489655 0.463501
0.534149 0.507141 0.478943
0.553345 0.525146 0.494019
0.572937 0.543579 0.508789
0.592804 0.562378 0.523224
0.612701 0.581360 0.537506
0.632538 0.600372 0.551605
0.652222 0.619415 0.565674
0.671539 0.638336 0.579681
0.690552 0.657135 0.593811
0.709167 0.675720 0.608032
0.727356 0.694153 0.622406
0.745056 0.712280 0.636932
0.762238 0.730011 0.651642
0.778931 0.747375 0.666382
0.795044 0.764343 0.681274
0.810547 0.780792 0.696167
0.202545 0.201965 0.201385
0.220642 0.219238 0.217926
0.239410 0.237152 0.234863
0.259369 0.255859 0.252258
0.280212 0.275146 0.270020
0.301605 0.294830 0.287994
0.323547 0.314850 0.306091
0.345703 0.334961 0.324158
0.367859 0.355072 0.342194
0.389923 0.375031 0.360016
0.411713 0.394745 0.377625
0.432983 0.414001 0.394897
0.453644 0.432800 0.411804
0.473663 0.451111 0.428345
0.492950 0.468842 0.444550
0.511719 0.486237 0.460419
0.530365 0.503632 0.475891
0.549438 0.521454 0.491028
0.569000 0.539856 0.505859
0.588837 0.558594 0.520386
0.608765 0.577545 0.534668
0.628601 0.596558 0.548798
0.648315 0.615601 0.562866
0.667694 0.634552 0.576904
0.686798 0.653351 0.590973
0.705475 0.672058 0.605164
0.723724 0.690460 0.619537
0.741577 0.708649 0.634064
0.758850 0.726501 0.648682
0.775635 0.743927 0.663452
0.791809 0.760956 0.678314
0.807465 0.777557 0.693237
0.822571 0.793671 0.708221
0.216736 0.215576 0.214478
0.235901 0.233765 0.231628
0.255493 0.252228 0.248901
0.276031 0.271332 0.266541
0.297424 0.290985 0.284515
0.319153 0.310883 0.302490
0.341309 0.331024 0.320618
0.363464 0.351105 0.338623
0.385590 0.371094 0.356506
0.407379 0.390839 0.374146
0.428802 0.410217 0.391510
0.449615 0.429108 0.408478
0.469757 0.447510 0.425110
0.489197 0.465363 0.441345
0.507996 0.482758 0.457275
0.526672 0.500122 0.472870
0.545593 0.517853 0.488068
0.565063 0.536133 0.502899
0.584839 0.554840 0.517487
0.604767 0.573761 0.531830
0.624664 0.592773 0.545990
0.644379 0.611816 0.560028
0.663849 0.630768 0.574066
0.682983 0.649628 0.588165
0.701752 0.668304 0.602356
0.720123 0.686798 0.616669
0.738007 0.705048 0.631134
0.755432 0.722900 0.645752
0.772308 0.740448 0.660492
0.788635 0.757599 0.675323
0.804382 0.774292 0.690247
0.819611 0.790497 0.705261
0.834229 0.806183 0.720276
0.231750 0.229889 0.227997
0.251831 0.248901 0.245789
0.272186 0.267731 0.263214
0.293274 0.287170 0.281006
0.314941 0.307037 0.299042
0.336884 0.327026 0.317047
0.359161 0.347260 0.335144
0.381226 0.367188 0.352997
0.403107 0.386963 0.370667
0.424622 0.406433 0.388092
0.445526 0.425415 0.405151
0.465820 0.443909 0.421814
0.485352 0.461823 0.438141
0.504272 0.479309 0.454132
0.522888 0.496613 0.469788
0.541748 0.514252 0.485077
0.561127 0.532440 0.500000
0.580872 0.551086 0.514618
0.600800 0.569977 0.528992
0.620728 0.588989 0.543182
0.640503 0.608032 0.557251
0.660004 0.627014 0.571289
0.679230 0.645905 0.585327
0.698059 0.664612 0.599487
0.716492 0.683136 0.613770
0.734497 0.701416 0.628204
