content/luts/b&w/black_and_white_12.cube
#Created by: inPixio
#Copyright: (C) Copyright 2022 inPixio
TITLE "Black & White 06"
#LUT size
LUT_3D_SIZE 33
#LUT data points
0.000000 0.000000 0.000000
0.016754 0.016754 0.016754
0.033356 0.033356 0.033356
0.048859 0.048859 0.048859
0.062531 0.062531 0.062531
0.075836 0.075836 0.075836
0.089142 0.089142 0.089142
0.102325 0.102325 0.102325
0.115387 0.115387 0.115387
0.128326 0.128326 0.128326
0.141205 0.141205 0.141205
0.153992 0.153992 0.153992
0.166565 0.166565 0.166565
0.179108 0.179077 0.178986
0.191772 0.191559 0.191223
0.204498 0.203918 0.203186
0.217194 0.216156 0.214905
0.229828 0.228180 0.226318
0.242340 0.239929 0.237396
0.254669 0.251434 0.248169
0.266815 0.262726 0.258636
0.278595 0.273682 0.268707
0.290009 0.284271 0.278381
0.301208 0.294525 0.287720
0.312073 0.304474 0.296722
0.322540 0.313995 0.305328
0.332733 0.323242 0.313690
0.342651 0.332245 0.321747
0.352234 0.341003 0.329620
0.361603 0.349457 0.337158
0.370697 0.357697 0.344452
0.379669 0.365753 0.351746
0.388336 0.373596 0.358765
0.015198 0.015198 0.015198
0.031738 0.031738 0.031738
0.047485 0.047485 0.047485
0.061066 0.061066 0.061066
0.074371 0.074371 0.074371
0.087860 0.087860 0.087860
0.100861 0.100861 0.100861
0.113922 0.113922 0.113922
0.126953 0.126953 0.126953
0.139923 0.139923 0.139923
0.152679 0.152679 0.152679
0.165314 0.165314 0.165314
0.177856 0.177826 0.177734
0.190430 0.190216 0.189941
0.203156 0.202576 0.201935
0.215912 0.214813 0.213684
0.228485 0.226807 0.225067
0.240967 0.238647 0.236206
0.253387 0.250305 0.247070
0.265472 0.261566 0.257507
0.277252 0.272491 0.267578
0.288818 0.283112 0.277344
0.300079 0.293427 0.286713
0.310913 0.303345 0.295746
0.321381 0.312897 0.304352
0.331665 0.322296 0.312744
0.341583 0.331299 0.320862
0.351135 0.339966 0.328674
0.360565 0.348511 0.336273
0.369659 0.356812 0.343689
0.378693 0.364868 0.350983
0.387421 0.372803 0.357971
0.396027 0.380493 0.364929
0.029846 0.029846 0.029846
0.046082 0.046082 0.046082
0.059784 0.059784 0.059784
0.073120 0.073120 0.073120
0.086395 0.086395 0.086395
0.099457 0.099457 0.099457
0.112671 0.112671 0.112671
0.125549 0.125549 0.125549
0.138428 0.138428 0.138428
0.151245 0.151245 0.151245
0.163940 0.163940 0.163940
0.176483 0.176453 0.176422
0.189087 0.188904 0.188629
0.201813 0.201294 0.200653
0.214539 0.213531 0.212433
0.227142 0.225586 0.223877
0.239685 0.237427 0.235077
0.252014 0.248993 0.245880
0.264130 0.260345 0.256378
0.276031 0.271362 0.266541
0.287567 0.281982 0.276337
0.298859 0.292328 0.285736
0.309784 0.302338 0.294830
0.320343 0.311981 0.303528
0.330566 0.321259 0.311890
0.340515 0.330322 0.320007
0.350128 0.339111 0.327850
0.359589 0.347626 0.335510
0.368683 0.355896 0.342865
0.377716 0.364014 0.350189
0.386475 0.371948 0.357269
0.395020 0.379639 0.364136
0.403503 0.387299 0.370972
0.044342 0.044342 0.044342
0.058380 0.058380 0.058380
0.071686 0.071686 0.071686
0.084869 0.084869 0.084869
0.097961 0.097961 0.097961
0.111176 0.111176 0.111176
0.124115 0.124115 0.124115
0.137024 0.137024 0.137024
0.149841 0.149841 0.149841
0.162506 0.162506 0.162506
0.175049 0.175018 0.174988
0.187744 0.187531 0.187286
0.200439 0.199921 0.199310
0.213104 0.212128 0.211090
0.225800 0.224243 0.222656
0.238281 0.236115 0.233826
0.250671 0.247711 0.244690
0.262848 0.259064 0.255219
0.274719 0.270111 0.265411
0.286377 0.280823 0.275269
0.297638 0.291199 0.284698
0.308502 0.301208 0.293762
0.319092 0.310883 0.302551
0.329376 0.320251 0.310974
0.339417 0.329315 0.319122
0.349121 0.338135 0.327026
0.358551 0.346680 0.334717
0.367737 0.354980 0.342163
0.376740 0.363098 0.349396
0.385529 0.371063 0.356476
0.394104 0.378784 0.363403
0.402588 0.386536 0.370239
0.410889 0.394073 0.376984
0.056885 0.056885 0.056885
0.070160 0.070160 0.070160
0.083527 0.083527 0.083527
0.096558 0.096558 0.096558
0.109741 0.109741 0.109741
0.122711 0.122711 0.122711
0.135742 0.135742 0.135742
0.148438 0.148438 0.148438
0.161102 0.161102 0.161102
0.173706 0.173706 0.173676
0.186310 0.186218 0.185944
0.198975 0.198547 0.197998
0.211731 0.210785 0.209808
0.224365 0.222931 0.221344
0.236969 0.234833 0.232605
0.249359 0.246460 0.243530
0.261536 0.257843 0.254059
0.273499 0.268921 0.264313
0.285126 0.279663 0.274170
0.296417 0.290070 0.283691
0.307343 0.300140 0.292786
0.317963 0.309845 0.301575
0.328278 0.319244 0.310089
0.338318 0.328369 0.318268
0.348083 0.337189 0.326172
0.357513 0.345764 0.333862
0.366760 0.354156 0.341309
0.375793 0.362274 0.348633
0.384583 0.370209 0.355743
0.393219 0.378021 0.362701
0.401703 0.385651 0.369507
0.410126 0.393280 0.376282
0.418335 0.400757 0.382935
0.068848 0.068848 0.068848
0.081940 0.081940 0.081940
0.095154 0.095154 0.095154
0.108337 0.108337 0.108337
0.121277 0.121277 0.121277
0.134186 0.134186 0.134186
0.147125 0.147125 0.147125
0.159790 0.159790 0.159790
0.172424 0.172302 0.172272
0.185028 0.184814 0.184631
0.197693 0.197266 0.196716
0.210358 0.209534 0.208557
0.222992 0.221619 0.220154
0.235565 0.233521 0.231415
0.248016 0.245209 0.242371
0.260223 0.256622 0.252960
0.272156 0.267761 0.263184
0.283783 0.278503 0.273071
0.295135 0.288940 0.282623
0.306183 0.299042 0.291809
0.316833 0.308807 0.300629
0.327179 0.318237 0.309143
0.337280 0.327393 0.317383
0.347015 0.336243 0.325317
0.356537 0.344849 0.333038
0.365753 0.353210 0.340515
0.374756 0.361359 0.347809
0.383606 0.369324 0.354950
0.392273 0.377167 0.361908
0.400818 0.384857 0.368774
0.409149 0.392395 0.375549
0.417419 0.399933 0.382233
0.425659 0.407410 0.388916
0.080597 0.080597 0.080597
0.093811 0.093811 0.093811
0.107025 0.107025 0.107025
0.119934 0.119934 0.119934
0.132874 0.132874 0.132874
0.145752 0.145752 0.145752
0.158356 0.158356 0.158356
0.170990 0.170959 0.170959
0.183685 0.183472 0.183350
0.196350 0.195892 0.195435
0.208984 0.208191 0.207275
0.221680 0.220337 0.218903
0.234314 0.232269 0.230194
0.246704 0.243988 0.241180
0.258942 0.255432 0.251862
0.270874 0.266571 0.262146
0.282593 0.277374 0.272064
0.293976 0.287842 0.281586
0.305023 0.297974 0.290833
0.315735 0.307770 0.299713
0.326111 0.317230 0.308228
0.336182 0.326385 0.316498
0.346039 0.335297 0.324463
0.355530 0.343933 0.332214
0.364777 0.352325 0.339752
0.373871 0.360504 0.347046
0.382690 0.368500 0.354187
0.391388 0.376343 0.361176
0.399872 0.384033 0.368073
0.408295 0.391602 0.374847
0.416595 0.399078 0.381561
0.424835 0.406586 0.388214
0.433044 0.414032 0.394867
0.092316 0.092316 0.092316
0.105652 0.105652 0.105652
0.118561 0.118561 0.118561
0.131470 0.131470 0.131470
0.144226 0.144226 0.144226
0.157043 0.157043 0.157043
0.169647 0.169617 0.169617
0.182190 0.182159 0.182007
0.194855 0.194519 0.194061
0.207642 0.206879 0.206055
0.220306 0.219055 0.217682
0.232849 0.230988 0.229004
0.245300 0.242706 0.240021
0.257568 0.254181 0.250671
0.269592 0.265381 0.261017
0.281342 0.276245 0.270996
0.292725 0.286713 0.280609
0.303833 0.296875 0.289825
0.314575 0.306702 0.298706
0.324982 0.316193 0.307312
0.335144 0.325409 0.315613
0.344971 0.334351 0.323608
0.354492 0.342987 0.331390
0.363800 0.351410 0.338928
0.372864 0.359619 0.346252
0.381744 0.367645 0.353424
0.390381 0.375488 0.360443
0.398956 0.383179 0.367310
0.407379 0.390808 0.374115
0.415710 0.398346 0.380829
0.423981 0.405792 0.387512
0.432129 0.413177 0.394135
0.440277 0.420624 0.400757
0.104126 0.104126 0.104126
0.117218 0.117218 0.117218
0.130096 0.130096 0.130096
0.142944 0.142944 0.142944
0.155670 0.155670 0.155670
0.168243 0.168213 0.168213
0.180817 0.180786 0.180634
0.193542 0.193237 0.192780
0.206207 0.205536 0.204712
0.218903 0.217712 0.216309
0.231506 0.229675 0.227753
0.244019 0.241455 0.238800
0.256287 0.252960 0.249542
0.268280 0.264160 0.259918
0.280060 0.275055 0.269928
0.291565 0.285614 0.279572
0.302612 0.295807 0.288849
0.313385 0.305634 0.297760
0.323822 0.315186 0.306396
0.334015 0.324432 0.314697
0.343872 0.333374 0.322723
0.353455 0.342072 0.330566
0.362793 0.350494 0.338104
0.371887 0.358734 0.345459
0.380798 0.366760 0.352631
0.389496 0.374634 0.359680
0.398041 0.382355 0.366547
0.406433 0.389984 0.373383
0.414795 0.397522 0.380096
0.423035 0.404968 0.386749
0.431244 0.412415 0.393433
0.439392 0.419800 0.400085
0.447540 0.427216 0.406708
0.115784 0.115784 0.115784
0.128845 0.128845 0.128845
0.141663 0.141663 0.141663
0.154266 0.154266 0.154266
0.166992 0.166992 0.166992
0.179596 0.179413 0.179352
0.192200 0.191925 0.191528
0.204895 0.204254 0.203430
0.217560 0.216400 0.215179
0.230133 0.228333 0.226501
0.242645 0.240173 0.237549
0.254913 0.251709 0.248383
0.267029 0.262939 0.258759
0.278809 0.273895 0.268860
0.290283 0.284485 0.278534
0.301453 0.294739 0.287842
0.312286 0.304596 0.296844
0.322754 0.314178 0.305481
0.332947 0.323425 0.313812
0.342804 0.332397 0.321899
0.352448 0.341125 0.329681
0.361786 0.349579 0.337280
0.370941 0.357849 0.344666
0.379852 0.365906 0.351868
0.388580 0.373810 0.358917
0.397125 0.381531 0.365845
0.405579 0.389160 0.372650
0.413879 0.396698 0.379364
0.422119 0.404175 0.386047
0.430328 0.411621 0.392700
0.438477 0.419037 0.399353
0.446655 0.426422 0.406067
0.454926 0.433929 0.412750
0.127289 0.127289 0.127289
0.140320 0.140320 0.140320
0.153046 0.153046 0.153046
0.165649 0.165649 0.165649
0.178131 0.178101 0.178009
0.190796 0.190552 0.190247
0.203613 0.202942 0.202240
0.216187 0.215118 0.213928
0.228790 0.227112 0.225311
0.241302 0.238922 0.236420
0.253632 0.250488 0.247253
0.265686 0.261749 0.257629
0.277527 0.272705 0.267792
0.289062 0.283325 0.277496
0.300232 0.293610 0.286865
0.311096 0.303558 0.295898
0.321625 0.313141 0.304535
0.331818 0.322449 0.312927
0.341736 0.331451 0.321014
0.351379 0.340179 0.328857
0.360779 0.348663 0.336487
0.369934 0.356964 0.343903
0.378876 0.365051 0.351105
0.387665 0.372955 0.358154
0.396210 0.380737 0.365082
0.404663 0.388336 0.371918
0.412994 0.395874 0.378662
0.421265 0.403351 0.385345
0.429474 0.410797 0.391998
0.437653 0.418243 0.398651
0.445831 0.425659 0.405334
0.454041 0.433105 0.412079
0.462280 0.440643 0.418823
0.138947 0.138947 0.138947
0.151672 0.151672 0.151672
0.164307 0.164276 0.164276
0.176788 0.176788 0.176727
0.189453 0.189209 0.188873
0.202148 0.201599 0.200958
0.214844 0.213806 0.212646
0.227478 0.225861 0.224121
0.239960 0.237610 0.235229
0.252228 0.249207 0.246063
0.264374 0.260529 0.256561
0.276245 0.271515 0.266724
0.287811 0.282135 0.276428
0.299011 0.292450 0.285828
0.309967 0.302490 0.294922
0.320496 0.312103 0.303650
0.330719 0.321442 0.312042
0.340637 0.330444 0.320160
0.350311 0.339233 0.328033
0.359741 0.347748 0.335632
0.368958 0.356049 0.343048
0.377930 0.364166 0.350311
0.386688 0.372070 0.357391
0.395294 0.379883 0.364319
0.403717 0.387512 0.371185
0.412079 0.395081 0.377930
0.420349 0.402557 0.384644
0.428558 0.410004 0.391266
0.436768 0.417419 0.397919
0.444916 0.424835 0.404602
0.453125 0.432312 0.411316
0.461426 0.439819 0.418152
0.469757 0.447449 0.425018
0.150360 0.150360 0.150360
0.162964 0.162964 0.162964
0.175537 0.175507 0.175446
0.188049 0.187897 0.187592
0.200836 0.200317 0.199677
0.213440 0.212463 0.211426
0.226196 0.224579 0.222992
0.238647 0.236450 0.234100
0.251007 0.248016 0.244904
0.263153 0.259308 0.255432
0.274994 0.270325 0.265625
0.286530 0.281067 0.275452
0.297821 0.291321 0.284851
0.308746 0.301361 0.293915
0.319336 0.311035 0.302643
0.329651 0.320435 0.311127
0.339600 0.329529 0.319305
0.349274 0.338318 0.327179
0.358704 0.346863 0.334808
0.367950 0.355164 0.342285
0.376923 0.363312 0.349518
0.385742 0.371246 0.356628
0.394379 0.379028 0.363556
0.402863 0.386688 0.370422
0.411194 0.394257 0.377197
0.419464 0.401733 0.383911
0.427673 0.409180 0.390564
0.435852 0.416626 0.397186
0.444061 0.424042 0.403870
0.452240 0.431519 0.410614
0.460480 0.439026 0.417358
0.468872 0.446625 0.424286
0.477295 0.454376 0.431305
0.161560 0.161560 0.161560
0.174225 0.174164 0.174164
0.186768 0.186676 0.186432
0.199402 0.198975 0.198395
0.212067 0.211243 0.210175
0.224731 0.223267 0.221680
0.237274 0.235138 0.232941
0.249725 0.246765 0.243866
0.261871 0.258148 0.254303
0.273773 0.269165 0.264526
0.285339 0.279907 0.274384
0.296661 0.290283 0.283875
0.307556 0.300323 0.292999
0.318207 0.309998 0.301727
0.328522 0.319397 0.310211
0.338531 0.328552 0.318390
0.348297 0.337341 0.326324
0.357727 0.345947 0.333984
0.366974 0.354279 0.341492
0.375977 0.362427 0.348755
0.384766 0.370392 0.355865
0.393402 0.378204 0.362854
0.401917 0.385895 0.369690
0.410309 0.393433 0.376465
0.418610 0.400970 0.383179
0.426819 0.408386 0.389832
0.434967 0.415802 0.396484
0.443146 0.423248 0.403168
0.451416 0.430725 0.409851
0.459595 0.438232 0.416687
0.467926 0.445831 0.423523
0.476349 0.453522 0.430511
0.484863 0.461334 0.437653
0.172729 0.172729 0.172699
0.185455 0.185394 0.185211
0.198059 0.197723 0.197235
0.210785 0.209961 0.208984
0.223419 0.221954 0.220459
0.235901 0.233887 0.231689
0.248352 0.245544 0.242676
0.260559 0.256927 0.253265
0.272522 0.268036 0.263489
0.284180 0.278778 0.273346
0.295441 0.289215 0.282837
0.306427 0.299286 0.291992
0.317078 0.308990 0.300842
0.327454 0.318420 0.309326
0.337433 0.327576 0.317505
0.347260 0.336395 0.325470
0.356720 0.345062 0.333160
0.365967 0.353394 0.340698
0.375000 0.361542 0.347961
0.383850 0.369537 0.355103
0.392487 0.377380 0.362091
0.401001 0.385040 0.368958
0.409424 0.392639 0.375732
0.417725 0.400146 0.382446
0.425934 0.407623 0.389160
0.434143 0.415039 0.395782
0.442291 0.422424 0.402405
0.450470 0.429901 0.409180
0.458771 0.437439 0.415924
0.467041 0.445007 0.422821
0.475433 0.452667 0.429779
0.483978 0.460510 0.436890
0.492554 0.468384 0.444122
0.184113 0.183990 0.183838
0.196838 0.196503 0.196045
0.209473 0.208649 0.207825
0.222107 0.220764 0.219299
0.234680 0.232635 0.230560
0.247070 0.244293 0.241486
0.259308 0.255768 0.252197
0.271210 0.266876 0.262390
0.282898 0.277679 0.272339
0.294312 0.288147 0.281860
0.305328 0.298248 0.291046
0.315948 0.308014 0.299896
0.326385 0.317474 0.308441
0.336456 0.326569 0.316681
0.346222 0.335480 0.324646
0.355682 0.344116 0.332367
0.364960 0.352478 0.339874
0.374023 0.360687 0.347168
0.382874 0.368683 0.354370
0.391571 0.376495 0.361328
0.400085 0.384216 0.368225
0.408508 0.391815 0.375000
0.416809 0.399323 0.381714
0.425049 0.406799 0.388397
0.433228 0.414215 0.395081
0.441406 0.421661 0.401764
0.449615 0.429077 0.408417
0.457855 0.436584 0.415222
0.466156 0.444183 0.422058
0.474579 0.451874 0.429016
0.483032 0.459656 0.436127
0.491638 0.467560 0.443390
0.500275 0.475525 0.450653
0.195526 0.195160 0.194763
0.208252 0.207550 0.206665
0.220795 0.219513 0.218170
0.233337 0.231445 0.229401
0.245758 0.243103 0.240356
0.257996 0.254517 0.251007
0.269989 0.265686 0.261353
0.281708 0.276550 0.271332
0.293030 0.287018 0.280823
0.304138 0.297180 0.290100
0.314880 0.307007 0.298981
0.325287 0.316467 0.307526
0.335358 0.325653 0.315826
0.345215 0.334564 0.323792
0.354736 0.343201 0.331573
0.363983 0.351624 0.339081
0.373047 0.359802 0.346436
0.381897 0.367798 0.353577
0.390625 0.375641 0.360565
0.399170 0.383392 0.367462
0.407593 0.390991 0.374268
0.415924 0.398499 0.381012
0.424164 0.405975 0.387695
0.432373 0.413452 0.394348
0.440521 0.420868 0.401001
0.448730 0.428314 0.407715
0.456970 0.435760 0.414459
0.465271 0.443359 0.421326
0.473663 0.451050 0.428284
0.482147 0.458832 0.435364
0.490692 0.466736 0.442566
0.499329 0.474670 0.449890
0.507935 0.482666 0.457245
0.206848 0.206177 0.205383
0.219574 0.218414 0.217072
0.231995 0.230225 0.228302
0.244446 0.241913 0.239227
0.256683 0.253357 0.249908
0.268707 0.264526 0.260254
0.280457 0.275391 0.270264
0.291901 0.285950 0.279907
0.302948 0.296112 0.289124
0.313690 0.305939 0.298035
0.324188 0.315491 0.306671
0.334290 0.324707 0.314941
0.344147 0.333618 0.322968
0.353729 0.342285 0.330719
0.363007 0.350708 0.338257
0.372101 0.358948 0.345612
0.381012 0.366974 0.352814
0.389679 0.374817 0.359833
0.398285 0.382568 0.366730
0.406677 0.390167 0.373535
0.415009 0.397736 0.380280
0.423279 0.405182 0.386963
0.431458 0.412598 0.393616
0.439667 0.420044 0.400299
0.447876 0.427521 0.406982
0.456085 0.435028 0.413727
0.464355 0.442566 0.420563
0.472748 0.450195 0.427521
0.481262 0.458008 0.434601
0.489807 0.465881 0.441833
0.498413 0.473816 0.449066
0.506989 0.481812 0.456482
0.515594 0.489838 0.463867
0.218170 0.217041 0.215759
0.230835 0.229065 0.227203
0.243225 0.240753 0.238190
0.255463 0.252228 0.248871
0.267456 0.263397 0.259186
0.279205 0.274261 0.269226
0.290710 0.284851 0.278900
0.301819 0.295074 0.288177
0.312592 0.304932 0.297119
0.323029 0.314484 0.305756
0.333221 0.323730 0.314056
0.343079 0.332672 0.322144
0.352692 0.341400 0.329926
0.362030 0.349823 0.337494
0.371155 0.358063 0.344849
0.380066 0.366119 0.352081
0.388733 0.373993 0.359070
0.397369 0.381744 0.366028
0.405792 0.389374 0.372772
0.414124 0.396881 0.379578
0.422363 0.404419 0.386261
0.430573 0.411835 0.392914
0.438751 0.419250 0.399567
0.446991 0.426697 0.406250
0.455231 0.434174 0.412994
0.463470 0.441742 0.419830
0.471832 0.449402 0.426788
0.480286 0.457153 0.433838
0.488861 0.464996 0.440979
0.497467 0.472992 0.448303
0.506073 0.480988 0.455688
0.514709 0.489014 0.463104
0.523407 0.497101 0.470520
0.229462 0.227783 0.225983
0.242004 0.239594 0.237122
0.254303 0.251129 0.247833
0.266266 0.262299 0.258209
0.278046 0.273163 0.268188
0.289459 0.283752 0.277863
0.300690 0.294006 0.287262
0.311493 0.303894 0.296204
0.321960 0.313477 0.304840
0.332123 0.322754 0.313232
0.342041 0.331757 0.321289
0.351685 0.340454 0.329102
0.361023 0.348938 0.336700
0.370178 0.357178 0.344116
0.379089 0.365265 0.351288
0.387878 0.373199 0.358337
0.396423 0.380951 0.365295
0.404846 0.388519 0.372070
0.413208 0.396088 0.378845
0.421448 0.403564 0.385498
0.429657 0.411011 0.392212
0.437897 0.418457 0.398865
0.446045 0.425873 0.405518
0.454285 0.433350 0.412262
0.462585 0.440918 0.419098
0.470917 0.448578 0.426025
0.479401 0.456299 0.433075
0.487946 0.464172 0.440247
0.496552 0.472107 0.447540
0.505157 0.480103 0.454895
0.513763 0.488159 0.462280
0.522522 0.496246 0.469696
0.531311 0.504517 0.477142
0.240692 0.238342 0.235962
0.253113 0.249969 0.246826
0.265106 0.261261 0.257233
0.276825 0.272095 0.267181
0.288361 0.282654 0.276886
0.299500 0.292938 0.286255
0.310364 0.302887 0.295319
0.320862 0.312439 0.303955
0.331116 0.321777 0.312347
0.341003 0.330811 0.320465
0.350647 0.339539 0.328278
0.360046 0.348022 0.335876
0.369202 0.356293 0.343292
0.378113 0.364410 0.350525
0.386932 0.372314 0.357605
0.395508 0.380096 0.364532
0.404022 0.387756 0.371368
0.412292 0.395294 0.378113
0.420624 0.402740 0.384796
0.428802 0.410187 0.391479
0.436981 0.417664 0.398163
0.445221 0.425110 0.404846
0.453430 0.432526 0.411560
0.461670 0.440094 0.418335
0.470001 0.447754 0.425293
0.478485 0.455475 0.432281
0.487061 0.463318 0.439484
0.495636 0.471252 0.446747
0.504242 0.479248 0.454102
0.512848 0.487274 0.461517
0.521515 0.495361 0.468933
0.530426 0.503662 0.476318
0.539368 0.512085 0.483704
0.251740 0.248688 0.245605
0.264038 0.260162 0.256226
0.275757 0.271118 0.266327
0.287201 0.281677 0.275970
0.298401 0.291931 0.285309
0.309265 0.301819 0.294342
0.319824 0.311493 0.303101
0.330017 0.320801 0.311462
0.339966 0.329865 0.319580
0.349670 0.338654 0.327454
0.359070 0.347168 0.335114
0.368256 0.355438 0.342529
0.377228 0.363525 0.349762
0.385986 0.371460 0.356842
0.394592 0.379242 0.363800
0.403107 0.386902 0.370636
0.411438 0.394470 0.377380
0.419739 0.401978 0.384094
0.427948 0.409424 0.390778
0.436127 0.416840 0.397400
0.444305 0.424255 0.404114
0.452576 0.431763 0.410858
0.460815 0.439331 0.417633
0.469147 0.446899 0.424530
0.477539 0.454620 0.431549
0.486053 0.462463 0.438660
0.494720 0.470398 0.445953
0.503357 0.478363 0.453308
0.511932 0.486389 0.460693
0.520569 0.494446 0.468109
0.529388 0.502716 0.475525
0.538422 0.511169 0.482910
0.547485 0.519653 0.490173
0.262451 0.258820 0.254974
0.274567 0.269989 0.265289
0.286041 0.280640 0.275055
0.297272 0.290894 0.284393
0.308136 0.300842 0.293427
0.318695 0.310425 0.302124
0.329010 0.319855 0.310608
0.338928 0.328949 0.318756
0.348633 0.337708 0.326660
0.358093 0.346252 0.334290
0.367310 0.354584 0.341736
0.376282 0.362701 0.349030
0.385071 0.370636 0.356110
0.393707 0.378448 0.363098
0.402161 0.386108 0.369904
0.410522 0.393677 0.376678
0.418823 0.401184 0.383362
0.427063 0.408600 0.390015
0.435211 0.416046 0.396729
0.443390 0.423462 0.403381
0.451630 0.430939 0.410065
0.459930 0.438477 0.416901
0.468262 0.446136 0.423828
0.476654 0.453827 0.430817
0.485168 0.461639 0.437958
0.493774 0.469543 0.445160
0.502319 0.477509 0.452484
0.511017 0.485535 0.459900
0.519684 0.493622 0.467346
0.528442 0.501831 0.474731
0.537415 0.510223 0.482117
0.546448 0.518677 0.489380
0.555542 0.527252 0.496552
0.273224 0.268768 0.264160
0.284912 0.279602 0.274109
0.296143 0.289917 0.283508
0.307129 0.299927 0.292603
0.317657 0.309540 0.301300
0.327911 0.318878 0.309723
0.337952 0.328003 0.317932
0.347656 0.336823 0.325836
0.357117 0.345367 0.333527
0.366364 0.353699 0.340973
0.375397 0.361877 0.348236
0.384186 0.369812 0.355377
0.392792 0.377625 0.362335
0.401306 0.385315 0.369202
0.409668 0.392883 0.375977
0.417969 0.400391 0.382660
0.426178 0.407837 0.389313
0.434357 0.415253 0.395966
0.442535 0.422699 0.402649
0.450745 0.430145 0.409393
0.458984 0.437653 0.416138
0.467346 0.445251 0.423004
0.475800 0.452972 0.430054
0.484283 0.460815 0.437195
0.492828 0.468689 0.444397
0.501465 0.476685 0.451721
0.510071 0.484680 0.459076
0.518738 0.492767 0.466492
0.527527 0.500946 0.473938
0.536438 0.509308 0.481323
0.545471 0.517822 0.488617
0.554565 0.526337 0.495758
0.563629 0.534851 0.502838
0.283722 0.278473 0.273071
0.295074 0.288910 0.282593
0.305969 0.298889 0.291626
0.316589 0.308563 0.300446
0.326904 0.317963 0.308899
0.336884 0.327057 0.317078
0.346619 0.335876 0.325012
0.356110 0.344482 0.332733
0.365356 0.352844 0.340179
0.374420 0.360992 0.347473
0.383270 0.369019 0.354645
0.391907 0.376831 0.361633
0.400391 0.384521 0.368469
0.408783 0.392090 0.375244
0.417084 0.399567 0.381958
0.425293 0.407043 0.388611
0.433502 0.414429 0.395264
0.441650 0.421844 0.401917
0.449860 0.429291 0.408600
0.458130 0.436859 0.415436
0.466400 0.444427 0.422272
0.474823 0.452118 0.429230
0.483368 0.459900 0.436340
0.491913 0.467834 0.443604
0.500519 0.475739 0.450897
0.509186 0.483856 0.458313
0.517761 0.491882 0.465698
0.526611 0.500122 0.473175
0.535522 0.508453 0.480530
0.544525 0.516907 0.487823
0.553619 0.525452 0.495056
0.562653 0.533997 0.502075
0.571686 0.542511 0.509033
0.293823 0.287720 0.281555
0.304993 0.298035 0.290894
0.315521 0.307648 0.299591
0.325836 0.316986 0.308014
0.335876 0.326141 0.316254
0.345642 0.334991 0.324188
0.355164 0.343597 0.331940
0.364410 0.351990 0.339447
0.373444 0.360168 0.346741
0.382294 0.368134 0.353851
0.390991 0.375977 0.360870
0.399506 0.383698 0.367767
0.407898 0.391296 0.374542
0.416199 0.398773 0.381226
0.424438 0.406219 0.387909
0.432617 0.413666 0.394562
0.440796 0.421082 0.401215
0.448975 0.428528 0.407898
0.457184 0.436005 0.414673
0.465515 0.443604 0.421509
0.473907 0.451294 0.428528
0.482391 0.459076 0.435608
0.490936 0.466949 0.442810
0.499573 0.474915 0.450104
0.508240 0.482971 0.457489
0.516876 0.491058 0.464905
0.525665 0.499207 0.472351
0.534515 0.507477 0.479706
0.543579 0.516022 0.487030
0.552612 0.524506 0.494263
0.561768 0.533112 0.501343
0.570709 0.541595 0.508301
0.579590 0.550018 0.515106
0.303772 0.296783 0.289795
0.314697 0.306854 0.298889
0.324860 0.316162 0.307281
0.334930 0.325287 0.315460
0.344666 0.334106 0.323395
0.354187 0.342743 0.331146
0.363495 0.351166 0.338684
0.372528 0.359314 0.345947
0.381409 0.367310 0.353119
0.390076 0.375153 0.360138
0.398590 0.382843 0.367004
0.406982 0.390472 0.373810
0.415283 0.397980 0.380524
0.423553 0.405426 0.387207
0.431763 0.412872 0.393860
0.439911 0.420288 0.400513
0.448090 0.427734 0.407196
0.456299 0.435211 0.413940
0.464600 0.442780 0.420776
0.473022 0.450470 0.427765
0.481506 0.458252 0.434845
0.490082 0.466125 0.442047
0.498718 0.474121 0.449371
0.507294 0.482086 0.456757
0.515930 0.490143 0.464142
0.524658 0.498322 0.471527
