content/luts/atmosphere/atmosphere_12.cube
#Created by: inPixio
#Copyright: (C) Copyright 2022 inPixio
TITLE "Atmosphere 1"
#LUT size
LUT_3D_SIZE 32
#data domain
DOMAIN_MIN 0.0 0.0 0.0
DOMAIN_MAX 1.0 1.0 1.0
#LUT data points
0.000000 0.000000 0.000000
0.029175 0.000000 0.000000
0.059861 0.000000 0.000198
0.088945 0.000000 0.000198
0.118242 0.000000 0.000397
0.147387 0.000000 0.000595
0.177050 0.000000 0.000793
0.207172 0.000000 0.001190
0.237766 0.000000 0.001190
0.268834 0.000000 0.001770
0.300465 0.000000 0.001770
0.332540 0.000000 0.002365
0.365454 0.000000 0.002564
0.398810 0.000000 0.003159
0.432624 0.000000 0.003738
0.467063 0.000000 0.004135
0.501961 0.000000 0.004730
0.537316 0.000000 0.004730
0.572992 0.000000 0.004334
0.608835 0.000000 0.004135
0.644907 0.000000 0.003357
0.680995 0.000000 0.002564
0.717342 0.000000 0.001770
0.753643 0.000000 0.000595
0.787427 0.000000 0.000000
0.819135 0.000000 0.000000
0.850263 0.000000 0.000000
0.880751 0.000000 0.000000
0.910582 0.000000 0.000000
0.936019 0.000000 0.000000
0.958877 0.000000 0.000000
0.980255 0.000000 0.000000
0.000000 0.029969 0.000000
0.028779 0.028779 0.000000
0.060014 0.022278 0.000000
0.090135 0.016159 0.000198
0.119677 0.011231 0.000397
0.148943 0.005921 0.000793
0.178500 0.000992 0.001190
0.208393 0.000000 0.001190
0.239002 0.000000 0.001572
0.269993 0.000000 0.001770
0.301518 0.000000 0.002167
0.333623 0.000000 0.002564
0.366522 0.000000 0.003159
0.399756 0.000000 0.003555
0.433738 0.000000 0.004532
0.468055 0.000000 0.005127
0.502968 0.000000 0.005325
0.538354 0.000000 0.005127
0.573922 0.000000 0.004730
0.609751 0.000000 0.004334
0.645670 0.000000 0.003555
0.681804 0.000000 0.002762
0.718090 0.000000 0.002167
0.754345 0.000000 0.000992
0.787976 0.000000 0.000000
0.819593 0.000000 0.000000
0.850691 0.000000 0.000000
0.881132 0.000000 0.000000
0.910903 0.000000 0.000000
0.936187 0.000000 0.000000
0.958984 0.000000 0.000000
0.980346 0.000000 0.000000
0.000000 0.059419 0.000000
0.024842 0.059266 0.000000
0.057130 0.057282 0.000000
0.088182 0.048447 0.000000
0.119173 0.040009 0.000198
0.149065 0.032731 0.000793
0.179263 0.025437 0.001190
0.209430 0.017350 0.001572
0.239933 0.009857 0.001968
0.270939 0.001770 0.002167
0.302617 0.000000 0.002564
0.334783 0.000000 0.003159
0.367559 0.000000 0.003738
0.400855 0.000000 0.004730
0.434699 0.000000 0.005127
0.469093 0.000000 0.005524
0.503929 0.000000 0.005127
0.539162 0.000000 0.004730
0.574685 0.000000 0.004532
0.610529 0.000000 0.003738
0.646464 0.000000 0.002960
0.682536 0.000000 0.001968
0.718792 0.000000 0.000793
0.755001 0.000000 0.000000
0.788327 0.000000 0.000000
0.819989 0.000000 0.000000
0.851011 0.000000 0.000000
0.881453 0.000000 0.000000
0.911193 0.000000 0.000000
0.936294 0.000000 0.000000
0.959075 0.000000 0.000000
0.980407 0.000000 0.000000
0.000000 0.089265 0.000000
0.021088 0.089265 0.000000
0.052674 0.088502 0.000000
0.085725 0.086183 0.000000
0.116808 0.078126 0.000000
0.148135 0.069200 0.000397
0.179095 0.062654 0.000992
0.209705 0.055253 0.001572
0.240726 0.047242 0.002365
0.272145 0.036866 0.003357
0.303868 0.026810 0.003937
0.336034 0.016159 0.004532
0.368856 0.004135 0.004929
0.402228 0.000000 0.005524
0.436133 0.000000 0.005524
0.470451 0.000000 0.005325
0.505211 0.000000 0.004929
0.540414 0.000000 0.004334
0.575876 0.000000 0.003738
0.611536 0.000000 0.002960
0.647471 0.000000 0.001770
0.683467 0.000000 0.000595
0.719692 0.000000 0.000000
0.755779 0.000000 0.000000
0.788937 0.000000 0.000000
0.820508 0.000000 0.000000
0.851499 0.000000 0.000000
0.881849 0.000000 0.000000
0.911574 0.000000 0.000000
0.936416 0.000000 0.000000
0.959136 0.000000 0.000000
0.980392 0.000000 0.000000
0.000000 0.119417 0.000000
0.016754 0.119585 0.000000
0.046891 0.119417 0.000000
0.082292 0.117998 0.000000
0.115007 0.115618 0.000000
0.145419 0.108537 0.000000
0.177432 0.099825 0.000793
0.209140 0.093004 0.002167
0.240803 0.086412 0.003159
0.272587 0.080064 0.003555
0.304677 0.072618 0.004532
0.337285 0.063233 0.005524
0.370413 0.051850 0.006119
0.403754 0.038834 0.005921
0.437629 0.023072 0.005722
0.471916 0.004730 0.004929
0.506676 0.000000 0.004532
0.541863 0.000000 0.003738
0.577295 0.000000 0.002762
0.612894 0.000000 0.001572
0.648707 0.000000 0.000397
0.684596 0.000000 0.000000
0.720729 0.000000 0.000000
0.756817 0.000000 0.000000
0.789593 0.000000 0.000000
0.821088 0.000000 0.000000
0.852079 0.000000 0.000000
0.882384 0.000000 0.000000
0.912017 0.000000 0.000000
0.936568 0.000000 0.000000
0.959228 0.000000 0.000000
0.980407 0.000000 0.000000
0.000000 0.150210 0.000000
0.011429 0.150210 0.000000
0.042496 0.150073 0.000000
0.077638 0.149538 0.000000
0.111772 0.147936 0.000000
0.144381 0.145342 0.000000
0.174960 0.139162 0.000000
0.207233 0.130282 0.000793
0.240055 0.123354 0.002564
0.272526 0.117998 0.003555
0.305104 0.111681 0.004730
0.338018 0.105196 0.004929
0.371374 0.097826 0.004929
0.405188 0.088289 0.005127
0.439277 0.076158 0.005325
0.473518 0.064088 0.004532
0.508324 0.048981 0.003738
0.543420 0.028779 0.002564
0.578759 0.005325 0.001190
0.614374 0.000000 0.000000
0.650080 0.000000 0.000000
0.685969 0.000000 0.000000
0.721981 0.000000 0.000000
0.757946 0.000000 0.000000
0.790387 0.000000 0.000000
0.821897 0.000000 0.000000
0.852735 0.000000 0.000000
0.882979 0.000000 0.000000
0.912566 0.000000 0.000000
0.936706 0.000000 0.000000
0.959258 0.000000 0.000000
0.980346 0.000000 0.000000
0.000000 0.181292 0.000000
0.004334 0.181292 0.000000
0.035096 0.181247 0.000000
0.071717 0.181186 0.000000
0.107347 0.180194 0.000000
0.141863 0.178378 0.000000
0.174456 0.175647 0.000000
0.204944 0.170321 0.000000
0.237720 0.161029 0.000000
0.271489 0.154650 0.000595
0.304921 0.149004 0.001572
0.338338 0.143267 0.002167
0.371893 0.136935 0.002762
0.405982 0.130434 0.002960
0.440238 0.122637 0.002960
0.474769 0.113176 0.002960
0.509850 0.102052 0.002365
0.544976 0.090669 0.001190
0.580301 0.077516 0.000000
0.615915 0.060609 0.000000
0.651530 0.036667 0.000000
0.687373 0.006500 0.000000
0.723339 0.000000 0.000000
0.759197 0.000000 0.000000
0.791180 0.000000 0.000000
0.822675 0.000000 0.000000
0.853529 0.000000 0.000000
0.883742 0.000000 0.000000
0.913054 0.000000 0.000000
0.936828 0.000000 0.000000
0.959304 0.000000 0.000000
0.980301 0.000000 0.000000
0.000000 0.213016 0.000000
0.000000 0.213016 0.000000
0.025040 0.213016 0.000000
0.064805 0.212970 0.000000
0.100893 0.212833 0.000000
0.137728 0.211276 0.000000
0.172335 0.209293 0.000000
0.205234 0.206607 0.000000
0.235889 0.201923 0.000000
0.269230 0.192264 0.000000
0.303441 0.186389 0.000000
0.337835 0.179980 0.000000
0.372030 0.174853 0.000000
0.406333 0.168673 0.000000
0.440864 0.162554 0.000000
0.475624 0.156054 0.000000
0.510674 0.148867 0.000000
0.546105 0.140032 0.000000
0.581674 0.129427 0.000000
0.617334 0.117571 0.000000
0.652979 0.105760 0.000000
0.688853 0.091096 0.000000
0.724758 0.072236 0.000000
0.760113 0.047761 0.000000
0.792096 0.032731 0.000000
0.823499 0.018723 0.000000
0.854322 0.008667 0.000000
0.884504 0.003159 0.000000
0.913314 0.004730 0.000000
0.936980 0.033127 0.000000
0.959320 0.067033 0.000000
0.980194 0.098924 0.000000
0.000000 0.245441 0.000000
0.000000 0.245411 0.000000
0.011429 0.245411 0.000000
0.055406 0.245335 0.000000
0.094575 0.245335 0.000000
0.131807 0.244663 0.000000
0.168551 0.243137 0.000000
0.203327 0.240971 0.000000
0.236713 0.238361 0.000000
0.267399 0.234012 0.000000
0.301335 0.225071 0.000000
0.336172 0.218250 0.000000
0.371435 0.211688 0.000000
0.406165 0.206714 0.000000
0.441047 0.201099 0.000000
0.476173 0.194598 0.000000
0.511360 0.189334 0.000000
0.546868 0.183246 0.000000
0.582544 0.176043 0.000000
0.618235 0.167666 0.000000
0.654078 0.157397 0.000000
0.690166 0.145419 0.000000
0.726070 0.134356 0.000000
0.760861 0.123690 0.000000
0.792966 0.117998 0.000000
0.824384 0.113710 0.000000
0.855238 0.110521 0.000000
0.885344 0.109529 0.000000
0.913466 0.113176 0.000000
0.937041 0.126864 0.000000
0.959274 0.143832 0.000000
0.979980 0.163653 0.000000
0.000000 0.278416 0.000000
0.000000 0.278416 0.000000
0.000000 0.278386 0.000000
0.041566 0.278386 0.000000
0.086854 0.278386 0.000000
0.124559 0.278355 0.000000
0.163287 0.277165 0.000000
0.200122 0.275578 0.000000
0.235126 0.273213 0.000000
0.268742 0.270695 0.000000
0.301518 0.267887 0.000000
0.334249 0.258183 0.000000
0.369268 0.250446 0.000000
0.405066 0.244480 0.000000
0.440635 0.238331 0.000000
0.476066 0.233936 0.000000
0.511605 0.228550 0.000000
0.547204 0.222522 0.000000
0.582971 0.217319 0.000000
0.618814 0.211139 0.000000
0.654749 0.204044 0.000000
0.690929 0.195865 0.000000
0.727047 0.185977 0.000000
0.761532 0.177264 0.000000
0.793774 0.173541 0.000000
0.825238 0.171878 0.000000
0.856031 0.171069 0.000000
0.886137 0.171649 0.000000
0.913588 0.176089 0.000000
0.937041 0.186557 0.000000
0.959121 0.199680 0.000000
0.979645 0.215244 0.000000
0.000000 0.312108 0.000000
0.000000 0.312047 0.000000
0.000000 0.312047 0.000000
0.022278 0.312047 0.000000
0.076036 0.312017 0.000000
0.117662 0.312017 0.000000
0.155993 0.311849 0.000000
0.195407 0.310369 0.000000
0.232120 0.308644 0.000000
0.267430 0.306218 0.000000
0.301549 0.303624 0.000000
0.334768 0.300710 0.000000
0.367559 0.291768 0.000000
0.402808 0.282979 0.000000
0.439139 0.277577 0.000000
0.475471 0.271077 0.000000
0.511315 0.267109 0.000000
0.547158 0.262486 0.000000
0.583124 0.256748 0.000000
0.619104 0.251057 0.000000
0.655192 0.245762 0.000000
0.691463 0.239643 0.000000
0.727611 0.232700 0.000000
0.761563 0.228138 0.000000
0.794034 0.224765 0.000000
0.825834 0.221988 0.000000
0.856870 0.220676 0.000000
0.886992 0.222171 0.000000
0.913573 0.227421 0.000000
0.936919 0.236591 0.000000
0.958877 0.248188 0.000000
0.979217 0.261326 0.000000
0.000000 0.346288 0.000000
0.000000 0.346227 0.000000
0.000000 0.346227 0.000000
0.000000 0.346304 0.000000
0.060899 0.346288 0.000000
0.109072 0.346227 0.000000
0.149340 0.346258 0.000000
0.188708 0.345510 0.000000
0.227970 0.344015 0.000000
0.264881 0.342229 0.000000
0.300435 0.339818 0.000000
0.334844 0.337133 0.000000
0.368536 0.334356 0.000000
0.401373 0.325780 0.000000
0.436942 0.316426 0.000000
0.473426 0.311605 0.000000
0.510216 0.305760 0.000000
0.546700 0.300588 0.000000
0.582712 0.296559 0.000000
0.618906 0.291386 0.000000
0.655345 0.285481 0.000000
0.691707 0.280430 0.000000
0.727962 0.275135 0.000000
0.761425 0.273457 0.000000
0.794034 0.272175 0.000000
0.825940 0.271107 0.000000
0.857069 0.270207 0.000000
0.887388 0.270344 0.000000
0.913436 0.273762 0.000000
0.936675 0.282353 0.000000
0.958495 0.293111 0.000000
0.978607 0.304799 0.000000
0.000000 0.380926 0.000000
0.000000 0.380987 0.000000
0.000000 0.380987 0.000000
0.000000 0.381064 0.000000
0.039429 0.381048 0.000000
0.097627 0.380972 0.000000
0.141589 0.380942 0.000000
0.181079 0.380896 0.000000
0.222080 0.379690 0.000000
0.260884 0.378210 0.000000
0.298024 0.376242 0.000000
0.333791 0.373816 0.000000
0.368566 0.371206 0.000000
0.402716 0.368368 0.000000
0.435584 0.360342 0.000000
0.471458 0.351629 0.000000
0.508034 0.345876 0.000000
0.545113 0.340627 0.000000
0.581949 0.334386 0.000000
0.618341 0.330648 0.000000
0.654856 0.326223 0.000000
0.691569 0.321096 0.000000
0.727520 0.315786 0.000000
0.761059 0.315755 0.000000
0.793881 0.315938 0.000000
0.825818 0.316335 0.000000
0.856992 0.316777 0.000000
0.887343 0.317983 0.000000
0.912490 0.321859 0.000000
0.935943 0.328161 0.000000
0.957855 0.336675 0.000000
0.977874 0.346654 0.000000
0.000000 0.416220 0.000000
0.000000 0.416190 0.000000
0.000000 0.416129 0.000000
0.000000 0.416220 0.000000
0.007294 0.416190 0.000000
0.080415 0.416220 0.000000
0.131426 0.416175 0.000000
0.173373 0.416175 0.000000
0.213520 0.415930 0.000000
0.255039 0.414466 0.000000
0.293965 0.412772 0.000000
0.331411 0.410849 0.000000
0.367483 0.408301 0.000000
0.402747 0.405692 0.000000
0.437339 0.402823 0.000000
0.470115 0.395468 0.000000
0.506340 0.387213 0.000000
0.542824 0.380484 0.000000
0.580011 0.375631 0.000000
0.617182 0.369604 0.000000
0.654292 0.365225 0.000000
0.690959 0.361364 0.000000
0.726513 0.358587 0.000000
0.760418 0.357580 0.000000
0.793439 0.357610 0.000000
0.825544 0.359213 0.000000
0.856779 0.361105 0.000000
0.886336 0.363272 0.000000
0.911345 0.367239 0.000000
0.934798 0.373388 0.000000
0.956664 0.381430 0.000000
0.976684 0.389227 0.000000
0.000000 0.451698 0.000000
0.000000 0.451728 0.000000
0.000000 0.451743 0.000000
0.000000 0.451774 0.000000
0.000000 0.451850 0.000000
0.055406 0.451774 0.000000
0.116640 0.451743 0.000000
0.163836 0.451759 0.000000
0.205661 0.451743 0.000000
0.247227 0.450980 0.000000
0.288441 0.449455 0.000000
0.327367 0.447776 0.000000
0.365133 0.445563 0.000000
0.401572 0.443137 0.000000
0.437141 0.440436 0.000000
0.472084 0.437675 0.000000
0.504921 0.430671 0.000000
0.541283 0.422828 0.000000
0.577630 0.415351 0.000000
0.615167 0.410971 0.000000
0.652827 0.405646 0.000000
0.690150 0.400092 0.000000
0.725246 0.399481 0.000000
0.759319 0.399512 0.000000
0.792554 0.399985 0.000000
0.824964 0.401144 0.000000
0.856336 0.403586 0.000000
0.884871 0.406867 0.000000
0.909941 0.411032 0.000000
0.933471 0.416968 0.000000
0.955291 0.424872 0.000000
0.975204 0.431418 0.000000
0.000000 0.487602 0.000000
0.000000 0.487617 0.000000
0.000000 0.487633 0.000000
0.000000 0.487633 0.000000
0.000000 0.487648 0.000000
0.013993 0.487648 0.000000
0.098024 0.487617 0.000000
0.151720 0.487556 0.000000
0.196719 0.487556 0.000000
0.237522 0.487450 0.000000
0.280797 0.486183 0.000000
0.321981 0.484688 0.000000
0.361166 0.482948 0.000000
0.399054 0.480690 0.000000
0.435859 0.478065 0.000000
0.471794 0.475380 0.000000
0.507164 0.472633 0.000000
0.539879 0.466102 0.000000
0.576288 0.458610 0.000000
0.612894 0.450874 0.000000
0.650782 0.446876 0.000000
0.688045 0.442451 0.000000
0.723705 0.439643 0.000000
0.758038 0.439918 0.000000
0.791440 0.441184 0.000000
0.823926 0.443046 0.000000
0.855451 0.445777 0.000000
0.883269 0.449012 0.000000
0.908339 0.453605 0.000000
0.931838 0.459693 0.000000
0.953613 0.466590 0.000000
0.973449 0.472938 0.000000
0.000000 0.523583 0.000000
0.000000 0.523613 0.000000
0.000000 0.523598 0.000000
0.000000 0.523644 0.000000
0.000000 0.523644 0.000000
0.000000 0.523659 0.000000
0.069734 0.523629 0.000000
0.135470 0.523583 0.000000
0.185489 0.523522 0.000000
0.229145 0.523476 0.000000
0.271244 0.523079 0.000000
0.314855 0.521614 0.000000
0.355779 0.520028 0.000000
0.394919 0.518227 0.000000
0.433219 0.515816 0.000000
0.470268 0.513222 0.000000
0.506539 0.510536 0.000000
0.542290 0.507790 0.000000
0.575006 0.501747 0.000000
0.612024 0.494987 0.000000
0.648646 0.487785 0.000000
0.685527 0.484169 0.000000
0.721508 0.482170 0.000000
0.756451 0.480903 0.000000
0.790127 0.481453 0.000000
0.822736 0.484001 0.000000
0.854154 0.487053 0.000000
0.881285 0.489662 0.000000
0.906569 0.494575 0.000000
0.930007 0.501793 0.000000
0.951721 0.507897 0.000000
0.971450 0.514077 0.000000
0.000000 0.559548 0.000000
0.000000 0.559579 0.000000
0.000000 0.559548 0.000000
0.000000 0.559548 0.000000
0.000000 0.559533 0.000000
0.000000 0.559533 0.000000
0.021485 0.559548 0.000000
0.113787 0.559442 0.000000
0.171359 0.559365 0.000000
0.218509 0.559350 0.000000
0.261540 0.559243 0.000000
0.305257 0.558419 0.000000
0.348486 0.556878 0.000000
0.389471 0.555276 0.000000
0.428992 0.553491 0.000000
0.467567 0.551095 0.000000
0.504967 0.548623 0.000000
0.541650 0.546059 0.000000
0.577859 0.543359 0.000000
0.610697 0.537865 0.000000
0.647608 0.531487 0.000000
0.683635 0.525933 0.000000
0.719356 0.523095 0.000000
0.754604 0.522332 0.000000
0.788602 0.522499 0.000000
0.821286 0.524178 0.000000
0.851896 0.526803 0.000000
0.879362 0.529107 0.000000
0.904891 0.533547 0.000000
0.928359 0.540459 0.000000
0.949798 0.547082 0.000000
0.969101 0.555032 0.000000
0.000000 0.595209 0.000000
0.000000 0.595163 0.000000
0.000000 0.595224 0.000000
0.000000 0.595193 0.000000
0.000000 0.595239 0.000000
0.000000 0.595224 0.000000
0.000000 0.595148 0.000000
0.083909 0.595102 0.000000
0.152773 0.595102 0.000000
0.205432 0.595010 0.000000
0.251515 0.594934 0.000000
0.293706 0.594858 0.000000
0.339269 0.593561 0.000000
0.382330 0.592035 0.000000
0.423194 0.590494 0.000000
0.462989 0.588678 0.000000
0.501900 0.586343 0.000000
0.539513 0.583963 0.000000
0.576654 0.581476 0.000000
0.613153 0.578943 0.000000
0.646220 0.573861 0.000000
0.682658 0.568551 0.000000
0.718059 0.564431 0.000000
0.752728 0.562356 0.000000
0.786999 0.562799 0.000000
0.819944 0.564508 0.000000
0.849806 0.565423 0.000000
0.877455 0.567575 0.000000
0.903227 0.571634 0.000000
0.926803 0.577539 0.000000
0.948226 0.582834 0.000000
0.967407 0.590997 0.000000
0.000000 0.630579 0.000000
0.000000 0.630579 0.000000
0.000000 0.630625 0.000000
0.000000 0.630579 0.000000
0.000000 0.630579 0.000000
0.000000 0.630564 0.000000
0.000000 0.630594 0.000000
0.034501 0.630472 0.000000
0.130663 0.630427 0.000000
0.190265 0.630365 0.000000
0.239841 0.630304 0.000000
0.284398 0.630198 0.000000
0.328283 0.629694 0.000000
0.373480 0.628382 0.000000
0.416251 0.626978 0.000000
0.457115 0.625452 0.000000
0.497032 0.623591 0.000000
0.536187 0.621378 0.000000
0.574167 0.619089 0.000000
0.611460 0.616754 0.000000
0.648325 0.614328 0.000000
0.683909 0.611368 0.000000
0.717464 0.605448 0.000000
0.752102 0.602792 0.000000
0.785550 0.601984 0.000000
0.818341 0.603098 0.000000
0.848188 0.603113 0.000000
0.875959 0.604944 0.000000
0.901625 0.609033 0.000000
0.925261 0.613230 0.000000
0.946654 0.617945 0.000000
0.965881 0.625223 0.000000
0.000000 0.665461 0.000000
0.000000 0.665431 0.000000
0.000000 0.665431 0.000000
0.000000 0.665446 0.000000
0.000000 0.665446 0.000000
0.000000 0.665431 0.000000
0.000000 0.665431 0.000000
0.000000 0.665370 0.000000
0.101762 0.665339 0.000000
0.172290 0.665293 0.000000
0.226261 0.665232 0.000000
0.273838 0.665156 0.000000
0.317464 0.665049 0.000000
0.362875 0.664225 0.000000
0.407462 0.662928 0.000000
0.450065 0.661540 0.000000
0.490959 0.660105 0.000000
0.531090 0.658229 0.000000
0.570275 0.656184 0.000000
0.608545 0.653956 0.000000
0.646082 0.651713 0.000000
0.683040 0.649455 0.000000
0.719341 0.647059 0.000000
0.751873 0.641978 0.000000
0.785596 0.640818 0.000000
0.816861 0.640024 0.000000
0.846738 0.639918 0.000000
0.874876 0.641245 0.000000
0.900786 0.644709 0.000000
0.923949 0.647974 0.000000
0.945113 0.652522 0.000000
0.964675 0.658167 0.000000
0.000000 0.699931 0.000000
0.000000 0.699901 0.000000
0.000000 0.699947 0.000000
0.000000 0.699931 0.000000
0.000000 0.699931 0.000000
0.000000 0.699947 0.000000
0.000000 0.699962 0.000000
0.000000 0.699916 0.000000
0.057435 0.699901 0.000000
0.149798 0.699840 0.000000
0.210727 0.699779 0.000000
0.261753 0.699672 0.000000
0.307485 0.699611 0.000000
0.350408 0.699519 0.000000
0.397131 0.698405 0.000000
0.441383 0.697139 0.000000
0.483574 0.695811 0.000000
0.524468 0.694423 0.000000
0.564798 0.692561 0.000000
0.604074 0.690593 0.000000
0.642557 0.688502 0.000000
0.680278 0.686381 0.000000
0.717357 0.684215 0.000000
0.753765 0.681941 0.000000
0.785657 0.677806 0.000000
0.816754 0.675853 0.000000
0.846113 0.675486 0.000000
0.874098 0.676738 0.000000
0.900069 0.678706 0.000000
0.923369 0.680751 0.000000
0.944244 0.685344 0.000000
0.963592 0.690486 0.000000
0.000000 0.733928 0.000000
0.000000 0.733928 0.000000
0.000000 0.733928 0.000000
0.000000 0.733944 0.000000
0.000000 0.733959 0.000000
0.000000 0.733959 0.000000
0.000000 0.733959 0.000000
0.000000 0.733959 0.000000
0.000000 0.733898 0.000000
0.120745 0.733867 0.000000
0.191806 0.733806 0.000000
0.247303 0.733745 0.000000
0.295750 0.733715 0.000000
0.340337 0.733639 0.000000
0.385031 0.733181 0.000000
0.431067 0.732052 0.000000
0.474830 0.730846 0.000000
0.516823 0.729610 0.000000
0.557687 0.728161 0.000000
0.598108 0.726329 0.000000
0.637461 0.724407 0.000000
0.676051 0.722438 0.000000
0.713741 0.720226 0.000000
0.750439 0.717800 0.000000
0.786404 0.715114 0.000000
0.816953 0.710658 0.000000
0.846571 0.709667 0.000000
0.874281 0.710567 0.000000
0.899535 0.711650 0.000000
0.922988 0.712978 0.000000
0.944091 0.716381 0.000000
0.963394 0.720089 0.000000
0.000000 0.766888 0.000000
0.000000 0.766888 0.000000
0.000000 0.766873 0.000000
0.000000 0.766888 0.000000
0.000000 0.766857 0.000000
0.000000 0.766873 0.000000
0.000000 0.766857 0.000000
0.000000 0.766857 0.000000
0.000000 0.766796 0.000000
0.081483 0.766705 0.000000
0.169680 0.766659 0.000000
0.230945 0.766552 0.000000
0.282719 0.766491 0.000000
0.329412 0.766400 0.000000
0.373007 0.766293 0.000000
0.419120 0.765515 0.000000
0.464363 0.764431 0.000000
0.507713 0.763302 0.000000
0.549477 0.762097 0.000000
0.590356 0.760754 0.000000
0.630686 0.759075 0.000000
0.670192 0.757321 0.000000
0.708934 0.755474 0.000000
0.746166 0.753048 0.000000
0.782284 0.750103 0.000000
0.817533 0.746929 0.000000
0.847440 0.742657 0.000000
0.875166 0.742306 0.000000
0.900099 0.742397 0.000000
0.922972 0.744396 0.000000
0.944305 0.745968 0.000000
0.963516 0.748669 0.000000
0.000000 0.798474 0.000000
0.000000 0.798444 0.000000
0.000000 0.798459 0.000000
0.000000 0.798444 0.000000
0.000000 0.798444 0.000000
0.000000 0.798444 0.000000
0.000000 0.798428 0.000000
0.000000 0.798444 0.000000
0.000000 0.798383 0.000000
0.014191 0.798352 0.000000
0.142855 0.798291 0.000000
0.212512 0.798245 0.000000
0.268238 0.798169 0.000000
0.317037 0.798138 0.000000
0.362310 0.798077 0.000000
0.405432 0.797925 0.000000
0.452506 0.796979 0.000000
0.497215 0.796002 0.000000
0.539971 0.794995 0.000000
0.581537 0.793881 0.000000
0.622400 0.792615 0.000000
0.662730 0.791074 0.000000
0.702251 0.789471 0.000000
0.740963 0.787839 0.000000
0.777874 0.785138 0.000000
0.813214 0.781598 0.000000
0.847425 0.777676 0.000000
0.876173 0.772671 0.000000
0.901244 0.771878 0.000000
0.924224 0.773007 0.000000
0.944854 0.774655 0.000000
0.963867 0.776623 0.000000
0.000000 0.829252 0.000000
0.000000 0.829252 0.000000
0.000000 0.829252 0.000000
0.000000 0.829252 0.000000
0.000000 0.829252 0.000000
0.000000 0.829236 0.000000
0.000000 0.829252 0.000000
0.000000 0.829236 0.000000
0.000000 0.829221 0.000000
0.000000 0.829221 0.000000
0.108354 0.829160 0.000000
0.190723 0.829130 0.000000
0.251698 0.829038 0.000000
0.303502 0.828962 0.000000
0.350515 0.828901 0.000000
0.394415 0.828809 0.000000
0.439109 0.828397 0.000000
0.485145 0.827527 0.000000
0.529213 0.826597 0.000000
0.571634 0.825635 0.000000
0.612894 0.824643 0.000000
0.653742 0.823407 0.000000
0.693919 0.822004 0.000000
0.733333 0.820523 0.000000
0.772122 0.819043 0.000000
0.808240 0.815702 0.000000
0.842237 0.811185 0.000000
0.875059 0.806210 0.000000
0.902922 0.800473 0.000000
0.925902 0.799970 0.000000
0.946532 0.800549 0.000000
0.964950 0.802594 0.000000
0.000000 0.858534 0.000000
0.000000 0.858534 0.000000
0.000000 0.858518 0.000000
0.000000 0.858518 0.000000
0.000000 0.858518 0.000000
0.000000 0.858503 0.000000
0.000000 0.858518 0.000000
0.000000 0.858518 0.000000
0.000000 0.858503 0.000000
0.000000 0.858457 0.000000
0.059571 0.858412 0.000000
0.166491 0.858381 0.000000
0.233722 0.858335 0.000000
0.288792 0.858290 0.000000
0.337774 0.858228 0.000000
0.383017 0.858198 0.000000
0.425803 0.858152 0.000000
0.471870 0.857572 0.000000
0.517006 0.856794 0.000000
0.560464 0.856016 0.000000
0.602548 0.855207 0.000000
0.643519 0.854353 0.000000
0.684245 0.853239 0.000000
0.724346 0.852003 0.000000
0.763729 0.850752 0.000000
0.802548 0.849470 0.000000
0.837598 0.845411 0.000000
0.870176 0.839750 0.000000
0.901305 0.833478 0.000000
0.927901 0.826215 0.000000
0.948592 0.825727 0.000000
0.966903 0.826200 0.000000
0.000000 0.886824 0.000000
0.000000 0.886839 0.000000
0.000000 0.886839 0.000000
0.000000 0.886839 0.000000
0.000000 0.886839 0.000000
0.000000 0.886839 0.000000
0.000000 0.886839 0.000000
0.000000 0.886839 0.000000
0.000000 0.886839 0.000000
0.000000 0.886809 0.000000
0.000000 0.886793 0.000000
0.137362 0.886732 0.000000
0.213565 0.886702 0.000000
0.272877 0.886671 0.000000
0.324117 0.886641 0.000000
0.370916 0.886595 0.000000
0.414725 0.886564 0.000000
0.457389 0.886458 0.000000
