content/luts/atmosphere/atmosphere_06.cube
#Created by: inPixio
#Copyright: (C) Copyright 2022 inPixio
TITLE "Atmosphere 6"
#LUT size
LUT_3D_SIZE 5
#data domain
#LUT data points
DOMAIN_MIN 0.000000 0.000000 0.000000
DOMAIN_MAX 0.903226 0.903226 0.903226
0.000000 0.000000 0.000000
0.299397 0.000000 0.000000
0.606104 0.000000 0.000000
0.918288 0.000000 0.000000
1.000000 0.000000 0.000000
0.000000 0.268635 0.000000
0.245075 0.252918 0.000000
0.571420 0.203525 0.000000
0.892424 0.015442 0.000000
1.000000 0.000000 0.000000
0.000000 0.545815 0.000000
0.000000 0.538186 0.000000
0.502525 0.516503 0.000000
0.837781 0.476585 0.000000
1.000000 0.408743 0.000000
0.000000 0.823148 0.000000
0.000000 0.817914 0.000000
0.367575 0.802518 0.000000
0.754925 0.775357 0.000000
1.000000 0.734417 0.000000
0.000000 1.000000 0.000000
0.000000 1.000000 0.000000
0.000000 1.000000 0.000000
0.615992 1.000000 0.000000
0.970916 1.000000 0.000000
0.000000 0.000000 0.306996
0.302083 0.000000 0.278111
0.606607 0.000000 0.223117
0.917174 0.000000 0.153994
1.000000 0.000000 0.028931
0.000000 0.249378 0.230701
0.260380 0.235050 0.213336
0.576349 0.183291 0.171527
0.893217 0.000000 0.100191
1.000000 0.000000 0.000000
0.000000 0.533990 0.030884
0.085283 0.526879 0.000000
0.512718 0.505776 0.000000
0.841352 0.465980 0.000000
1.000000 0.397269 0.000000
0.000000 0.814572 0.000000
0.000000 0.809461 0.000000
0.385641 0.794385 0.000000
0.760617 0.767483 0.000000
1.000000 0.726726 0.000000
0.000000 1.000000 0.000000
0.000000 1.000000 0.000000
0.000000 1.000000 0.000000
0.623667 1.000000 0.000000
0.972931 1.000000 0.000000
0.000000 0.000000 0.621347
0.301991 0.000000 0.602976
0.610193 0.000000 0.561517
0.919829 0.000000 0.508293
1.000000 0.000000 0.448524
0.000000 0.211795 0.563226
0.270314 0.196674 0.551797
0.584695 0.132799 0.521798
0.898055 0.000000 0.477897
1.000000 0.000000 0.423957
0.000000 0.509789 0.474098
0.159457 0.503304 0.465782
0.530053 0.483101 0.442817
0.849928 0.442802 0.406256
1.000000 0.370810 0.357336
0.000000 0.794965 0.346593
0.000000 0.790204 0.339406
0.418524 0.775769 0.318212
0.773114 0.749310 0.281117
1.000000 0.708614 0.225055
0.000000 1.000000 0.003906
0.000000 1.000000 0.000000
0.000000 1.000000 0.000000
0.640375 1.000000 0.000000
0.979828 0.985489 0.000000
0.000000 0.000000 0.939681
0.297383 0.000000 0.927459
0.612802 0.000000 0.895766
0.922637 0.000000 0.850065
1.000000 0.000000 0.796033
0.000000 0.143145 0.892714
0.266819 0.118608 0.884276
0.590021 0.000000 0.860227
0.902602 0.000000 0.821988
1.000000 0.000000 0.773617
0.000000 0.475639 0.815900
0.180621 0.469520 0.809339
0.541970 0.449332 0.790402
0.857420 0.407218 0.759167
1.000000 0.328283 0.717876
0.000000 0.767208 0.719066
0.000000 0.762783 0.713680
0.443961 0.748989 0.697917
0.784146 0.723079 0.671260
1.000000 0.682261 0.634836
0.000000 1.000000 0.597360
0.000000 1.000000 0.592569
0.154391 1.000000 0.578271
0.655039 0.995666 0.554025
0.986313 0.959793 0.520623
0.389288 0.000000 1.000000
0.488243 0.000000 1.000000
0.701091 0.000000 1.000000
0.964584 0.000000 1.000000
1.000000 0.000000 1.000000
0.319738 0.000000 1.000000
0.435248 0.000000 1.000000
0.665034 0.000000 1.000000
0.937560 0.000000 1.000000
1.000000 0.000000 1.000000
0.117907 0.430976 1.000000
0.318074 0.424414 1.000000
0.588632 0.402548 1.000000
0.875670 0.355398 1.000000
1.000000 0.260746 1.000000
0.000000 0.731914 1.000000
0.000000 0.727657 1.000000
0.452720 0.714275 1.000000
0.785168 0.688563 1.000000
1.000000 0.647425 0.984619
0.000000 1.000000 0.955490
0.000000 0.997406 0.951080
0.173480 0.985641 0.937896
0.653986 0.963867 0.915236
0.980896 0.927779 0.883192
