content/luts/atmosphere/atmosphere_11.cube
#Created by: inPixio
#Copyright: (C) Copyright 2022 inPixio
TITLE "Atmosphere 8"
#LUT size
LUT_3D_SIZE 5
#data domain
#LUT data points
DOMAIN_MIN 0.000000 0.000000 0.000000
DOMAIN_MAX 0.903226 0.903226 0.903226
0.000000 0.000000 0.000000
0.316991 0.107805 0.104997
0.766720 0.209140 0.224796
0.980240 0.416220 0.449470
1.000000 0.629908 0.680644
0.128496 0.261646 0.109361
0.271382 0.257054 0.115526
0.699260 0.369162 0.246952
0.958816 0.483040 0.451026
1.000000 0.655833 0.686641
0.294667 0.588464 0.241550
0.398703 0.580499 0.241199
0.653056 0.583993 0.260517
0.908064 0.631785 0.456809
1.000000 0.733349 0.704356
0.510414 0.843046 0.461570
0.557946 0.837552 0.459236
0.703731 0.821653 0.460304
0.875868 0.802289 0.469581
0.989014 0.820478 0.693919
0.733028 0.953582 0.714748
0.745571 0.952300 0.714260
0.798627 0.946700 0.713954
0.880262 0.938872 0.719722
0.972885 0.932860 0.738628
0.106432 0.101961 0.205524
0.209751 0.130907 0.183932
0.569162 0.272541 0.332815
0.916045 0.471168 0.541314
1.000000 0.676112 0.740139
0.140520 0.180301 0.166430
0.201907 0.196429 0.192630
0.537469 0.342763 0.334478
0.901717 0.514244 0.538369
0.999863 0.689097 0.737026
0.310277 0.487450 0.320073
0.368368 0.476082 0.323018
0.533715 0.483040 0.331792
0.860411 0.621073 0.528618
0.990936 0.747112 0.741817
0.539422 0.805829 0.531228
0.583078 0.801984 0.534264
0.698177 0.789670 0.529915
0.848798 0.774853 0.529259
0.977020 0.823606 0.734951
0.749218 0.942474 0.744839
0.760235 0.940795 0.742779
0.809293 0.937484 0.746609
0.882277 0.931960 0.751461
0.968963 0.930526 0.772366
0.206912 0.192889 0.487633
0.310704 0.209049 0.432883
0.534691 0.281254 0.459815
0.853422 0.510048 0.650935
0.974456 0.749111 0.830854
0.239200 0.264103 0.337835
0.293751 0.278935 0.336049
0.480827 0.354940 0.431251
0.819928 0.555886 0.653315
0.972091 0.756375 0.829236
0.313863 0.425361 0.402213
0.377646 0.420783 0.412345
0.493446 0.453010 0.466850
0.780514 0.614725 0.640665
0.963409 0.780209 0.819562
0.552560 0.743221 0.612802
0.589960 0.725200 0.620417
0.675959 0.710079 0.630640
0.789914 0.719326 0.642527
0.950729 0.828916 0.810117
0.783383 0.918090 0.804257
0.800244 0.912993 0.812589
0.830625 0.914351 0.812894
0.885405 0.914214 0.816129
0.955291 0.917647 0.827680
0.371405 0.330587 0.789105
0.460243 0.343130 0.772488
0.638041 0.375372 0.725170
0.830961 0.498024 0.746075
0.966644 0.740124 0.862730
0.409522 0.416342 0.688212
0.461204 0.418891 0.680125
0.595666 0.433417 0.659953
0.799664 0.539056 0.726070
0.957931 0.757275 0.863783
0.406714 0.496040 0.603067
0.453101 0.489143 0.582879
0.610544 0.555383 0.629801
0.762097 0.639139 0.724407
0.939025 0.804852 0.872938
0.537636 0.700404 0.687907
0.575662 0.684413 0.681559
0.690410 0.679957 0.709346
0.768628 0.704402 0.746761
0.930922 0.836179 0.870329
0.771450 0.904830 0.836423
0.789456 0.899611 0.841169
0.843458 0.887419 0.859770
0.884321 0.890059 0.869383
0.939513 0.902342 0.880964
0.599359 0.526696 0.947433
0.640024 0.537377 0.944167
0.760845 0.572397 0.932342
0.876036 0.599863 0.911543
0.960540 0.723674 0.907012
0.638193 0.594888 0.927993
0.670527 0.600458 0.925277
0.765118 0.618647 0.916442
0.865751 0.631998 0.898940
0.955337 0.746105 0.907164
0.624247 0.659068 0.888228
0.663783 0.668162 0.881254
0.758160 0.691096 0.872511
0.842985 0.707561 0.871016
0.938781 0.794827 0.904601
0.635981 0.765118 0.869017
0.656092 0.759701 0.863142
0.730922 0.743862 0.842527
0.840269 0.783017 0.857939
0.924117 0.850202 0.908263
0.756008 0.898207 0.887205
0.772931 0.893584 0.887038
0.825391 0.880201 0.888914
0.887236 0.874357 0.901152
0.934096 0.900603 0.929885
