content/luts/atmosphere/atmosphere_10.cube
#Created by: inPixio
#Copyright: (C) Copyright 2022 inPixio
TITLE "Atmosphere 10"
#LUT size
LUT_3D_SIZE 8
#data domain
#LUT data points
DOMAIN_MIN 0.000000 0.000000 0.000000
DOMAIN_MAX 0.903226 0.903226 0.903226
0.000000 0.000000 0.000000
0.106157 0.000198 0.000000
0.217014 0.000000 0.000000
0.338949 0.000000 0.000000
0.475364 0.000198 0.000000
0.620996 0.000000 0.000000
0.770016 0.004883 0.000000
0.912368 0.000000 0.000198
0.005478 0.087861 0.000198
0.111254 0.079301 0.000000
0.222644 0.052293 0.000397
0.346914 0.026200 0.000580
0.483101 0.033692 0.000000
0.627451 0.054261 0.000000
0.776303 0.058030 0.000000
0.912306 0.060929 0.000000
0.016037 0.193500 0.000198
0.136172 0.191028 0.000000
0.245747 0.182208 0.000000
0.362554 0.185885 0.000000
0.498604 0.205188 0.000000
0.644144 0.232929 0.000000
0.781781 0.247150 0.000198
0.920317 0.240757 0.000000
0.047105 0.347219 0.000000
0.151644 0.347463 0.000198
0.304097 0.347540 0.000198
0.405966 0.340398 0.000198
0.527810 0.362051 0.000000
0.661494 0.396307 0.000000
0.796536 0.407782 0.000000
0.926757 0.398962 0.000198
0.091676 0.572808 0.000000
0.156893 0.573358 0.000000
0.337484 0.573526 0.000198
0.483055 0.575616 0.000000
0.587732 0.577295 0.000000
0.699947 0.572137 0.000000
0.820615 0.571466 0.000000
0.936477 0.554788 0.000000
0.057710 0.784329 0.000000
0.160830 0.783688 0.000000
0.324285 0.782437 0.000000
0.500511 0.782452 0.000000
0.631998 0.781643 0.000000
0.752392 0.777874 0.000000
0.848966 0.731762 0.000198
0.951644 0.696361 0.000198
0.000000 0.921553 0.000198
0.094469 0.920913 0.000198
0.290196 0.919005 0.000000
0.469291 0.916182 0.000000
0.628840 0.912459 0.000198
0.751797 0.905821 0.000198
0.879774 0.893233 0.000000
0.968490 0.835126 0.000000
0.002152 0.997955 0.000000
0.037919 0.998032 0.000000
0.228489 0.996872 0.000000
0.422614 0.995804 0.000198
0.584085 0.994553 0.000000
0.730022 0.990372 0.000000
0.851576 0.980850 0.000000
0.980758 0.965972 0.000000
0.028534 0.000000 0.109911
0.113375 0.000000 0.106523
0.221469 0.000000 0.101671
0.345266 0.000000 0.080278
0.479713 0.000000 0.050019
0.625177 0.000000 0.006836
0.776928 0.000198 0.000000
0.914900 0.000000 0.000000
0.012299 0.076371 0.113710
0.108721 0.081010 0.108629
0.224842 0.036912 0.097200
0.350423 0.009583 0.079789
0.486900 0.001556 0.043793
0.631876 0.000000 0.001953
0.780041 0.004105 0.000000
0.916152 0.017792 0.000198
0.015244 0.193759 0.126162
0.106432 0.192310 0.101076
0.243595 0.182147 0.096986
0.364279 0.181003 0.076616
0.502602 0.193240 0.015442
0.643671 0.212161 0.000198
0.787503 0.225635 0.000198
0.921294 0.215610 0.000000
0.002731 0.347356 0.098543
0.102159 0.348821 0.061936
0.291035 0.348638 0.038315
0.405921 0.342107 0.023651
0.531487 0.362219 0.004105
0.664515 0.389853 0.000000
0.799374 0.398505 0.000000
0.929442 0.387411 0.000198
0.000000 0.573846 0.010834
0.052293 0.574319 0.000000
0.316518 0.576303 0.000000
0.479789 0.580133 0.000198
0.588983 0.580575 0.000000
0.702464 0.572213 0.000198
0.822263 0.568490 0.000000
0.938506 0.549096 0.000000
0.016037 0.787183 0.008209
0.112230 0.786893 0.000000
0.300099 0.786374 0.000000
0.491722 0.785412 0.000000
0.629419 0.782727 0.000198
0.751125 0.777493 0.000000
0.848981 0.730373 0.000198
0.952651 0.694560 0.000000
0.000000 0.923949 0.000000
0.107805 0.923278 0.000198
0.271168 0.921096 0.000000
0.457267 0.917845 0.000000
0.622049 0.913726 0.000000
0.750408 0.906706 0.000000
0.880156 0.893980 0.000000
0.968917 0.834821 0.000198
0.000000 0.998535 0.000000
0.021118 0.998581 0.000000
0.217899 0.997162 0.000000
0.410483 0.996063 0.000000
0.577234 0.995270 0.000000
0.727504 0.990814 0.000000
0.849928 0.981048 0.000000
0.980026 0.966094 0.000198
0.111879 0.000198 0.229236
0.150927 0.000000 0.226200
0.230564 0.000000 0.220569
0.359472 0.000000 0.232487
0.489296 0.000000 0.213657
0.625376 0.000000 0.158221
0.774579 0.000000 0.120958
0.915969 0.000198 0.056153
0.081590 0.048310 0.232441
0.138598 0.038514 0.229923
0.233753 0.003708 0.224445
0.360296 0.000000 0.224918
0.490440 0.000000 0.195361
0.629572 0.000000 0.153796
0.778866 0.000000 0.118776
0.917098 0.000000 0.050507
0.005661 0.173358 0.240162
0.087510 0.174044 0.238117
0.226322 0.177340 0.226734
0.360464 0.139788 0.202045
0.498711 0.106706 0.178119
0.643504 0.094575 0.151186
0.788006 0.100099 0.108629
0.922042 0.081941 0.023453
0.002152 0.346410 0.287251
0.039689 0.346243 0.275059
0.220081 0.344167 0.216205
0.394766 0.336294 0.212375
0.524361 0.342214 0.188098
0.663142 0.355139 0.146639
0.801526 0.354650 0.085389
0.929488 0.337377 0.013886
0.002152 0.570062 0.300984
0.006455 0.570275 0.283131
0.191287 0.571115 0.187305
0.443107 0.573022 0.164797
0.576410 0.569665 0.166064
0.698940 0.561288 0.135607
0.820722 0.551415 0.036515
0.939345 0.524193 0.002731
0.001175 0.785412 0.260746
0.005280 0.785977 0.224888
0.188251 0.786420 0.123171
0.442527 0.784558 0.093507
0.615473 0.782376 0.056779
0.744747 0.774701 0.044358
0.847730 0.725551 0.045457
0.952117 0.685725 0.002152
0.003128 0.924926 0.200397
0.006455 0.924880 0.169390
0.109728 0.924132 0.058030
0.408286 0.920241 0.052781
0.599954 0.915389 0.031678
0.742153 0.907576 0.017014
0.877882 0.894514 0.007431
0.968277 0.832639 0.002731
0.001755 0.999023 0.123735
0.008408 0.998962 0.100496
0.144808 0.997849 0.014267
0.362417 0.996490 0.000000
0.550286 0.996445 0.000000
0.716762 0.992187 0.000000
0.844709 0.981842 0.000198
0.978912 0.965728 0.000000
0.191745 0.000000 0.363806
0.215335 0.000198 0.360403
0.281651 0.000000 0.351186
0.368780 0.000000 0.351583
0.517372 0.000198 0.386191
0.654475 0.000198 0.379492
0.787869 0.000198 0.340887
0.918853 0.000000 0.267170
0.174685 0.000580 0.367361
0.202304 0.000397 0.364294
0.277684 0.000198 0.354788
0.368475 0.000000 0.352468
0.518212 0.000000 0.383246
0.654521 0.000000 0.371160
0.787518 0.000000 0.328008
0.918761 0.000000 0.248814
0.001755 0.131365 0.379233
0.082765 0.134005 0.377249
0.250752 0.134661 0.368231
0.372259 0.103304 0.359777
0.516854 0.017014 0.365667
0.650156 0.000000 0.330617
0.784482 0.000000 0.271107
0.921630 0.000000 0.222950
0.001556 0.304158 0.388602
0.048310 0.304891 0.387961
0.206592 0.310872 0.384253
0.363272 0.318608 0.365026
0.512932 0.282109 0.331487
0.657176 0.256443 0.296574
0.798596 0.231830 0.262486
0.930114 0.194919 0.224445
0.000977 0.564035 0.467857
0.001175 0.564111 0.461418
0.142229 0.562432 0.432380
0.353857 0.557214 0.355963
0.553658 0.553887 0.351858
0.686229 0.535882 0.321981
0.814893 0.510506 0.276967
0.938872 0.472847 0.228016
0.001556 0.780774 0.470375
0.000778 0.780667 0.463783
0.019348 0.781186 0.422614
0.329122 0.779278 0.336019
0.577936 0.778210 0.324758
0.729046 0.766232 0.330571
0.841672 0.717235 0.305943
0.949523 0.671656 0.241947
0.000778 0.923095 0.433631
0.001373 0.923018 0.423652
0.056153 0.922515 0.391455
0.311864 0.920897 0.326284
0.553842 0.915969 0.312993
0.728481 0.907515 0.306645
0.872297 0.895110 0.307866
0.965240 0.830823 0.281483
0.000977 0.998474 0.387732
0.000977 0.998261 0.379156
0.044907 0.998169 0.350958
0.288075 0.997650 0.305287
0.509636 0.997726 0.287480
0.694377 0.993576 0.268238
0.836545 0.982773 0.252873
0.976532 0.966033 0.230869
0.286732 0.000000 0.511772
0.303487 0.000000 0.508995
0.355398 0.000000 0.499382
0.422141 0.000198 0.482429
0.515557 0.000000 0.491997
0.676371 0.000198 0.529442
0.816617 0.000000 0.518624
0.934798 0.000000 0.476463
0.275197 0.000000 0.515099
0.291615 0.000000 0.511910
0.348592 0.000000 0.502236
0.420905 0.000000 0.485328
0.518746 0.000000 0.495003
0.678355 0.000000 0.528969
0.815976 0.000000 0.514839
0.934173 0.000198 0.469978
0.191486 0.085832 0.527886
0.224201 0.086503 0.525795
0.320165 0.062516 0.516686
0.415351 0.010208 0.498665
0.521965 0.001755 0.500374
0.683055 0.000198 0.525567
0.812802 0.000000 0.495689
0.933562 0.000000 0.446037
0.001556 0.272160 0.544121
0.022278 0.268315 0.543191
0.178500 0.254658 0.538354
0.383917 0.263966 0.520104
0.521904 0.249226 0.506874
0.678630 0.233463 0.504723
0.806165 0.023850 0.453162
0.931762 0.000198 0.386145
0.001755 0.485893 0.553216
0.008011 0.486214 0.552071
0.143420 0.493324 0.550500
0.341817 0.505592 0.542611
0.512322 0.523766 0.516960
0.668788 0.471336 0.472328
0.806531 0.418860 0.422263
0.936950 0.368811 0.378073
0.000977 0.775189 0.636790
0.001556 0.775326 0.632822
0.062226 0.774334 0.619913
0.300649 0.770169 0.580072
0.511055 0.764935 0.518776
0.704570 0.755245 0.516869
0.825773 0.706539 0.477653
0.943023 0.648325 0.416617
0.001556 0.920943 0.611383
0.000778 0.920806 0.607645
0.056153 0.919829 0.589410
0.297994 0.917250 0.557672
0.510658 0.912627 0.521370
0.711833 0.905455 0.513619
0.855207 0.889311 0.516915
0.956191 0.833860 0.477928
0.001175 0.998077 0.561822
0.001175 0.998108 0.557946
0.065766 0.997864 0.546319
0.296696 0.997757 0.527581
0.501198 0.997360 0.513954
0.680674 0.992721 0.502556
0.835996 0.982010 0.492073
0.974350 0.967559 0.483909
0.370947 0.000000 0.662303
0.384924 0.000198 0.660105
0.428031 0.000000 0.653559
0.491737 0.000000 0.639643
0.566079 0.000000 0.623972
0.671687 0.000000 0.637064
0.819013 0.000198 0.646311
0.953307 0.000198 0.629770
0.363897 0.000198 0.666804
0.375036 0.000000 0.665415
0.422004 0.000000 0.658259
0.489204 0.000000 0.644297
0.566781 0.000000 0.627665
0.671397 0.000000 0.637461
0.819638 0.000397 0.645640
0.952865 0.000397 0.627298
0.313191 0.013687 0.676265
0.333120 0.012299 0.674556
0.392111 0.000000 0.667857
0.473747 0.000000 0.653574
0.562051 0.000198 0.633555
0.675319 0.000198 0.642481
0.823758 0.000000 0.645075
0.952407 0.000000 0.618524
0.051164 0.183291 0.694255
0.082292 0.185458 0.693385
0.291386 0.219150 0.686091
0.434134 0.215381 0.671122
0.548516 0.143908 0.648493
0.677989 0.139925 0.648402
0.827543 0.187457 0.643763
0.948394 0.061799 0.600092
0.001175 0.434302 0.703868
0.007630 0.432715 0.703365
0.100191 0.425910 0.701091
0.317342 0.421317 0.695262
0.519432 0.451621 0.674235
0.674266 0.443946 0.656703
0.819776 0.463050 0.634516
0.939849 0.347662 0.569253
0.001755 0.661891 0.711467
0.001755 0.662959 0.710552
0.063523 0.667750 0.708064
0.315267 0.682658 0.703899
0.499504 0.708614 0.695506
0.662242 0.728618 0.668727
0.800641 0.671778 0.619684
0.930724 0.605936 0.562356
0.001373 0.907713 0.779873
0.001373 0.907927 0.777920
0.062226 0.910308 0.772641
0.285100 0.910292 0.754971
0.509026 0.904204 0.723690
0.680400 0.896605 0.686534
0.835508 0.885039 0.686320
0.939712 0.841733 0.641794
0.001373 0.997559 0.738994
0.000778 0.997284 0.736324
0.091234 0.996963 0.727169
0.301625 0.996445 0.711711
0.519982 0.995438 0.701244
0.685878 0.988464 0.691875
0.840391 0.979278 0.684840
0.959411 0.964675 0.681514
0.426902 0.000000 0.803693
0.436164 0.000198 0.802854
0.474540 0.000000 0.798947
0.535988 0.000198 0.791058
0.613718 0.000000 0.778531
0.708232 0.000000 0.771969
0.820218 0.000000 0.773083
0.948211 0.000000 0.751095
0.417685 0.000000 0.806134
0.428977 0.000000 0.805173
0.467857 0.000000 0.801251
0.531670 0.000000 0.793179
0.611276 0.000198 0.780530
0.707103 0.000000 0.772717
0.821073 0.000000 0.773861
0.948821 0.000198 0.751034
0.379187 0.000000 0.811841
0.393072 0.000198 0.810742
0.440024 0.000198 0.806943
0.511818 0.000000 0.798932
0.599863 0.000198 0.786160
0.700999 0.000000 0.774289
0.820890 0.000000 0.774731
0.949477 0.000198 0.750057
0.265309 0.165881 0.822614
0.293919 0.173419 0.821500
0.375753 0.189487 0.817334
0.471199 0.155947 0.808896
0.574334 0.074907 0.795651
0.688960 0.000000 0.778347
0.819089 0.022278 0.777295
0.950622 0.073793 0.749874
0.007813 0.324422 0.835111
0.010422 0.323812 0.834836
0.162951 0.337240 0.832349
0.378348 0.390189 0.824292
0.537560 0.404028 0.809400
0.666941 0.329458 0.789029
0.815473 0.369909 0.781125
0.946929 0.462669 0.758801
0.002731 0.576272 0.838377
0.002152 0.576822 0.838102
0.086839 0.579919 0.836500
0.302541 0.593683 0.832990
0.482780 0.627283 0.825879
0.657450 0.663981 0.804425
0.801465 0.657298 0.786252
0.933333 0.680995 0.765927
0.003906 0.785092 0.841108
0.013489 0.787320 0.840726
0.048997 0.793027 0.839704
0.317250 0.808179 0.836667
0.509697 0.831891 0.832563
0.667781 0.857084 0.825986
0.797498 0.866194 0.802869
0.918914 0.821622 0.758511
0.000000 0.983978 0.897749
0.000397 0.984375 0.897520
0.067170 0.986664 0.895399
0.304128 0.990250 0.888258
0.522530 0.991440 0.875715
0.687663 0.983749 0.852155
0.824598 0.976379 0.827421
0.946334 0.964157 0.824720
0.459266 0.000198 0.930343
0.467369 0.000000 0.929976
0.499184 0.000000 0.928344
0.556863 0.000000 0.925200
0.634424 0.000000 0.919982
0.730343 0.000000 0.912703
0.843259 0.000198 0.912932
0.954604 0.000000 0.894774
0.451728 0.000000 0.931060
0.458076 0.000198 0.930739
0.492927 0.000198 0.929320
0.552010 0.000000 0.926131
0.631067 0.000198 0.921004
0.727932 0.000000 0.913619
0.842023 0.000198 0.913298
0.954803 0.000000 0.895369
0.420829 0.000000 0.934020
0.431693 0.000000 0.933532
0.468132 0.000000 0.932021
0.532311 0.000000 0.928664
0.616007 0.000198 0.923491
0.717434 0.000198 0.915816
0.837232 0.000000 0.913848
0.957076 0.000000 0.898299
0.362326 0.162463 0.938735
0.374075 0.157595 0.938399
0.421317 0.133547 0.936690
0.494484 0.085832 0.933364
0.587381 0.015641 0.927871
0.697108 0.000198 0.920043
0.825895 0.000198 0.914412
0.956390 0.000000 0.900237
0.111086 0.280079 0.946990
0.143496 0.286229 0.946593
0.295583 0.328176 0.944137
0.437980 0.377768 0.939208
0.551492 0.365377 0.933166
0.667857 0.299489 0.925414
0.807584 0.163134 0.915724
0.948516 0.297505 0.900237
0.005859 0.477302 0.951095
0.006836 0.478904 0.950942
0.081483 0.485542 0.950149
0.310277 0.519356 0.947326
0.512261 0.599893 0.939422
0.660624 0.623484 0.928145
0.785916 0.544015 0.916304
0.935897 0.599268 0.902907
0.002731 0.690654 0.950347
0.012299 0.693187 0.950103
0.115618 0.701717 0.949172
0.306478 0.723781 0.946822
0.492668 0.761517 0.942474
0.647730 0.802121 0.936446
0.791653 0.821881 0.922179
0.921080 0.810529 0.907546
0.000580 0.871763 0.949279
0.042329 0.874159 0.949004
0.111086 0.880324 0.948364
0.332448 0.895064 0.946654
0.523583 0.915404 0.943740
0.679164 0.934844 0.941161
0.809873 0.951171 0.938750
0.920180 0.955810 0.922759
