content/luts/atmosphere/atmosphere_03.cube
#Created by: inPixio
#Copyright: (C) Copyright 2022 inPixio
TITLE "Atmosphere 3"
#LUT size
LUT_3D_SIZE 32
#data domain
DOMAIN_MIN 0.0 0.0 0.0
DOMAIN_MAX 1.0 1.0 1.0
#LUT data points
0.085725 0.106340 0.119417
0.085725 0.106340 0.119417
0.086275 0.106340 0.119661
0.089830 0.107256 0.120714
0.097719 0.108629 0.123003
0.108904 0.109636 0.125444
0.123659 0.110720 0.127733
0.143069 0.112673 0.129824
0.169207 0.115267 0.132418
0.199069 0.119585 0.135027
0.232700 0.125048 0.137957
0.269551 0.130983 0.141177
0.310140 0.139849 0.145296
0.353307 0.149416 0.150088
0.396826 0.160571 0.156512
0.441657 0.173587 0.164279
0.491173 0.183780 0.173480
0.547295 0.195605 0.183185
0.607706 0.204578 0.194522
0.665293 0.211612 0.206912
0.710124 0.224201 0.219623
0.750317 0.236072 0.235218
0.786435 0.253773 0.251515
0.817151 0.274449 0.269627
0.846220 0.295522 0.291234
0.866606 0.318242 0.312337
0.888426 0.341115 0.338048
0.910353 0.365301 0.365377
0.931472 0.391455 0.392493
0.953613 0.416968 0.422675
0.971695 0.444007 0.448798
0.983185 0.461997 0.466301
0.085725 0.106340 0.119417
0.085725 0.106340 0.119417
0.087068 0.106615 0.119829
0.089937 0.107347 0.120806
0.097520 0.108812 0.123003
0.108904 0.110460 0.125368
0.124468 0.111879 0.127657
0.143633 0.114214 0.129671
0.169390 0.117388 0.132113
0.199222 0.121538 0.134737
0.233051 0.127108 0.137743
0.270283 0.134218 0.140826
0.310369 0.141390 0.144747
0.352880 0.152621 0.149950
0.396140 0.163806 0.156512
0.441108 0.174731 0.164447
0.491112 0.188357 0.172900
0.547417 0.197162 0.182803
0.607462 0.206241 0.194217
0.662379 0.215564 0.206348
0.708263 0.225132 0.219059
0.749432 0.238804 0.234485
0.786099 0.254871 0.251026
0.816968 0.275456 0.269307
0.845518 0.298268 0.290684
0.865721 0.318410 0.311421
0.887663 0.341253 0.337347
0.910262 0.366033 0.365011
0.931456 0.391898 0.392187
0.954147 0.419089 0.423407
0.971283 0.443824 0.448219
0.982605 0.461387 0.465370
0.085725 0.107073 0.119661
0.085954 0.106981 0.119661
0.086732 0.106798 0.119753
0.090913 0.107897 0.120958
0.098039 0.110094 0.122850
0.109636 0.112230 0.125124
0.125521 0.114641 0.127260
0.145434 0.117052 0.129351
0.169909 0.120394 0.131670
0.200488 0.125689 0.134142
0.234394 0.131365 0.137148
0.271275 0.137667 0.140520
0.310933 0.147051 0.144122
0.352270 0.157137 0.149752
0.395590 0.167788 0.156512
0.441306 0.179538 0.163974
0.491173 0.193301 0.172213
0.547692 0.201312 0.182254
0.605280 0.211200 0.193607
0.659220 0.220081 0.205615
0.706081 0.226108 0.218570
0.749142 0.243000 0.233539
0.785473 0.258518 0.250202
0.816251 0.277012 0.268772
0.844572 0.301137 0.290166
0.864729 0.318593 0.310460
0.887846 0.343969 0.337209
0.910460 0.368612 0.364859
0.931212 0.392233 0.391730
0.954971 0.422019 0.424567
0.970840 0.443656 0.447578
0.981994 0.460731 0.464408
0.086397 0.111437 0.120882
0.086275 0.111528 0.120882
0.087861 0.111879 0.121126
0.091890 0.112505 0.121538
0.099809 0.113970 0.122927
0.110720 0.116640 0.124880
0.127810 0.119997 0.126558
0.148516 0.123568 0.128649
0.173022 0.127489 0.130831
0.202930 0.132036 0.133318
0.236484 0.139086 0.136172
0.272755 0.146853 0.139574
0.311742 0.155749 0.143282
0.353018 0.165271 0.149142
0.396765 0.176989 0.155810
0.442939 0.189014 0.163195
0.491127 0.199573 0.171588
0.548531 0.211200 0.181933
0.603296 0.218921 0.193088
0.655436 0.226200 0.204852
0.706996 0.235416 0.217990
0.748852 0.248814 0.232364
0.783658 0.263417 0.248936
0.815793 0.282139 0.268132
0.843290 0.305257 0.289342
0.863767 0.321889 0.309728
0.888365 0.348211 0.337163
0.910704 0.372259 0.364675
0.931441 0.394293 0.391989
0.955749 0.425773 0.425895
0.971084 0.445945 0.447990
0.982498 0.463600 0.464958
0.086839 0.119753 0.123003
0.087861 0.119997 0.123079
0.089067 0.120317 0.123079
0.092897 0.121050 0.123491
0.101381 0.122515 0.123980
0.113802 0.124956 0.124880
0.130236 0.128801 0.126162
0.152682 0.133852 0.127565
0.177447 0.138872 0.129595
0.205951 0.144610 0.131670
0.239643 0.151186 0.134737
0.275837 0.159274 0.138521
0.315023 0.168856 0.142290
0.356268 0.179370 0.147799
0.399451 0.190097 0.154772
0.445792 0.202045 0.162524
0.495338 0.214481 0.171237
0.550057 0.224537 0.181872
0.604822 0.231739 0.192935
0.658076 0.238590 0.204395
0.708660 0.247898 0.217273
0.747845 0.257740 0.231067
0.789578 0.277882 0.251865
0.819638 0.294850 0.270558
0.841657 0.310552 0.288365
0.866636 0.332845 0.311803
0.888975 0.353765 0.337163
0.911101 0.377417 0.365209
0.933654 0.401938 0.395010
0.956695 0.430686 0.427710
0.971588 0.449897 0.448737
0.983368 0.467765 0.466026
0.087861 0.132342 0.125200
0.088518 0.132570 0.125124
0.090700 0.133104 0.125124
0.095598 0.133852 0.125124
0.102449 0.135180 0.125368
0.115877 0.137804 0.125765
0.132647 0.141589 0.126314
0.155749 0.147601 0.127108
0.183291 0.154650 0.128267
0.212375 0.161212 0.130541
0.245853 0.168689 0.132952
0.282063 0.176761 0.136767
0.320470 0.186099 0.141390
0.362219 0.197849 0.146853
0.406058 0.209842 0.153994
0.452003 0.221347 0.162463
0.501000 0.232197 0.171481
0.556558 0.242695 0.181445
0.611307 0.248997 0.192065
0.663188 0.255680 0.204013
0.710872 0.263493 0.217319
0.755184 0.275700 0.232578
0.794354 0.293813 0.254459
0.824155 0.310308 0.273213
0.844572 0.324422 0.290166
0.870207 0.346120 0.314794
0.891966 0.366278 0.340612
0.913924 0.387640 0.368719
0.936050 0.411643 0.398718
0.957519 0.436301 0.429236
0.971664 0.454078 0.447913
0.983749 0.472633 0.466362
0.089937 0.150088 0.127031
0.091463 0.150347 0.127031
0.093400 0.150744 0.127031
0.098039 0.151705 0.127031
0.107256 0.153399 0.126940
0.118608 0.155688 0.127108
0.137301 0.160189 0.127489
0.159396 0.165820 0.127886
0.188403 0.173816 0.128496
0.220920 0.182696 0.129351
0.253925 0.190723 0.131746
0.292302 0.200351 0.134875
0.331212 0.210254 0.140307
0.372091 0.221088 0.146639
0.413718 0.232776 0.153399
0.461021 0.244572 0.161532
0.511849 0.255100 0.170840
0.566934 0.264210 0.181216
0.619883 0.269871 0.191653
0.670771 0.276127 0.203952
0.717723 0.284199 0.217899
0.760937 0.294987 0.234394
0.796170 0.310521 0.253407
0.826032 0.325979 0.273076
0.847410 0.340810 0.292058
0.873243 0.360937 0.317784
0.894225 0.378973 0.342687
0.916167 0.399786 0.372000
0.937438 0.420920 0.400656
0.954818 0.439078 0.423728
0.972015 0.459800 0.447898
0.984192 0.478981 0.467002
0.092897 0.173312 0.128725
0.094255 0.173709 0.128649
0.098238 0.174395 0.128649
0.103578 0.175525 0.128573
0.111788 0.177218 0.128496
0.125521 0.179217 0.128496
0.141589 0.181979 0.128725
0.164736 0.188190 0.129351
0.190570 0.195316 0.130236
0.225223 0.205432 0.130983
0.261646 0.216068 0.132265
0.298711 0.225711 0.135180
0.339132 0.236393 0.138659
0.379690 0.247471 0.145083
0.422126 0.258854 0.152102
0.470939 0.270939 0.160388
0.522408 0.280186 0.169680
0.575906 0.287907 0.179477
0.628351 0.292744 0.190311
0.677012 0.298360 0.203281
0.719478 0.304555 0.216159
0.758770 0.314153 0.231663
0.793149 0.326116 0.249302
0.822278 0.341100 0.269490
0.849409 0.357336 0.292775
0.874373 0.375845 0.317952
0.896117 0.393271 0.345312
0.915633 0.409552 0.370214
0.934402 0.425483 0.394858
0.952606 0.443854 0.419806
0.972274 0.467140 0.447654
0.985214 0.487083 0.467994
0.096986 0.201129 0.131670
0.099413 0.201556 0.131746
0.103121 0.202304 0.131746
0.108721 0.203479 0.131823
0.118944 0.205524 0.131899
0.131670 0.207691 0.131960
0.149340 0.210452 0.132342
0.169741 0.213977 0.133028
0.196765 0.221469 0.134142
0.226368 0.230274 0.135317
0.264408 0.242023 0.136172
0.304585 0.254795 0.137224
0.345312 0.266239 0.139788
0.390784 0.278279 0.142580
0.435203 0.289799 0.149416
0.482399 0.300618 0.157519
0.532738 0.307713 0.167498
0.582864 0.313024 0.177676
0.633356 0.317495 0.188769
0.678264 0.321202 0.200824
0.718654 0.326665 0.213886
0.758312 0.335943 0.230015
0.795926 0.348531 0.248142
0.825162 0.361852 0.269337
0.851515 0.377157 0.293416
0.874037 0.390219 0.316487
0.894301 0.404913 0.341436
0.912841 0.417624 0.365377
0.932433 0.433814 0.391440
0.953597 0.454078 0.420371
0.974319 0.477775 0.449729
0.986786 0.497643 0.470481
0.104234 0.235172 0.135958
0.106889 0.235538 0.135882
0.109819 0.236072 0.135821
0.116136 0.237400 0.135821
0.125917 0.239414 0.135821
0.140749 0.242069 0.135821
0.157977 0.245274 0.135958
0.179599 0.248661 0.136477
0.203815 0.252537 0.137301
0.235340 0.262120 0.138445
0.269337 0.272862 0.139788
0.310430 0.286153 0.141253
0.353246 0.299794 0.142855
0.398215 0.311635 0.145907
0.446174 0.321920 0.148928
0.492638 0.330892 0.157397
0.542351 0.336873 0.166064
0.591058 0.340841 0.176181
0.640772 0.344884 0.187305
0.687511 0.349157 0.198779
0.729137 0.355520 0.213474
0.766934 0.364050 0.229892
0.800488 0.373556 0.248600
0.827863 0.384482 0.269245
0.851072 0.394583 0.291432
0.871962 0.405844 0.313832
0.892790 0.417670 0.338705
0.914229 0.432013 0.365637
0.936065 0.448829 0.395193
0.957061 0.468864 0.424369
0.975815 0.489555 0.451743
0.988022 0.507820 0.471626
0.113634 0.274693 0.141253
0.115786 0.275059 0.141253
0.118334 0.275593 0.141314
0.125444 0.276600 0.141314
0.135607 0.278386 0.141451
0.150347 0.281056 0.141665
0.168795 0.284260 0.141939
0.190723 0.287968 0.142580
0.215702 0.291936 0.143694
0.243320 0.296696 0.145159
0.278019 0.307210 0.146990
0.316533 0.320134 0.149615
0.360266 0.333959 0.151324
0.406912 0.348211 0.153018
0.456992 0.359579 0.155489
0.508873 0.366796 0.158343
0.559594 0.372747 0.165881
0.608591 0.373785 0.172671
0.655497 0.376898 0.183993
0.699855 0.380469 0.197849
0.740642 0.386572 0.213932
0.772396 0.391409 0.230869
0.802884 0.399222 0.249378
0.828061 0.406119 0.268055
0.853147 0.416465 0.291768
0.876036 0.426307 0.317113
0.897917 0.438148 0.342947
0.918715 0.449714 0.369497
0.939391 0.465339 0.398856
0.958282 0.481651 0.425788
0.975341 0.500526 0.451301
0.988876 0.518822 0.472801
0.118944 0.316976 0.148791
0.123415 0.317586 0.148730
0.128573 0.318334 0.148730
0.135958 0.319448 0.148730
0.145907 0.321096 0.148730
0.161715 0.323751 0.148653
0.180789 0.326940 0.148928
0.203372 0.330678 0.149340
0.229313 0.334936 0.149950
0.257450 0.339773 0.151064
0.288457 0.345571 0.152483
0.329122 0.359442 0.155230
0.377966 0.379278 0.159274
0.426444 0.392905 0.161395
0.474189 0.403143 0.162829
0.525139 0.408286 0.165881
0.577417 0.411338 0.169970
0.626703 0.412726 0.177447
0.674495 0.413504 0.186404
0.716884 0.416632 0.200153
0.750668 0.418204 0.215198
0.781003 0.421836 0.231327
0.808942 0.426581 0.250477
0.835447 0.433753 0.271046
0.860746 0.442115 0.295842
0.881193 0.449561 0.320501
0.901183 0.457496 0.346624
0.920760 0.467842 0.373022
0.941115 0.481056 0.401801
0.959594 0.496437 0.427405
0.976318 0.513878 0.452110
0.990326 0.532036 0.473793
0.133852 0.364492 0.156634
0.135958 0.364675 0.156634
0.139712 0.365072 0.156573
0.147128 0.366049 0.156573
0.160266 0.368078 0.156573
0.175403 0.370626 0.156573
0.194965 0.373907 0.156634
0.218250 0.377691 0.157137
0.244099 0.381888 0.158099
0.274693 0.387732 0.159701
0.305547 0.393408 0.161532
0.340520 0.400732 0.163974
0.382864 0.413779 0.167269
0.430106 0.427512 0.170840
0.478843 0.438026 0.173083
0.531960 0.445884 0.175296
0.580896 0.446616 0.177569
0.631724 0.446922 0.181598
0.677455 0.446525 0.188556
0.720180 0.446861 0.197162
0.755062 0.448310 0.211795
0.787869 0.451164 0.229770
0.814618 0.454658 0.249943
0.838697 0.458228 0.272129
0.861311 0.463752 0.295934
0.881682 0.469123 0.321294
0.901595 0.476356 0.346807
0.921111 0.483970 0.372259
0.940353 0.494499 0.397757
0.960052 0.509209 0.425238
0.976883 0.527443 0.451148
0.990311 0.544259 0.472953
0.154833 0.413779 0.166964
0.157717 0.413962 0.166903
0.160967 0.414130 0.166842
0.165393 0.414496 0.166796
0.175143 0.415457 0.166674
0.190768 0.417395 0.166552
0.210452 0.420127 0.166430
0.232044 0.423362 0.166308
0.257481 0.427146 0.166430
0.286961 0.432166 0.167681
0.317952 0.436439 0.169162
0.351782 0.442802 0.171191
0.387030 0.448585 0.173190
0.430228 0.458763 0.176013
0.479988 0.470619 0.179919
0.529427 0.476417 0.182574
0.578317 0.477928 0.184161
0.631128 0.479652 0.189380
0.680583 0.480476 0.195804
0.723873 0.480491 0.205371
0.759533 0.479530 0.216480
0.790814 0.480110 0.232288
0.816297 0.480232 0.250248
0.838071 0.480949 0.268986
0.858564 0.482597 0.289891
0.878172 0.485893 0.312215
0.899123 0.491630 0.338979
0.919371 0.499596 0.366430
0.940597 0.510445 0.395789
0.961105 0.525872 0.425773
0.977783 0.542824 0.452552
0.988663 0.555978 0.470726
0.164859 0.460182 0.176928
0.170031 0.460731 0.176822
0.175845 0.461372 0.176822
0.183566 0.462287 0.176761
0.193545 0.463600 0.176700
0.206638 0.464820 0.176471
0.225940 0.466941 0.176410
0.248066 0.470344 0.176303
0.272068 0.474388 0.176471
0.300313 0.478676 0.177218
0.331319 0.483391 0.178607
0.366583 0.488945 0.180682
0.402380 0.495079 0.182803
0.443366 0.500420 0.185733
0.489387 0.508812 0.189380
0.544823 0.515419 0.194675
0.597971 0.519417 0.199222
0.645411 0.517968 0.203174
0.686885 0.515267 0.207965
0.724804 0.512169 0.214740
0.758480 0.509743 0.224064
0.786831 0.505974 0.233173
0.812055 0.503655 0.246754
0.834897 0.502373 0.263096
0.858305 0.504830 0.286641
0.880705 0.508782 0.312932
0.903059 0.515038 0.342580
0.924224 0.523079 0.372839
0.944900 0.533852 0.402441
0.963302 0.544946 0.428916
0.979019 0.559335 0.452995
0.989105 0.569833 0.469291
0.189685 0.515770 0.188602
0.190616 0.515847 0.188602
0.192004 0.515877 0.188602
0.198184 0.516213 0.188556
0.211841 0.517174 0.188510
0.227680 0.518334 0.188403
0.245579 0.519753 0.188357
0.266102 0.521569 0.188403
0.291127 0.524453 0.188968
0.317754 0.527810 0.189792
0.347326 0.530877 0.191028
0.381552 0.535058 0.193393
0.417044 0.537713 0.195499
0.455924 0.540871 0.198184
0.496529 0.541787 0.200153
0.543725 0.544198 0.203479
0.593896 0.545861 0.208164
0.642619 0.546532 0.213748
0.685008 0.544793 0.218662
0.723751 0.543313 0.226490
0.759945 0.541924 0.235782
0.789670 0.539437 0.246799
0.817151 0.537255 0.259800
0.843305 0.536584 0.277546
0.867277 0.536858 0.299550
0.888182 0.537621 0.321828
0.907942 0.540581 0.348180
0.927443 0.545632 0.375113
0.946090 0.553231 0.401801
0.963714 0.563516 0.427985
0.980087 0.576104 0.453178
0.990234 0.586893 0.470695
0.216068 0.558465 0.203327
0.218433 0.558557 0.203281
0.221515 0.558633 0.203235
0.226062 0.558831 0.203235
0.232044 0.559091 0.203174
0.244526 0.560906 0.203662
0.263279 0.562661 0.203906
0.283909 0.564752 0.204196
0.306386 0.567254 0.204486
0.333013 0.569635 0.205051
0.362539 0.572824 0.206439
0.395316 0.575357 0.208057
0.430869 0.577493 0.210025
0.470771 0.579400 0.212558
0.512230 0.580179 0.214694
0.557214 0.580285 0.216922
0.604563 0.580438 0.219944
0.652216 0.581918 0.227207
0.697459 0.582635 0.235294
0.733272 0.580682 0.243275
0.765667 0.578073 0.252689
0.795346 0.575540 0.264591
0.820478 0.572015 0.277958
0.844526 0.569009 0.292470
0.866880 0.566201 0.309072
0.888106 0.564355 0.327459
0.909270 0.564904 0.349676
0.929473 0.568826 0.376745
0.948501 0.575128 0.403021
0.966125 0.584573 0.429526
0.981964 0.596094 0.455146
0.993195 0.607950 0.476295
0.230823 0.598596 0.216739
0.236118 0.599603 0.217090
0.241947 0.600717 0.217578
0.249989 0.602350 0.218158
0.260273 0.604456 0.219059
0.272725 0.607034 0.220157
0.287038 0.610056 0.221515
0.306554 0.611154 0.221866
0.328496 0.612039 0.222034
0.351629 0.613016 0.222309
0.378897 0.614420 0.223209
0.410895 0.615366 0.225010
0.445472 0.616480 0.227253
0.484779 0.616739 0.229969
0.525994 0.616770 0.232776
0.569757 0.616098 0.235782
0.613947 0.615381 0.238926
0.657679 0.614969 0.243076
0.700176 0.616724 0.253025
0.738842 0.617105 0.263600
0.768307 0.613535 0.272160
0.795605 0.609491 0.282139
0.820981 0.605844 0.294225
0.844633 0.602274 0.308919
0.867491 0.599161 0.324147
0.889540 0.596429 0.341070
0.911437 0.594781 0.359701
0.932265 0.594522 0.379995
0.950774 0.598886 0.406668
0.968017 0.605478 0.431632
0.983230 0.615671 0.457389
0.995666 0.626566 0.480674
0.256474 0.637202 0.239887
0.257557 0.637583 0.240116
0.258930 0.638010 0.240360
0.262379 0.638880 0.240757
0.273365 0.639521 0.241001
0.286671 0.640086 0.241077
0.302510 0.640848 0.241230
0.320241 0.641856 0.241428
0.340047 0.642573 0.241352
0.363348 0.643732 0.241276
0.388571 0.644923 0.241520
0.416571 0.646418 0.242176
0.452354 0.647074 0.244022
0.490394 0.647318 0.246281
0.531563 0.647334 0.248859
0.573999 0.646632 0.251362
0.616953 0.646357 0.254429
0.658274 0.645777 0.257664
0.698421 0.646220 0.262303
0.734814 0.646876 0.273899
0.769726 0.647440 0.286900
0.796048 0.643610 0.298405
0.821180 0.639277 0.310613
0.844144 0.634943 0.325658
0.866194 0.630640 0.341100
0.887816 0.626993 0.357458
0.909300 0.623926 0.374594
0.930617 0.622766 0.392721
0.950896 0.622675 0.411551
0.968399 0.627436 0.434913
0.984176 0.633951 0.457755
0.994766 0.641978 0.476844
0.280720 0.668086 0.254582
0.282963 0.668330 0.254688
0.285603 0.668574 0.254765
0.289250 0.668940 0.254948
0.294072 0.669429 0.255131
0.300771 0.670314 0.255573
0.315206 0.670451 0.255421
0.332052 0.669886 0.254688
0.350576 0.669444 0.254078
0.371023 0.669749 0.254002
0.397803 0.671611 0.255421
0.426169 0.673854 0.257130
0.457176 0.675486 0.259114
0.496635 0.676494 0.262547
0.537224 0.677455 0.266819
0.578851 0.677195 0.271305
0.621515 0.677409 0.276036
0.660166 0.676844 0.281117
0.699107 0.677195 0.286839
0.734020 0.676936 0.292805
0.766033 0.676417 0.305943
0.794400 0.674327 0.319936
0.818708 0.669902 0.331487
0.842054 0.665034 0.343786
0.864622 0.660868 0.358404
0.886549 0.656550 0.373068
0.908476 0.653285 0.389014
0.929442 0.650324 0.404349
0.949432 0.649546 0.421225
0.968536 0.649760 0.438865
0.984680 0.655985 0.462928
0.994949 0.660212 0.478660
0.297047 0.703197 0.281590
0.299886 0.703410 0.281727
0.303731 0.703578 0.281788
0.309163 0.703853 0.282002
0.317433 0.704601 0.282673
0.327688 0.705593 0.283452
0.339864 0.706752 0.284489
0.353811 0.707942 0.285466
0.373602 0.708705 0.286000
0.395804 0.709819 0.287038
0.419165 0.710628 0.287770
0.446677 0.711223 0.289021
0.478737 0.711406 0.290837
0.511879 0.711299 0.292851
0.549584 0.710124 0.295399
0.589120 0.708843 0.298802
0.625773 0.706966 0.301656
0.663233 0.705577 0.305547
0.697292 0.704234 0.309316
0.731289 0.703441 0.314153
0.763455 0.703349 0.320562
0.791730 0.701595 0.333928
0.818494 0.699641 0.349523
0.842237 0.695613 0.363394
0.865309 0.690959 0.376761
0.887388 0.686442 0.391363
0.909331 0.682567 0.407157
0.930770 0.679530 0.423575
0.950927 0.678691 0.441154
0.969543 0.679591 0.459342
0.986252 0.681605 0.477821
0.994781 0.683925 0.489464
0.323354 0.734875 0.309361
0.324285 0.734997 0.309453
0.325322 0.735119 0.309606
0.329152 0.735454 0.309926
0.336736 0.736095 0.310552
0.347280 0.736294 0.310704
0.360235 0.736156 0.310582
0.374945 0.736034 0.310430
0.391745 0.736080 0.310582
0.412497 0.736645 0.311482
0.437797 0.737896 0.313573
0.464286 0.739208 0.315831
0.492409 0.739086 0.317311
0.525246 0.737575 0.318792
0.559045 0.736126 0.320851
0.594644 0.734630 0.324193
0.630915 0.732662 0.327413
0.665080 0.731670 0.332296
0.699641 0.730587 0.336873
0.731441 0.730373 0.343603
0.764080 0.730587 0.351263
0.793729 0.730816 0.359915
0.820615 0.729168 0.373816
0.844434 0.725399 0.389136
0.867048 0.720714 0.401907
0.888945 0.715267 0.413687
0.910552 0.710826 0.426825
0.931502 0.706996 0.440787
0.951354 0.704707 0.455818
0.968505 0.703960 0.471290
0.983459 0.704982 0.487190
0.995666 0.707195 0.502266
0.359319 0.762585 0.340200
0.361288 0.762631 0.340368
0.363516 0.762722 0.340551
0.366690 0.762814 0.340734
0.370947 0.762921 0.341070
0.376242 0.763073 0.341436
0.386786 0.763043 0.341680
0.401602 0.763073 0.342184
0.419638 0.763119 0.343023
0.439139 0.763195 0.344045
0.460472 0.763455 0.345373
0.485985 0.763668 0.347051
0.512764 0.763531 0.348699
0.540261 0.763256 0.350286
0.573602 0.762036 0.353185
0.607752 0.760571 0.356497
0.640574 0.759319 0.360311
0.673442 0.758022 0.364675
0.704189 0.756985 0.369207
0.734844 0.756130 0.374594
0.763439 0.755520 0.380240
0.792126 0.754925 0.387060
0.819715 0.754360 0.393896
0.844480 0.751370 0.405356
0.866896 0.746563 0.418418
0.888365 0.741100 0.430091
0.910094 0.735851 0.441657
0.930571 0.731899 0.454627
0.950134 0.729000 0.468757
0.967651 0.727794 0.483940
0.982223 0.729305 0.500969
0.992660 0.731121 0.514244
0.389899 0.785657 0.372580
0.391608 0.785672 0.372671
0.393484 0.785702 0.372793
0.397559 0.785687 0.372976
0.403784 0.785657 0.373236
0.411444 0.785611 0.373556
0.420783 0.785580 0.373892
0.432395 0.785428 0.374334
0.448127 0.785260 0.374899
0.467186 0.785168 0.375891
0.488212 0.785046 0.377157
0.510094 0.784619 0.378134
0.534279 0.784039 0.379110
0.559182 0.783108 0.379828
0.585306 0.782208 0.380987
0.615488 0.781109 0.383887
0.646876 0.779812 0.387366
0.676356 0.778561 0.390982
0.705837 0.777646 0.395239
0.734051 0.776974 0.400092
0.761807 0.776501 0.405081
0.788678 0.776242 0.410742
0.815793 0.775830 0.416800
0.842939 0.775082 0.423240
0.867491 0.772137 0.433570
0.888747 0.766430 0.446189
0.909682 0.761273 0.458228
0.930434 0.756619 0.470100
0.949294 0.753826 0.483452
0.966857 0.752377 0.498390
0.981399 0.753414 0.514733
0.990097 0.755276 0.526589
0.425132 0.806058 0.401144
0.425681 0.806058 0.401206
0.426413 0.806073 0.401251
0.430488 0.806058 0.401358
0.435981 0.806027 0.401511
0.443244 0.805951 0.401679
0.453254 0.805737 0.401846
0.465812 0.805386 0.402030
0.479927 0.804990 0.402213
0.495689 0.804593 0.402503
0.515114 0.804288 0.403281
0.535485 0.803937 0.404135
0.556954 0.803525 0.405097
0.580026 0.802884 0.405951
0.604227 0.802152 0.407858
0.629175 0.801358 0.409934
0.655222 0.800214 0.412360
0.682429 0.798840 0.415351
0.709087 0.797772 0.419120
0.735500 0.797101 0.423896
0.761425 0.796704 0.428992
0.786954 0.796429 0.434516
0.812604 0.796368 0.440360
0.838758 0.795834 0.446540
0.865995 0.795255 0.453346
0.890654 0.792264 0.462562
0.911040 0.787015 0.475059
0.930526 0.782269 0.487633
0.949310 0.778958 0.499840
0.965560 0.777401 0.513695
0.980087 0.777524 0.528618
0.989212 0.779599 0.541650
0.468040 0.823606 0.428214
0.469291 0.823545 0.428214
0.470695 0.823484 0.428214
0.473045 0.823423 0.428306
0.476432 0.823346 0.428443
0.480659 0.823224 0.428656
0.488762 0.822965 0.428855
0.500206 0.822553 0.429053
0.513298 0.822156 0.429450
0.527993 0.821912 0.430198
0.544274 0.821576 0.431083
0.562799 0.821164 0.432044
0.581704 0.820646 0.432883
0.600794 0.820172 0.433829
0.621363 0.819593 0.435050
0.643183 0.818723 0.436606
0.665385 0.817777 0.438407
0.689128 0.817136 0.441291
0.714412 0.816907 0.445411
0.738964 0.816678 0.449714
0.763760 0.816968 0.454856
0.788113 0.817105 0.460060
0.812741 0.817426 0.465583
0.837995 0.817411 0.471046
0.864118 0.817151 0.476890
0.891020 0.816220 0.482811
0.915587 0.813718 0.490715
0.932601 0.807996 0.501869
0.949172 0.803510 0.514229
0.965057 0.801694 0.528450
0.978180 0.801846 0.543832
0.988815 0.803800 0.559442
0.504036 0.838880 0.450675
0.505348 0.838819 0.450706
0.506828 0.838773 0.450721
0.509026 0.838727 0.450767
0.512169 0.838666 0.450843
0.518105 0.838682 0.451240
0.525277 0.838697 0.451728
0.533684 0.838727 0.452293
0.544472 0.838651 0.452827
0.558221 0.838361 0.453330
0.573419 0.838499 0.454627
0.590005 0.839002 0.456611
0.607721 0.839414 0.458534
0.625681 0.839277 0.459663
0.643885 0.839780 0.461860
0.662928 0.840314 0.464210
0.684108 0.840101 0.466896
0.705608 0.840177 0.470359
0.727413 0.840101 0.473961
0.749142 0.839689 0.477745
0.771160 0.839262 0.481987
0.793484 0.839002 0.486946
0.816159 0.838743 0.492012
0.839918 0.838331 0.497490
0.864653 0.837781 0.502968
0.890105 0.836942 0.509087
0.915511 0.835996 0.515526
0.938170 0.834165 0.523827
0.952651 0.829847 0.536645
0.965972 0.826444 0.550500
0.977813 0.826108 0.564492
0.985763 0.826383 0.575158
0.543999 0.856107 0.476692
0.544503 0.856123 0.476799
0.546700 0.856153 0.477028
0.550042 0.856168 0.477318
0.554498 0.856214 0.477821
0.560113 0.856275 0.478431
0.566964 0.856352 0.479164
0.574991 0.856458 0.480003
0.584466 0.856519 0.480964
0.595071 0.856580 0.482078
0.608789 0.856901 0.483925
0.624826 0.857404 0.486214
0.637964 0.857511 0.487602
0.651652 0.857328 0.488624
0.668544 0.857557 0.490684
0.683787 0.857710 0.492470
0.700084 0.857954 0.494789
0.718822 0.857878 0.497734
