content/luts/atmosphere/atmosphere_04.cube
#Created by: inPixio
#Copyright: (C) Copyright 2022 inPixio
TITLE "Atmosphere 4"
#LUT size
LUT_3D_SIZE 32
#data domain
DOMAIN_MIN 0.0 0.0 0.0
DOMAIN_MAX 1.0 1.0 1.0
#LUT data points
0.000000 0.000000 0.120150
0.000198 0.000000 0.121202
0.000198 0.000000 0.122347
0.004105 0.000000 0.123812
0.027375 0.000198 0.125521
0.058335 0.000198 0.127337
0.087739 0.000397 0.128267
0.115526 0.000000 0.130831
0.140749 0.000397 0.133028
0.164675 0.000198 0.132494
0.187305 0.000198 0.133547
0.208957 0.002548 0.133623
0.229892 0.002350 0.130755
0.250172 0.001556 0.128496
0.270710 0.003326 0.132189
0.291798 0.007034 0.137743
0.313069 0.003708 0.140963
0.336370 0.008988 0.138018
0.360723 0.008988 0.134295
0.386648 0.005280 0.134295
0.415839 0.019348 0.143420
0.447257 0.008209 0.148867
0.482322 0.014664 0.146990
0.520470 0.022873 0.142931
0.560830 0.008988 0.137881
0.607141 0.029709 0.147051
0.655039 0.020325 0.154910
0.704906 0.017594 0.156512
0.757137 0.045457 0.153140
0.810468 0.012085 0.146639
0.863706 0.037522 0.150744
0.899977 0.038712 0.159762
0.000397 0.001373 0.125292
0.000397 0.000198 0.125917
0.000397 0.001373 0.126391
0.003906 0.003128 0.127337
0.027756 0.005081 0.128878
0.059281 0.004105 0.130465
0.088853 0.003128 0.132265
0.116228 0.006058 0.132342
0.141665 0.008209 0.132799
0.165393 0.004501 0.134142
0.188098 0.004883 0.133623
0.209705 0.012497 0.131441
0.230396 0.004105 0.128573
0.250782 0.011673 0.131289
0.271214 0.013886 0.135958
0.292180 0.010422 0.140902
0.313695 0.020142 0.139635
0.336736 0.014862 0.136248
0.361166 0.015244 0.133166
0.387320 0.022675 0.138521
0.416159 0.026780 0.146990
0.447746 0.023453 0.149142
0.482704 0.023072 0.145571
0.520882 0.030106 0.141177
0.561441 0.030106 0.140826
0.607431 0.040269 0.150607
0.655329 0.029328 0.158160
0.705119 0.030106 0.155291
0.757397 0.053925 0.151583
0.810636 0.033890 0.147189
0.863829 0.049516 0.154055
0.899397 0.048829 0.162707
0.000397 0.014664 0.129107
0.000580 0.014466 0.129748
0.000977 0.013886 0.130755
0.008988 0.015061 0.131289
0.027756 0.018174 0.131518
0.060349 0.019547 0.131670
0.089830 0.020523 0.132799
0.117388 0.020920 0.134371
0.143145 0.019745 0.134814
0.166552 0.021302 0.133104
0.188968 0.022477 0.131365
0.210498 0.023651 0.129274
0.231373 0.023453 0.131594
0.251591 0.027756 0.136248
0.271931 0.028534 0.140383
0.292882 0.026978 0.140520
0.314244 0.039689 0.138170
0.337423 0.031281 0.135180
0.361944 0.036316 0.137530
0.388113 0.042695 0.143282
0.416526 0.034699 0.151003
0.448310 0.046372 0.147860
0.483375 0.044358 0.144122
0.521416 0.043244 0.142077
0.562249 0.053117 0.145296
0.607782 0.050828 0.154910
0.655695 0.052140 0.157778
0.705608 0.054902 0.154131
0.757626 0.063233 0.151644
0.810788 0.058808 0.147860
0.863935 0.061219 0.157839
0.898756 0.058961 0.166003
0.000000 0.042512 0.131823
0.000198 0.042878 0.132342
0.002350 0.043244 0.133028
0.009796 0.043427 0.133852
0.030686 0.044724 0.134295
0.062943 0.046921 0.133928
0.091890 0.048142 0.133166
0.118944 0.049516 0.132418
0.144259 0.050340 0.131518
0.167620 0.051484 0.130983
0.190051 0.053605 0.131365
0.211612 0.055375 0.134661
0.232288 0.056611 0.138445
0.252384 0.058183 0.141665
0.272938 0.059602 0.140078
0.293782 0.060487 0.138384
0.315053 0.063371 0.137743
0.338232 0.062654 0.138384
0.362799 0.064515 0.144320
0.389166 0.067033 0.150088
0.417487 0.065904 0.149554
0.449119 0.072251 0.146105
0.484352 0.070695 0.144808
0.522240 0.070954 0.145510
0.563226 0.078569 0.151385
0.608621 0.074281 0.159945
0.656260 0.079057 0.156252
0.706233 0.081712 0.152560
0.757961 0.080156 0.153079
0.811048 0.085496 0.152880
0.864195 0.084718 0.162768
0.899428 0.085161 0.165576
0.000977 0.076127 0.129503
0.001175 0.076982 0.129671
0.001953 0.078202 0.130068
0.010010 0.079179 0.130617
0.033692 0.080644 0.131136
0.063798 0.081590 0.131594
0.093294 0.081834 0.131365
0.120150 0.082643 0.131365
0.145373 0.083680 0.133700
0.169329 0.085283 0.136324
0.191135 0.087175 0.139284
0.212329 0.088411 0.140383
0.233097 0.089174 0.140078
0.253407 0.090150 0.139086
0.273732 0.091890 0.139284
0.294606 0.093004 0.139086
0.316228 0.093614 0.141039
0.339086 0.095308 0.146578
0.363806 0.096483 0.150546
0.390097 0.097932 0.149065
0.418601 0.098238 0.146990
0.450095 0.101076 0.147463
0.485161 0.100877 0.145907
0.523323 0.102159 0.152102
0.564599 0.105089 0.159396
0.609079 0.104143 0.158099
0.656931 0.106615 0.154391
0.707057 0.109087 0.156069
0.758404 0.108629 0.153277
0.811368 0.112947 0.159823
0.864454 0.112581 0.167376
0.900420 0.113542 0.164675
0.000397 0.108354 0.129915
0.000977 0.108812 0.130465
0.004303 0.109453 0.131212
0.014466 0.110643 0.132723
0.033692 0.111620 0.133928
0.065766 0.112764 0.135668
0.094575 0.113802 0.137148
0.121691 0.114473 0.137804
0.146441 0.115435 0.138094
0.170138 0.116396 0.138445
0.192371 0.117388 0.139361
0.213336 0.118853 0.140597
0.233875 0.120073 0.141314
0.254231 0.120470 0.140002
0.274693 0.121538 0.140902
0.295583 0.123003 0.145159
0.317205 0.124544 0.149142
0.339864 0.124712 0.149203
0.364508 0.126162 0.147799
0.391180 0.127657 0.149554
0.419654 0.129183 0.149279
0.450843 0.129107 0.147738
0.486030 0.131441 0.154131
0.524376 0.132723 0.158282
0.565438 0.132952 0.157519
0.609751 0.133852 0.157656
0.657893 0.136400 0.158282
0.707561 0.136843 0.155551
0.758999 0.137667 0.159518
0.811734 0.140520 0.167315
0.864759 0.139574 0.166186
0.899870 0.141253 0.166003
0.000778 0.137591 0.134737
0.001556 0.138018 0.135241
0.002930 0.138598 0.135958
0.013489 0.139437 0.136996
0.038117 0.140383 0.137957
0.067170 0.141390 0.139284
0.096284 0.142580 0.140307
0.122927 0.143694 0.141390
0.147738 0.144320 0.140673
0.171130 0.145083 0.140383
0.193545 0.145831 0.139437
0.214557 0.146853 0.139223
0.235004 0.148058 0.142443
0.255207 0.149554 0.145769
0.275624 0.149950 0.146853
0.296452 0.150927 0.146716
0.318013 0.151965 0.149279
0.340765 0.153277 0.151904
0.365347 0.154131 0.150607
0.392035 0.155093 0.148867
0.420844 0.156191 0.150805
0.451896 0.158160 0.156191
0.486900 0.158282 0.157076
0.525109 0.159518 0.157137
0.566659 0.160647 0.160708
0.610666 0.161837 0.160006
0.658381 0.162280 0.156008
0.708278 0.164096 0.160830
0.759625 0.165637 0.165026
0.811994 0.165271 0.166247
0.865141 0.166964 0.169329
0.899062 0.168032 0.170031
0.001373 0.164447 0.134066
0.002152 0.164859 0.134066
0.008209 0.165332 0.134371
0.016617 0.166247 0.134737
0.037919 0.167086 0.134875
0.069780 0.168032 0.135027
0.097826 0.168978 0.135821
0.124300 0.169909 0.137591
0.149340 0.171008 0.139712
0.172396 0.171588 0.141039
0.194324 0.172442 0.142229
0.215656 0.172900 0.145159
0.235828 0.174105 0.147540
0.256107 0.175082 0.150012
0.276463 0.176349 0.152880
0.297292 0.177112 0.151644
0.319097 0.177859 0.149889
0.341817 0.178668 0.147860
0.366003 0.179706 0.149691
0.393027 0.181064 0.153475
0.421775 0.181827 0.154574
0.453086 0.182528 0.158343
0.487526 0.183887 0.162341
0.526223 0.185031 0.162402
0.567529 0.185779 0.159396
0.611795 0.186297 0.156313
0.659205 0.188357 0.161975
0.708919 0.188708 0.164157
0.760098 0.189487 0.167498
0.812421 0.190616 0.173083
0.865522 0.191653 0.171008
0.901625 0.191852 0.165942
0.000397 0.189334 0.138521
0.003525 0.189685 0.139147
0.008789 0.190250 0.140002
0.019348 0.190875 0.141314
0.041962 0.191852 0.142641
0.071214 0.192676 0.144457
0.099321 0.193545 0.146044
0.126162 0.194369 0.148135
0.150469 0.195254 0.149813
0.173999 0.196277 0.152163
0.195544 0.196918 0.150744
0.216693 0.197604 0.149950
0.236957 0.198245 0.148058
0.257130 0.199069 0.146853
0.277455 0.199909 0.145159
0.297994 0.200931 0.145510
0.320104 0.201755 0.148394
0.342916 0.202640 0.151583
0.367147 0.203372 0.156573
0.393622 0.204440 0.161090
0.422965 0.205661 0.164447
0.454383 0.206531 0.162646
0.488380 0.206821 0.158404
0.526864 0.207965 0.155352
0.568750 0.209323 0.157656
0.612757 0.209979 0.160571
0.659739 0.210452 0.167376
0.709392 0.211841 0.172671
0.760693 0.213047 0.174853
0.812985 0.213336 0.169863
0.866041 0.213748 0.163500
0.902373 0.215290 0.166247
0.001373 0.212787 0.142153
0.003708 0.213138 0.142229
0.007233 0.213520 0.142229
0.019547 0.214115 0.142229
0.042878 0.214832 0.142504
0.073411 0.215473 0.142290
0.101183 0.216297 0.141802
0.127260 0.217014 0.141314
0.152041 0.217807 0.140383
0.174792 0.218616 0.139361
0.196918 0.219547 0.137957
0.217578 0.220157 0.141177
0.238041 0.220874 0.145159
0.258213 0.221515 0.149554
0.278492 0.222385 0.153674
0.299306 0.223117 0.157900
0.320851 0.224155 0.162280
0.343984 0.225101 0.164324
0.368353 0.225757 0.161593
0.394369 0.226276 0.157778
0.423697 0.227176 0.154574
0.455589 0.228092 0.151125
0.489708 0.229114 0.154131
0.527718 0.229633 0.161212
0.569467 0.230610 0.167559
0.614008 0.231571 0.173541
0.660700 0.232578 0.175952
0.709941 0.233051 0.169329
0.761105 0.233845 0.164920
0.813489 0.234928 0.160891
0.865843 0.235538 0.165759
0.906661 0.235996 0.174731
0.006058 0.234562 0.140307
0.008209 0.234852 0.140902
0.011460 0.235126 0.141527
0.023270 0.235706 0.142580
0.043977 0.236515 0.144396
0.074784 0.237125 0.145708
0.102739 0.237812 0.147463
0.129183 0.238514 0.149691
0.153338 0.239246 0.151904
0.176471 0.240009 0.154833
0.198047 0.240757 0.157519
0.219013 0.241596 0.160967
0.239200 0.242222 0.160891
0.259297 0.242893 0.160189
0.279439 0.243473 0.158404
0.300252 0.244144 0.156390
0.321828 0.244770 0.153994
0.344610 0.245655 0.150744
0.369528 0.246449 0.147799
0.395651 0.247181 0.151782
0.424598 0.247822 0.158465
0.456458 0.248737 0.164797
0.491203 0.249683 0.170947
0.528557 0.250675 0.176883
0.570367 0.251255 0.172274
0.614862 0.251865 0.167269
0.661631 0.252613 0.161654
0.710430 0.253483 0.155749
0.761624 0.254231 0.164035
0.813733 0.254917 0.172671
0.865019 0.255711 0.181384
0.910979 0.256748 0.188251
0.000778 0.255055 0.150012
0.007431 0.255390 0.150149
0.015839 0.255757 0.150408
0.029129 0.256260 0.150927
0.048142 0.257008 0.151446
0.077104 0.257710 0.151644
0.104601 0.258320 0.151843
0.130541 0.258961 0.151965
0.154971 0.259648 0.151644
0.177630 0.260273 0.151446
0.199023 0.260960 0.150805
0.219989 0.261570 0.151583
0.240116 0.262379 0.151965
0.260197 0.262989 0.151782
0.280247 0.263645 0.150927
0.301228 0.264241 0.153994
0.322972 0.264988 0.158099
0.345647 0.265705 0.162341
0.370520 0.266545 0.167498
0.397269 0.267277 0.172274
0.425544 0.267948 0.172732
0.457313 0.268635 0.170199
0.492226 0.269337 0.166796
0.530022 0.270008 0.163134
0.570840 0.270878 0.159091
0.615747 0.271580 0.159701
0.662471 0.272160 0.166735
0.711254 0.272969 0.174167
0.762051 0.273808 0.182849
0.814160 0.274754 0.184802
0.865736 0.275166 0.180728
0.910369 0.275761 0.174685
0.000000 0.275410 0.147463
0.002930 0.275593 0.147601
0.008606 0.275929 0.147860
0.022873 0.276341 0.148196
0.051652 0.276875 0.148394
0.078569 0.277577 0.148592
0.106249 0.278218 0.149004
0.132265 0.278859 0.150668
0.156390 0.279500 0.152224
0.179156 0.280125 0.154833
0.200488 0.280751 0.156817
0.221256 0.281392 0.159640
0.241474 0.282033 0.162341
0.261570 0.282765 0.165698
0.281697 0.283452 0.167208
0.302266 0.284001 0.167849
0.324025 0.284657 0.166964
0.346868 0.285267 0.166247
0.371160 0.285863 0.165087
0.398154 0.286641 0.163928
0.427115 0.287358 0.165087
0.457710 0.287968 0.164096
0.493248 0.288655 0.162829
0.531212 0.289342 0.168154
0.572137 0.290105 0.173022
0.616480 0.290837 0.180133
0.663478 0.291676 0.182696
0.712078 0.292210 0.180682
0.762387 0.292805 0.177966
0.814328 0.293538 0.172335
0.865461 0.294392 0.171588
0.907012 0.294789 0.171298
0.017197 0.295232 0.154254
0.021897 0.295460 0.154574
0.027375 0.295705 0.155032
0.035111 0.296132 0.155489
0.053269 0.296727 0.156130
0.079789 0.297322 0.156695
0.108080 0.297841 0.157717
0.134005 0.298497 0.158465
0.157900 0.299092 0.158908
0.180407 0.299702 0.159884
0.201755 0.300313 0.161212
0.222522 0.300923 0.163317
0.242374 0.301534 0.164385
0.262409 0.302144 0.166491
0.282673 0.302754 0.167620
0.303487 0.303365 0.168216
0.324910 0.303975 0.166430
0.348043 0.304646 0.165026
0.372335 0.305287 0.163439
0.398779 0.306004 0.166613
0.428183 0.306645 0.170718
0.459632 0.307332 0.174624
0.494102 0.308019 0.178393
0.532464 0.308782 0.178119
0.573343 0.309392 0.177447
0.616938 0.310018 0.176532
0.664088 0.310674 0.176883
0.713008 0.311421 0.177905
0.763012 0.311864 0.174853
0.814695 0.312718 0.176120
0.865889 0.313314 0.182696
0.900786 0.313802 0.188602
0.008209 0.314656 0.160769
0.018372 0.314931 0.160830
0.029328 0.315206 0.160891
0.045457 0.315648 0.161029
0.063233 0.316259 0.161151
0.083330 0.316991 0.161776
0.110811 0.317647 0.162097
0.135454 0.318181 0.161654
0.159457 0.318792 0.161471
0.182040 0.319387 0.161395
0.203128 0.320043 0.160327
0.223590 0.320623 0.160189
0.243595 0.321157 0.159457
0.263600 0.321828 0.161715
0.283681 0.322454 0.163806
0.304677 0.322988 0.166552
0.326253 0.323568 0.168917
0.349157 0.324254 0.170886
0.373739 0.324926 0.171878
0.399893 0.325567 0.173129
0.428824 0.326207 0.175784
0.460838 0.326879 0.178348
0.495293 0.327550 0.181552
0.533349 0.328176 0.182315
0.574609 0.328893 0.179263
0.618204 0.329503 0.176181
0.664591 0.330160 0.175738
0.713588 0.330785 0.180621
0.763775 0.331563 0.184924
0.815076 0.332082 0.187671
0.866301 0.332845 0.187778
0.900923 0.333196 0.187244
0.010010 0.335378 0.151522
0.011048 0.335500 0.151843
0.012711 0.335653 0.152163
0.026001 0.336019 0.152819
0.057237 0.336477 0.153796
0.085496 0.337057 0.155032
0.112230 0.337667 0.156573
0.137804 0.338369 0.158221
0.160769 0.339025 0.160388
0.183398 0.339696 0.162951
0.204624 0.340337 0.165026
0.225055 0.340917 0.167910
0.244801 0.341543 0.170367
0.264775 0.342153 0.173358
0.284840 0.342763 0.175784
0.305455 0.343298 0.179263
0.327352 0.343786 0.181491
0.350240 0.344396 0.183887
0.374823 0.345113 0.181170
0.401480 0.345754 0.178943
0.429816 0.346456 0.176059
0.461646 0.347051 0.173770
0.496574 0.347692 0.171939
0.533822 0.348226 0.174334
0.575708 0.348867 0.177859
0.619455 0.349615 0.180194
0.665400 0.350286 0.182742
0.714000 0.351034 0.186984
0.764233 0.351614 0.190768
0.815412 0.352239 0.195407
0.867018 0.352865 0.193866
0.901122 0.353185 0.188861
0.034302 0.356573 0.173877
0.040269 0.356741 0.173877
0.047105 0.357000 0.173877
0.056779 0.357290 0.174044
0.068284 0.357733 0.174228
0.088075 0.358328 0.174273
0.113542 0.358877 0.173938
0.138521 0.359518 0.173541
0.163134 0.360174 0.173358
0.185031 0.360800 0.172503
0.205860 0.361425 0.171588
0.226444 0.362051 0.170947
0.246052 0.362707 0.169451
0.265965 0.363256 0.168566
0.285924 0.363806 0.166903
0.306676 0.364324 0.165637
0.327916 0.364904 0.163974
0.351415 0.365347 0.163806
0.375662 0.365881 0.165332
0.402609 0.366720 0.168734
0.431312 0.367453 0.172671
0.462425 0.368200 0.178286
0.497551 0.368826 0.182910
0.535470 0.369528 0.187732
0.575921 0.370047 0.192981
0.620478 0.370687 0.196674
0.666651 0.371313 0.194263
0.714473 0.372046 0.189838
0.764675 0.372717 0.185412
0.815900 0.373236 0.181598
0.865507 0.373724 0.181827
0.904891 0.374167 0.185458
0.016815 0.377813 0.145968
0.029129 0.378042 0.146166
0.043427 0.378302 0.146441
0.060487 0.378714 0.146853
0.078202 0.379294 0.147402
0.097200 0.380041 0.148333
0.116716 0.380942 0.150286
0.140230 0.381552 0.152300
0.163378 0.382193 0.154452
0.186297 0.382910 0.156893
0.207279 0.383566 0.159701
0.227421 0.384253 0.163134
0.247272 0.384970 0.166308
0.267170 0.385596 0.170092
0.287190 0.386191 0.173648
0.307836 0.386832 0.177798
0.329488 0.387427 0.181598
0.352209 0.387930 0.185992
0.377173 0.388479 0.189746
0.403174 0.389029 0.194476
0.432685 0.389792 0.191959
0.464057 0.390509 0.189120
0.498344 0.391318 0.185519
0.536538 0.391806 0.181598
0.577371 0.392416 0.177966
0.620676 0.392828 0.174228
0.667536 0.393423 0.172671
0.715480 0.394049 0.176059
0.765148 0.395010 0.183505
0.816236 0.395667 0.190204
0.866682 0.396368 0.196765
0.911681 0.396811 0.204059
0.020722 0.402640 0.176761
0.023270 0.402747 0.177279
0.025803 0.402899 0.177859
0.034501 0.403174 0.178607
0.063233 0.403586 0.179706
0.090486 0.404105 0.180957
0.116716 0.404715 0.182147
0.142580 0.405432 0.182742
0.166796 0.406180 0.183185
0.187564 0.406821 0.182849
0.208713 0.407492 0.183185
0.229145 0.408179 0.182803
0.248600 0.408850 0.182208
0.268467 0.409522 0.181766
0.288365 0.410117 0.180346
0.308980 0.410773 0.179477
0.330358 0.411368 0.177279
0.353491 0.411917 0.175464
0.377676 0.412345 0.172503
0.404761 0.412848 0.169513
0.432654 0.413291 0.167376
0.465385 0.414115 0.167559
0.499336 0.414893 0.172213
0.537469 0.415732 0.178012
0.578393 0.416342 0.184054
0.621927 0.417075 0.190723
0.667994 0.417548 0.197314
0.716365 0.418158 0.202991
0.765774 0.418616 0.204852
0.816556 0.419608 0.200488
0.866850 0.420188 0.194873
0.904479 0.420676 0.188815
0.047440 0.428351 0.168261
0.054261 0.428534 0.168505
0.061509 0.428718 0.168734
0.070558 0.429007 0.169101
0.081834 0.429404 0.169635
0.095399 0.429892 0.170428
0.118944 0.430411 0.171191
0.142504 0.430976 0.171756
0.166064 0.431601 0.172107
0.189487 0.432395 0.172213
0.209705 0.433005 0.171939
0.229633 0.433738 0.171420
0.249607 0.434440 0.171359
0.269444 0.435096 0.171069
0.289311 0.435813 0.173190
0.310109 0.436454 0.176013
0.331563 0.437171 0.178454
0.354528 0.437766 0.182208
0.379248 0.438376 0.185031
0.405661 0.438834 0.189532
0.434958 0.439399 0.193195
0.465950 0.439841 0.198581
0.501335 0.440665 0.198978
0.538216 0.441444 0.198047
0.579385 0.442298 0.196323
0.622889 0.442802 0.193545
0.668666 0.443549 0.190875
0.716655 0.443748 0.185931
0.766339 0.444389 0.181933
0.816663 0.444724 0.180407
0.867109 0.445777 0.182696
0.901778 0.446220 0.189075
0.023651 0.455589 0.173480
0.033890 0.455802 0.173877
0.047791 0.456016 0.174456
0.063798 0.456397 0.175082
0.083680 0.456901 0.176242
0.104326 0.457511 0.177859
0.125612 0.458290 0.179599
0.147463 0.459129 0.181552
0.168917 0.459617 0.182849
0.190005 0.460151 0.184756
0.211475 0.460838 0.186252
0.231571 0.461555 0.186923
0.251133 0.462257 0.187732
0.270909 0.463035 0.188663
0.290806 0.463722 0.188922
0.311345 0.464469 0.189792
0.332784 0.465095 0.189227
0.355688 0.465827 0.189944
0.380118 0.466346 0.188922
0.406928 0.466941 0.188922
0.435737 0.467353 0.189120
0.467735 0.467918 0.190768
0.501656 0.468284 0.191180
0.540032 0.469062 0.190204
0.579797 0.469856 0.187930
0.623880 0.470665 0.186770
0.669566 0.471321 0.190570
0.717220 0.472053 0.194019
0.766796 0.472404 0.199756
0.817273 0.473014 0.204395
0.868376 0.473243 0.210208
0.901030 0.474037 0.208530
0.025223 0.486687 0.183017
0.029129 0.486778 0.183444
0.033494 0.486915 0.183825
0.047791 0.487190 0.184588
0.070817 0.487770 0.185672
0.095598 0.488273 0.186603
0.120806 0.488792 0.187564
0.145769 0.489448 0.188708
0.170199 0.490135 0.190250
0.192310 0.490715 0.191852
0.212299 0.491218 0.192889
0.232410 0.491798 0.193912
0.252384 0.492485 0.193713
0.271931 0.493233 0.192569
0.291707 0.494011 0.191699
0.312459 0.494682 0.190616
0.333822 0.495461 0.188861
0.356741 0.496086 0.188251
0.381323 0.496803 0.186252
0.407981 0.497276 0.188098
0.436759 0.497932 0.189426
0.468757 0.498405 0.192310
0.503227 0.498955 0.194720
0.540963 0.499336 0.198428
0.581781 0.500053 0.200443
0.624414 0.500832 0.202197
0.670527 0.501686 0.202350
0.717998 0.502327 0.202441
0.767086 0.503044 0.202640
0.817548 0.503319 0.202838
0.865934 0.503853 0.205188
0.910063 0.504021 0.205997
0.053605 0.520104 0.171878
0.060929 0.520302 0.172335
0.068421 0.520501 0.172625
0.078691 0.520745 0.173083
0.090806 0.521126 0.173770
0.104234 0.521599 0.174731
0.126009 0.522179 0.175525
0.149203 0.522774 0.176349
0.171008 0.523262 0.177508
0.192935 0.523812 0.178836
0.214740 0.524453 0.180240
0.234012 0.524941 0.181277
0.253559 0.525429 0.182803
0.273182 0.526085 0.184649
0.293309 0.526818 0.186191
0.313726 0.527627 0.188144
0.335271 0.528313 0.189426
0.358312 0.529137 0.191394
0.382330 0.529763 0.192523
0.409323 0.530449 0.195453
0.438087 0.531014 0.198093
0.469490 0.531746 0.201801
0.504356 0.532158 0.204151
0.541848 0.532692 0.207691
0.582620 0.532967 0.209888
0.625986 0.533608 0.210636
0.670924 0.534463 0.207370
0.718761 0.535164 0.204303
0.767620 0.535805 0.201175
0.817823 0.536507 0.199023
0.867353 0.536858 0.201846
0.904585 0.537102 0.204013
0.043061 0.555886 0.187625
0.050660 0.556069 0.187991
0.058961 0.556283 0.188556
0.073167 0.556603 0.189227
0.091127 0.557046 0.190204
0.109911 0.557565 0.191333
0.130144 0.558236 0.192783
0.152163 0.559060 0.194965
0.174456 0.559701 0.196918
0.194919 0.560235 0.198535
0.215106 0.560754 0.200153
0.235340 0.561334 0.202503
0.255055 0.561822 0.204715
0.274449 0.562280 0.206638
0.294011 0.562844 0.208621
0.315053 0.563500 0.207233
0.336431 0.564279 0.205570
0.359152 0.564950 0.204303
0.384009 0.565652 0.202045
0.410224 0.566186 0.200732
0.439246 0.566903 0.198184
0.470802 0.567392 0.196475
0.504814 0.567987 0.193759
0.543069 0.568429 0.192111
0.583032 0.568933 0.192721
0.626947 0.569207 0.194675
0.672129 0.569757 0.196475
0.719387 0.570535 0.199710
0.768277 0.571252 0.201907
0.818174 0.572000 0.205371
0.868116 0.572580 0.210208
0.900771 0.572763 0.214252
0.037919 0.595209 0.176700
0.041779 0.595270 0.176700
0.045274 0.595377 0.176700
0.063096 0.595697 0.176761
0.082994 0.596170 0.176822
0.104234 0.596735 0.177112
0.127108 0.597330 0.177340
0.150546 0.597803 0.177447
0.173770 0.598383 0.177508
0.196872 0.599039 0.177401
0.217014 0.599588 0.176822
0.236271 0.600000 0.176303
0.255573 0.600458 0.175784
0.275242 0.600946 0.174960
0.295399 0.601404 0.175570
0.315618 0.601862 0.176349
0.337591 0.602487 0.178775
0.360555 0.603220 0.181491
0.384344 0.603876 0.185031
0.411811 0.604501 0.189426
0.439887 0.605127 0.193454
0.471962 0.605768 0.198047
0.506188 0.606333 0.202152
0.543664 0.606897 0.207050
0.584482 0.607324 0.210773
0.627161 0.607828 0.215885
0.672984 0.608164 0.219547
0.720058 0.608576 0.222904
0.768734 0.609293 0.218830
0.818570 0.609857 0.215244
0.867765 0.610483 0.211154
0.904036 0.610697 0.206867
0.060487 0.637202 0.183825
0.066880 0.637324 0.184207
0.073915 0.637461 0.184695
0.083680 0.637690 0.185458
0.096193 0.637964 0.186603
0.110277 0.638300 0.187930
0.130617 0.638773 0.189532
0.154452 0.639307 0.191486
0.176883 0.639841 0.193545
0.197360 0.640314 0.195361
0.217945 0.640803 0.197940
0.238239 0.641337 0.200641
0.257557 0.641749 0.203128
0.276738 0.642237 0.205814
0.296422 0.642741 0.208911
0.317433 0.643153 0.211704
0.338796 0.643595 0.214923
0.361776 0.644099 0.215885
0.386572 0.644648 0.214481
0.412116 0.645197 0.212924
0.441642 0.645808 0.210544
0.472664 0.646311 0.208484
0.507393 0.646830 0.205142
0.544823 0.647242 0.201953
0.584894 0.647685 0.197467
0.628321 0.648081 0.194415
0.672923 0.648447 0.190616
0.720790 0.648722 0.187411
0.769070 0.649043 0.186709
0.819120 0.649668 0.191852
0.866621 0.650126 0.198383
0.908980 0.650767 0.205371
0.060929 0.680415 0.192004
0.068009 0.680537 0.192157
0.075517 0.680705 0.192310
0.085496 0.680888 0.192523
0.098238 0.681193 0.192889
0.117144 0.681559 0.192981
0.136996 0.681987 0.193133
0.157519 0.682536 0.193393
0.178393 0.683101 0.193393
0.199374 0.683574 0.193652
0.219226 0.683986 0.193347
0.238590 0.684337 0.192523
0.258106 0.684764 0.191699
0.277852 0.685176 0.191135
0.297688 0.685496 0.189487
0.317464 0.685847 0.187823
0.339910 0.686244 0.187137
0.362707 0.686595 0.186877
0.386755 0.686992 0.186450
0.414084 0.687511 0.185138
0.441581 0.688029 0.186297
0.474449 0.688472 0.189273
0.507897 0.688960 0.192477
0.546029 0.689357 0.196567
0.586069 0.689860 0.200000
0.628946 0.690242 0.205951
0.674250 0.690639 0.211200
0.720882 0.690944 0.217319
0.769802 0.691341 0.222477
0.818906 0.691539 0.228611
0.868116 0.692058 0.226230
0.902815 0.692302 0.222690
0.041962 0.725460 0.187091
0.046555 0.725521 0.187457
0.059602 0.725689 0.187732
0.076249 0.725872 0.188296
0.095003 0.726177 0.189014
0.114900 0.726574 0.190005
0.135454 0.727062 0.191028
0.156817 0.727550 0.192264
0.178561 0.727871 0.193866
0.200351 0.728237 0.195758
0.220737 0.728603 0.197269
0.240711 0.729030 0.198383
0.259587 0.729336 0.200244
0.278767 0.729686 0.202640
0.298833 0.730053 0.204303
0.319677 0.730327 0.206684
0.340658 0.730648 0.209506
0.364080 0.730938 0.211933
