content/luts/atmosphere/atmosphere_02.cube
#Created by: inPixio
#Copyright: (C) Copyright 2022 inPixio
TITLE "Atmosphere 2"
#LUT size
LUT_3D_SIZE 8
#data domain
#LUT data points
DOMAIN_MIN 0.000000 0.000000 0.000000
DOMAIN_MAX 0.903226 0.903226 0.903226
0.078325 0.078325 0.078325
0.170840 0.084947 0.073915
0.378882 0.112062 0.021500
0.654353 0.180514 0.000000
0.828580 0.222644 0.000000
0.916930 0.251743 0.000198
0.970672 0.259403 0.000000
0.999435 0.261860 0.000000
0.066743 0.157656 0.068284
0.150149 0.145373 0.069902
0.346273 0.186877 0.007813
0.631357 0.254154 0.000000
0.818280 0.283452 0.000000
0.912093 0.291646 0.000198
0.967926 0.290868 0.000000
0.998596 0.281788 0.000198
0.006836 0.300710 0.001755
0.144396 0.299245 0.000000
0.245029 0.235493 0.050340
0.512764 0.333883 0.000000
0.777676 0.412467 0.000000
0.893065 0.401694 0.000198
0.958297 0.382025 0.000000
0.994431 0.357198 0.000000
0.000000 0.490562 0.000198
0.124804 0.489799 0.000000
0.307652 0.475609 0.000000
0.368521 0.349950 0.028351
0.593683 0.416159 0.000000
0.850858 0.519371 0.000198
0.940383 0.496605 0.000000
0.986450 0.458381 0.000000
0.019165 0.665751 0.000198
0.061646 0.664851 0.000198
0.291554 0.660151 0.000000
0.461296 0.621286 0.000000
0.491600 0.462928 0.008011
0.644221 0.472267 0.000000
0.894713 0.581964 0.000000
0.972244 0.568002 0.000198
0.003525 0.780697 0.000000
0.082063 0.779553 0.000198
0.238361 0.776333 0.000198
0.428244 0.768856 0.000000
0.580331 0.717235 0.000000
0.627558 0.588632 0.000000
0.716686 0.541070 0.000198
0.934600 0.630396 0.000198
0.000198 0.863752 0.000000
0.034699 0.863066 0.000000
0.187884 0.860151 0.000000
0.371328 0.854719 0.000000
0.534569 0.843137 0.000198
0.679637 0.797452 0.000000
0.756497 0.709178 0.000000
0.823301 0.637461 0.000000
0.000000 0.925109 0.000000
0.000000 0.924636 0.000000
0.127184 0.922362 0.000198
0.300099 0.917815 0.000198
0.465324 0.911162 0.000198
0.615320 0.898360 0.000000
0.760967 0.868528 0.000000
0.873655 0.821454 0.000000
0.095308 0.074037 0.153735
0.148135 0.075883 0.149691
0.346944 0.024430 0.146105
0.652796 0.122927 0.137530
0.829221 0.200046 0.106066
0.916686 0.250324 0.090913
0.970001 0.263966 0.007233
0.998901 0.266896 0.003906
0.066468 0.149065 0.154254
0.151904 0.151904 0.151904
0.346868 0.170947 0.146639
0.631556 0.223590 0.123568
0.818494 0.265751 0.091783
0.912062 0.288167 0.058808
0.967285 0.295964 0.049851
0.998077 0.285863 0.003525
0.021500 0.300191 0.139147
0.124224 0.298055 0.124300
0.258442 0.251972 0.125124
0.531869 0.341329 0.081590
0.780026 0.402976 0.014466
0.893690 0.398566 0.054902
0.958068 0.383001 0.023651
0.994141 0.357992 0.003906
0.001556 0.490578 0.074662
0.097307 0.489494 0.042512
0.297017 0.480507 0.021897
0.375128 0.358724 0.070817
0.615305 0.431006 0.008606
0.853971 0.518746 0.006653
0.940734 0.495094 0.000000
0.986328 0.457176 0.000000
0.000000 0.666285 0.000000
0.016220 0.665492 0.000000
0.273426 0.660563 0.000198
0.457649 0.626780 0.000000
0.496132 0.469032 0.025406
0.657481 0.481437 0.000000
0.897841 0.584222 0.000000
0.972488 0.566506 0.000198
0.001755 0.781109 0.000000
0.047959 0.780087 0.000000
0.218036 0.776822 0.000000
0.421500 0.769711 0.000000
0.578027 0.719875 0.000198
0.632960 0.593393 0.000000
0.725689 0.547646 0.000000
0.936568 0.631296 0.000000
0.000198 0.864515 0.000000
0.038895 0.863676 0.000000
0.165393 0.860761 0.000000
0.362707 0.855253 0.000397
0.530327 0.843565 0.000000
0.678538 0.799268 0.000000
0.757641 0.710445 0.000000
0.826139 0.639246 0.000000
0.000000 0.925704 0.000198
0.000000 0.925231 0.000198
0.113375 0.922835 0.000198
0.290044 0.918257 0.000000
0.461646 0.911452 0.000000
0.613474 0.898863 0.000000
0.761471 0.868452 0.000000
0.873869 0.820813 0.000000
0.124956 0.059129 0.252201
0.156313 0.058335 0.250706
0.249729 0.069123 0.249806
0.446540 0.039292 0.280888
0.783337 0.000000 0.312108
0.904845 0.349126 0.410819
0.955032 0.408881 0.419608
0.985809 0.397299 0.373098
0.113970 0.115969 0.262013
0.157519 0.123171 0.261540
0.255528 0.132036 0.257298
0.492729 0.092287 0.296605
0.795682 0.176593 0.338766
0.901549 0.381399 0.411597
0.953368 0.420249 0.410880
0.985428 0.403677 0.366857
0.003708 0.273182 0.283970
0.103487 0.274373 0.283619
0.281224 0.281285 0.281285
0.564355 0.334340 0.310277
0.784680 0.404974 0.350240
0.887953 0.446540 0.377157
0.947448 0.459754 0.380194
0.983276 0.435325 0.339269
0.000778 0.490547 0.300282
0.005661 0.489281 0.288899
0.245975 0.482673 0.246128
0.397879 0.388434 0.223377
0.680461 0.482582 0.247944
0.857466 0.531792 0.300374
0.935042 0.525032 0.319066
0.978454 0.494255 0.286259
0.002152 0.666728 0.264073
0.011673 0.665400 0.250752
0.196521 0.660197 0.199466
0.442954 0.637934 0.181659
0.516426 0.492714 0.160830
0.705837 0.520455 0.166308
0.905303 0.602106 0.206958
0.968978 0.575967 0.186664
0.001556 0.781537 0.189075
0.002548 0.780957 0.170138
0.183993 0.777722 0.136248
0.399863 0.770321 0.125200
0.572015 0.731365 0.067735
0.636103 0.599619 0.035508
0.753460 0.568658 0.058656
0.941726 0.638773 0.019165
0.000397 0.865049 0.098238
0.001953 0.864363 0.092195
0.062654 0.861814 0.064805
0.342596 0.856168 0.057237
0.519829 0.846510 0.025803
0.673365 0.804959 0.000000
0.761502 0.715206 0.000000
0.837217 0.646571 0.001953
0.000000 0.926741 0.004105
0.000397 0.926314 0.003326
0.042695 0.923934 0.000000
0.259693 0.919310 0.000198
0.446983 0.912429 0.000198
0.604456 0.900771 0.000198
0.758572 0.870192 0.000198
0.874861 0.820234 0.000000
0.159091 0.006653 0.347204
0.179706 0.007813 0.346349
0.240360 0.004883 0.342580
0.349828 0.002731 0.349798
0.498756 0.002930 0.368322
0.814786 0.001556 0.453162
0.929961 0.356252 0.510002
0.954299 0.565591 0.612970
0.156512 0.096590 0.361059
0.179751 0.094896 0.359793
0.245655 0.088075 0.354009
0.358755 0.085283 0.358984
0.522026 0.072129 0.380209
0.824277 0.135180 0.463920
0.928191 0.425681 0.539010
0.950362 0.598077 0.634043
0.018967 0.176638 0.385016
0.095995 0.184863 0.387396
0.251789 0.211002 0.391684
0.386572 0.221393 0.388830
0.613001 0.263645 0.433890
0.846067 0.441566 0.542580
0.917281 0.613352 0.641672
0.944701 0.643626 0.651667
0.002152 0.427344 0.445747
0.006455 0.428550 0.447089
0.205188 0.434760 0.448508
0.452186 0.452186 0.452186
0.709133 0.543587 0.528450
0.842145 0.620523 0.596674
0.908782 0.651637 0.622629
0.945037 0.647303 0.613657
0.001755 0.665843 0.469429
0.001755 0.664607 0.463905
0.172732 0.658061 0.445472
0.425956 0.641947 0.425635
0.543877 0.529641 0.358389
0.769436 0.610605 0.444968
0.894698 0.672053 0.541802
0.944045 0.663691 0.548592
0.000977 0.781460 0.414908
0.013291 0.780713 0.412177
0.146044 0.776303 0.400336
0.401785 0.765744 0.401679
0.576104 0.743847 0.376318
0.645609 0.615473 0.273289
0.793179 0.613825 0.306478
0.936767 0.682780 0.408606
0.000198 0.864225 0.353338
0.000397 0.863493 0.351782
0.130144 0.860487 0.351553
0.365728 0.853162 0.365179
0.528435 0.845335 0.350362
0.670039 0.812665 0.279271
0.767285 0.723446 0.170367
0.858061 0.664729 0.204624
0.000778 0.926070 0.273976
0.000977 0.925322 0.273869
0.054902 0.922759 0.277318
0.285603 0.917311 0.285298
0.454887 0.910948 0.260929
0.602213 0.901366 0.214023
0.750485 0.874357 0.028351
0.874739 0.822522 0.052293
0.196063 0.000198 0.448692
0.211246 0.000000 0.447425
0.258518 0.000000 0.442268
0.325658 0.000000 0.433555
0.452827 0.000198 0.452689
0.591989 0.000000 0.467460
0.827268 0.074662 0.538903
0.946258 0.355657 0.579950
0.193607 0.031083 0.458381
0.208209 0.024048 0.456916
0.258930 0.015244 0.451408
0.328176 0.001953 0.440772
0.458686 0.000000 0.458549
0.596490 0.000000 0.469520
0.835966 0.149142 0.545922
0.944701 0.410605 0.596323
0.144259 0.148592 0.484352
0.172168 0.153277 0.484916
0.254719 0.159396 0.482918
0.343313 0.148196 0.471885
0.481712 0.152483 0.482200
0.620508 0.175250 0.483833
0.858366 0.372671 0.587366
0.937331 0.553216 0.652369
0.001556 0.295262 0.524987
0.008988 0.291585 0.525017
0.137743 0.281361 0.525490
0.369207 0.325597 0.530755
0.526055 0.347173 0.528038
0.707698 0.432303 0.566842
0.880140 0.622156 0.684520
0.921981 0.720470 0.744457
0.002731 0.566293 0.592615
0.002930 0.567163 0.593149
0.097612 0.575128 0.597360
0.383978 0.583398 0.598825
0.606928 0.606958 0.606897
0.793423 0.694530 0.685817
0.880400 0.750057 0.737102
0.916808 0.760403 0.744656
0.002350 0.777340 0.599039
0.002350 0.776547 0.597498
0.166003 0.773983 0.594186
0.412345 0.761593 0.592187
0.593820 0.745098 0.593591
0.660517 0.642588 0.493645
0.834623 0.714305 0.595499
0.914977 0.762829 0.678904
0.001175 0.863249 0.534859
0.008789 0.862532 0.534569
0.177340 0.858351 0.537484
0.394598 0.849409 0.552224
0.573663 0.837324 0.573297
0.689204 0.820096 0.542977
0.757763 0.722789 0.389731
0.874601 0.705013 0.433509
0.000580 0.924559 0.463066
0.000397 0.923781 0.463920
0.097719 0.920928 0.468864
0.344396 0.912932 0.496040
0.530175 0.902510 0.530236
0.640833 0.895598 0.513008
0.751827 0.876173 0.424430
0.876371 0.829664 0.313802
0.241795 0.000000 0.574304
0.254917 0.000000 0.572824
0.294759 0.000198 0.567880
0.354498 0.000198 0.557977
0.430015 0.000000 0.547311
0.569833 0.000000 0.569589
0.718761 0.000000 0.590051
0.868116 0.111696 0.619150
0.237400 0.000000 0.578119
0.247547 0.000000 0.577081
0.290608 0.000198 0.571786
0.353216 0.000000 0.562020
0.431617 0.000000 0.551080
0.572564 0.000000 0.572427
0.720058 0.000000 0.590173
0.870649 0.152743 0.621668
0.203327 0.107530 0.593286
0.221469 0.103487 0.592081
0.274205 0.087968 0.587121
0.349188 0.053773 0.577295
0.434150 0.010208 0.563897
0.583642 0.020722 0.583658
0.725628 0.066880 0.591547
0.881727 0.314992 0.638834
0.000580 0.181338 0.609995
0.026383 0.185031 0.609903
0.207874 0.221653 0.613245
0.340261 0.237766 0.609125
0.447211 0.222080 0.595407
0.603632 0.245472 0.604486
0.736095 0.291493 0.597940
0.897566 0.517678 0.685618
0.000778 0.421408 0.657771
0.000397 0.418662 0.657191
0.002548 0.405844 0.654627
0.251637 0.387976 0.649210
0.486641 0.444740 0.646296
0.639307 0.472572 0.641520
0.789212 0.561578 0.674586
0.905791 0.723659 0.767743
0.002350 0.674250 0.706310
0.002350 0.674785 0.706279
0.050507 0.677729 0.706691
0.328084 0.685054 0.708446
0.545480 0.694545 0.708324
0.717372 0.717372 0.717372
0.854368 0.792447 0.786969
0.898863 0.823224 0.815763
0.001755 0.855680 0.699626
0.008209 0.855070 0.699458
0.155612 0.852705 0.699153
0.408789 0.845426 0.702373
0.585580 0.833814 0.708049
0.712398 0.821134 0.712230
0.756054 0.736370 0.608347
0.883177 0.790967 0.701717
0.000580 0.922606 0.625177
0.020722 0.921614 0.625910
0.153079 0.917922 0.630259
0.368170 0.909804 0.643305
0.558999 0.898085 0.669398
0.692699 0.886626 0.692577
0.775174 0.875349 0.665766
0.857878 0.823240 0.536690
0.298909 0.000000 0.721904
0.307988 0.000000 0.721172
0.344976 0.000000 0.718196
0.403037 0.000000 0.712413
0.474281 0.000000 0.703441
0.569101 0.000198 0.697810
0.708492 0.000000 0.708537
0.846983 0.000198 0.718349
0.290364 0.000198 0.722713
0.301503 0.000198 0.722026
0.339025 0.000000 0.719142
0.399222 0.000198 0.713375
0.472175 0.000000 0.704372
0.567468 0.000000 0.698055
0.708949 0.000198 0.708949
0.847288 0.000198 0.718135
0.255207 0.000000 0.726497
0.269139 0.000397 0.725689
0.315023 0.000000 0.722957
0.383368 0.000000 0.717342
0.464286 0.000000 0.708446
0.561105 0.000000 0.699901
0.710445 0.000000 0.710613
0.847501 0.067308 0.717052
0.129915 0.154833 0.733791
0.165637 0.160189 0.733333
0.255894 0.172503 0.731197
0.350912 0.156634 0.725628
0.448142 0.112230 0.716640
0.552865 0.026978 0.704875
0.714977 0.096986 0.715007
0.847562 0.269490 0.715923
0.006653 0.269169 0.748928
0.003525 0.264042 0.748135
0.024048 0.263859 0.744015
0.258396 0.297292 0.739162
0.429053 0.321172 0.731624
0.550362 0.294011 0.718425
0.718959 0.344427 0.720760
0.846250 0.452277 0.718059
0.001556 0.538277 0.775204
0.002548 0.536217 0.774716
0.001373 0.528969 0.772061
0.141039 0.515343 0.766903
0.367987 0.497154 0.756954
0.593179 0.553521 0.745159
0.735943 0.583200 0.738445
0.861051 0.675181 0.768216
0.000580 0.761441 0.797559
0.001175 0.761990 0.797421
0.005859 0.763470 0.797070
0.264134 0.766812 0.795605
0.496574 0.773083 0.794858
0.667170 0.780743 0.792737
0.800473 0.800443 0.800473
0.886275 0.853575 0.850416
0.001755 0.915023 0.777005
0.004883 0.914412 0.776761
0.129503 0.911727 0.776547
0.377340 0.904463 0.778271
0.572290 0.894286 0.784054
0.704753 0.883497 0.791272
0.798184 0.874083 0.798062
0.845289 0.825803 0.718212
0.352529 0.000198 0.857328
0.360479 0.000198 0.857099
0.391562 0.000000 0.856199
0.446235 0.000198 0.854414
0.516869 0.000000 0.851560
0.598825 0.000000 0.847807
0.710033 0.000000 0.845167
0.843687 0.000000 0.843671
0.345235 0.000000 0.857420
0.351614 0.000000 0.857252
0.385657 0.000000 0.856321
0.441871 0.000000 0.854612
0.513863 0.000198 0.851789
0.596811 0.000000 0.847913
0.708537 0.000000 0.845243
0.843824 0.000000 0.843748
0.314733 0.000198 0.858198
0.325811 0.000198 0.857923
0.362097 0.000000 0.857069
0.424079 0.000000 0.855238
0.501320 0.000198 0.852461
0.589136 0.000198 0.848493
0.703365 0.000198 0.845411
0.843626 0.000198 0.843748
0.249073 0.125368 0.859785
0.262043 0.121126 0.859617
0.312749 0.102251 0.858595
0.388006 0.055222 0.856931
0.477195 0.000397 0.854093
0.574609 0.000198 0.850065
0.691707 0.000000 0.845945
0.843183 0.035309 0.843442
0.000198 0.200153 0.863172
0.010010 0.203952 0.862974
0.168216 0.230274 0.861875
0.315526 0.262776 0.859693
0.440620 0.255497 0.856443
0.553582 0.214878 0.852247
0.677241 0.149142 0.846662
0.842176 0.293950 0.842725
0.006455 0.406333 0.869047
0.004685 0.403372 0.868833
0.014069 0.382254 0.868101
0.077714 0.370077 0.865263
0.357443 0.409857 0.859525
0.550118 0.454109 0.852476
0.673075 0.427161 0.845548
0.835782 0.508751 0.838224
0.002152 0.639185 0.871046
0.002548 0.638102 0.870893
0.001953 0.635325 0.869963
0.099702 0.632013 0.867872
0.340658 0.631067 0.863600
0.526818 0.630671 0.856748
0.707591 0.673564 0.844755
0.834043 0.698024 0.836652
0.001175 0.830823 0.870390
0.000778 0.831281 0.870192
0.000397 0.832609 0.869734
0.238956 0.836027 0.868544
0.462684 0.840574 0.866163
0.634653 0.845426 0.863783
0.763958 0.849653 0.860090
0.862394 0.862425 0.862440
