content/luts/atmosphere/atmosphere_10.cube
#Created by: inPixio
#Copyright: (C) Copyright 2022 inPixio
TITLE "Atmosphere 10"
#LUT size
LUT_3D_SIZE 32
#data domain
DOMAIN_MIN 0.0 0.0 0.0
DOMAIN_MAX 1.0 1.0 1.0
#LUT data points
0.000000 0.000000 0.000000
0.009186 0.000000 0.000000
0.026978 0.000198 0.000198
0.074907 0.000198 0.000000
0.106157 0.000198 0.000000
0.133104 0.000580 0.000000
0.159945 0.000397 0.000000
0.187671 0.000198 0.000000
0.217014 0.000000 0.000000
0.246372 0.000000 0.000198
0.276570 0.000000 0.000000
0.307179 0.000000 0.000000
0.338949 0.000000 0.000000
0.370810 0.000000 0.000198
0.404624 0.000198 0.000198
0.440269 0.000000 0.000000
0.475364 0.000198 0.000000
0.510796 0.000000 0.000000
0.545434 0.000000 0.000000
0.580926 0.000000 0.000000
0.620996 0.000000 0.000000
0.658854 0.000000 0.000000
0.696712 0.000000 0.000000
0.734493 0.000198 0.000000
0.770016 0.004883 0.000000
0.808316 0.000000 0.000000
0.843763 0.000000 0.000000
0.878035 0.000198 0.000000
0.912368 0.000000 0.000198
0.944167 0.000000 0.000000
0.974350 0.000000 0.000000
0.993088 0.000000 0.000000
0.001953 0.002152 0.000198
0.006256 0.000580 0.000198
0.038514 0.001755 0.000000
0.076005 0.002152 0.000000
0.106157 0.000778 0.000000
0.133928 0.000397 0.000000
0.161090 0.000580 0.000000
0.188602 0.000397 0.000000
0.217411 0.000000 0.000000
0.247303 0.000000 0.000198
0.277485 0.000000 0.000000
0.307958 0.000000 0.000198
0.339330 0.000000 0.000198
0.372091 0.000000 0.000198
0.406287 0.000198 0.000000
0.441550 0.000198 0.000000
0.476432 0.000000 0.000000
0.511315 0.000198 0.000000
0.546105 0.000000 0.000000
0.583108 0.000000 0.000000
0.622431 0.000000 0.000000
0.659968 0.001755 0.000198
0.697246 0.000000 0.000000
0.734829 0.000198 0.000000
0.770962 0.015839 0.000000
0.809262 0.000000 0.000000
0.844495 0.000000 0.000000
0.878309 0.001556 0.000198
0.912566 0.000000 0.000000
0.943999 0.009796 0.000198
0.974792 0.000000 0.000000
0.992935 0.000000 0.000198
0.000000 0.022873 0.000000
0.013291 0.021118 0.000000
0.042329 0.017594 0.000000
0.074403 0.014862 0.000000
0.108080 0.011460 0.000198
0.134218 0.011246 0.000000
0.161975 0.004883 0.000000
0.189838 0.001175 0.000000
0.218708 0.002350 0.000000
0.248173 0.000000 0.000198
0.278279 0.000000 0.000000
0.309102 0.000000 0.000198
0.340887 0.000000 0.000198
0.374273 0.000000 0.000000
0.408377 0.000198 0.000000
0.442954 0.000000 0.000000
0.477791 0.000000 0.000000
0.512657 0.000000 0.000000
0.548425 0.000000 0.000000
0.585672 0.000000 0.000000
0.624018 0.000000 0.000000
0.661189 0.004501 0.000000
0.698314 0.002152 0.000000
0.735653 0.004105 0.000000
0.772213 0.026001 0.000000
0.810330 0.000000 0.000000
0.844846 0.013489 0.000000
0.878615 0.014862 0.000000
0.912902 0.000000 0.000000
0.943679 0.023651 0.000000
0.975311 0.000000 0.000000
0.992767 0.000000 0.000198
0.005081 0.059754 0.000198
0.014862 0.060349 0.000397
0.040665 0.059434 0.000198
0.078935 0.056153 0.000000
0.109819 0.048829 0.000198
0.136095 0.036515 0.000198
0.163439 0.027955 0.000397
0.191440 0.018769 0.000397
0.219715 0.016419 0.000198
0.249531 0.004685 0.000000
0.280156 0.004105 0.000198
0.311666 0.004501 0.000198
0.343648 0.000198 0.000000
0.376944 0.002350 0.000198
0.410712 0.000198 0.000198
0.444953 0.000000 0.000000
0.480018 0.000000 0.000000
0.515145 0.008789 0.000000
0.551522 0.002930 0.000000
0.589090 0.000000 0.000000
0.625513 0.022675 0.000198
0.663020 0.008209 0.000000
0.700588 0.006256 0.000000
0.737194 0.022675 0.000000
0.773953 0.041047 0.000000
0.811780 0.015839 0.000000
0.845258 0.035111 0.000000
0.879088 0.033295 0.000000
0.913115 0.007813 0.000000
0.943618 0.039689 0.000198
0.975372 0.012299 0.000198
0.993057 0.004883 0.000000
0.005478 0.087861 0.000198
0.025406 0.087068 0.000000
0.051316 0.085832 0.000000
0.082292 0.082994 0.000000
0.111254 0.079301 0.000000
0.138598 0.074281 0.000000
0.165393 0.066743 0.000198
0.193500 0.060487 0.000397
0.222644 0.052293 0.000397
0.252506 0.048142 0.000397
0.283513 0.029709 0.000000
0.315084 0.023850 0.000397
0.346914 0.026200 0.000580
0.379675 0.025406 0.000198
0.413687 0.012299 0.000000
0.448234 0.013687 0.000000
0.483101 0.033692 0.000000
0.518746 0.023072 0.000000
0.554864 0.022095 0.000000
0.591043 0.033082 0.000198
0.627451 0.054261 0.000000
0.665919 0.026581 0.000000
0.699291 0.059129 0.000000
0.736782 0.066056 0.000000
0.776303 0.058030 0.000000
0.811292 0.076982 0.000198
0.845884 0.060487 0.000000
0.879713 0.058488 0.000000
0.912306 0.060929 0.000000
0.943557 0.058183 0.000000
0.975494 0.043061 0.000000
0.993591 0.012299 0.000198
0.001755 0.111254 0.000580
0.014466 0.110903 0.000397
0.043610 0.109911 0.000397
0.084718 0.108263 0.000397
0.118853 0.105379 0.000580
0.143496 0.101762 0.000580
0.169268 0.098238 0.000397
0.196567 0.095705 0.000198
0.225406 0.092485 0.000198
0.255100 0.087739 0.000198
0.286000 0.082414 0.000580
0.317754 0.080034 0.000397
0.350164 0.077104 0.000198
0.382300 0.068284 0.000198
0.416159 0.068986 0.000198
0.451240 0.070695 0.000198
0.486946 0.073045 0.000198
0.521584 0.074159 0.000198
0.557092 0.083680 0.000198
0.593393 0.090150 0.000000
0.629984 0.094575 0.000000
0.666026 0.099992 0.000000
0.699474 0.106249 0.000000
0.736477 0.107713 0.000000
0.776516 0.114550 0.000000
0.810788 0.122850 0.000198
0.845441 0.111528 0.000198
0.879057 0.111254 0.000000
0.911788 0.108263 0.000000
0.943801 0.081834 0.000198
0.976883 0.094896 0.000198
0.993576 0.060639 0.000198
0.011246 0.136095 0.000198
0.028351 0.135744 0.000397
0.051484 0.135241 0.000198
0.090486 0.133852 0.000397
0.123003 0.131670 0.000198
0.152163 0.128954 0.000198
0.175082 0.125292 0.000000
0.199268 0.121691 0.000000
0.227878 0.120806 0.000198
0.257557 0.120317 0.000397
0.288258 0.119097 0.000198
0.319326 0.118685 0.000198
0.351309 0.117556 0.000000
0.383963 0.116716 0.000198
0.419059 0.117052 0.000198
0.454139 0.119509 0.000000
0.489357 0.122927 0.000198
0.523919 0.127108 0.000198
0.559854 0.133104 0.000198
0.595651 0.139437 0.000000
0.631830 0.145373 0.000000
0.667262 0.152163 0.000000
0.702770 0.156756 0.000000
0.738521 0.160571 0.000000
0.777340 0.163745 0.000000
0.810926 0.164797 0.000000
0.845976 0.162280 0.000397
0.879225 0.158038 0.000198
0.912276 0.151385 0.000000
0.947097 0.143771 0.000198
0.978317 0.136324 0.000000
0.993423 0.114733 0.000000
0.019944 0.162829 0.000000
0.037125 0.162585 0.000000
0.066331 0.162097 0.000000
0.097200 0.161151 0.000198
0.128954 0.159518 0.000198
0.158221 0.157717 0.000198
0.186343 0.155352 0.000397
0.208805 0.151446 0.001556
0.232441 0.147738 0.001373
0.261906 0.148455 0.000397
0.292744 0.149889 0.000000
0.323812 0.151003 0.000000
0.356252 0.153597 0.000000
0.389593 0.154910 0.000000
0.423819 0.157275 0.000198
0.458259 0.160449 0.000198
0.493401 0.165393 0.000000
0.528267 0.170718 0.000198
0.563790 0.176638 0.000000
0.599710 0.183185 0.000000
0.636881 0.190723 0.000000
0.673426 0.196918 0.000198
0.709636 0.201556 0.000000
0.745083 0.204624 0.000000
0.779141 0.206729 0.000000
0.813031 0.207370 0.000397
0.847074 0.205860 0.000198
0.881865 0.203235 0.000198
0.916548 0.198871 0.000000
0.950210 0.191852 0.000000
0.980041 0.183124 0.000000
0.995102 0.174105 0.000198
0.016037 0.193500 0.000198
0.039094 0.193301 0.000198
0.067735 0.193042 0.000198
0.099611 0.192371 0.000198
0.136172 0.191028 0.000000
0.167742 0.189639 0.000000
0.196323 0.187930 0.000000
0.223331 0.186191 0.000198
0.245747 0.182208 0.000000
0.268208 0.177737 0.000000
0.299153 0.179919 0.000000
0.330831 0.182803 0.000000
0.362554 0.185885 0.000000
0.395117 0.190829 0.000000
0.428794 0.194324 0.000000
0.463310 0.199268 0.000000
0.498604 0.205188 0.000000
0.534249 0.212070 0.000198
0.569940 0.218662 0.000000
0.606821 0.226154 0.000000
0.644144 0.232929 0.000000
0.679286 0.238590 0.000198
0.713619 0.243122 0.000198
0.747845 0.246204 0.000000
0.781781 0.247150 0.000198
0.816495 0.248142 0.000198
0.851637 0.247746 0.000000
0.886534 0.245029 0.000000
0.920317 0.240757 0.000000
0.951690 0.235538 0.000000
0.981186 0.228321 0.000198
0.994934 0.221256 0.000000
0.036515 0.226734 0.000397
0.056611 0.226566 0.000198
0.074907 0.226368 0.000397
0.105486 0.225711 0.000198
0.140597 0.224704 0.000000
0.176303 0.223468 0.000000
0.209552 0.222034 0.000198
0.235706 0.220737 0.000000
0.261509 0.219364 0.000000
0.283101 0.214878 0.000000
0.304707 0.209842 0.000000
0.336019 0.213184 0.000000
0.369360 0.218067 0.000000
0.402152 0.224064 0.000000
0.435874 0.231327 0.000000
0.470649 0.237369 0.000000
0.505150 0.244953 0.000000
0.540932 0.252125 0.000198
0.575876 0.259510 0.000000
0.611566 0.266972 0.000198
0.646510 0.273289 0.000000
0.681514 0.278660 0.000000
0.716457 0.283131 0.000000
0.751736 0.286442 0.000000
0.786694 0.287846 0.000000
0.821988 0.288228 0.000000
0.856062 0.287480 0.000000
0.888747 0.285328 0.000198
0.920012 0.281529 0.000000
0.951141 0.276371 0.000198
0.980728 0.270008 0.000198
0.996582 0.262776 0.000000
0.050172 0.262669 0.000198
0.067170 0.262516 0.000198
0.083101 0.262516 0.000000
0.111788 0.262196 0.000198
0.145968 0.261753 0.000198
0.181384 0.261067 0.000198
0.217853 0.260060 0.000198
0.250828 0.259114 0.000000
0.276402 0.258244 0.000000
0.301503 0.257160 0.000000
0.323613 0.252995 0.000000
0.345571 0.248219 0.000000
0.376638 0.251713 0.000000
0.409918 0.258030 0.000000
0.442985 0.265354 0.000000
0.476677 0.274098 0.000198
0.510506 0.282002 0.000198
0.545007 0.292271 0.000000
0.579934 0.299733 0.000000
0.614801 0.306951 0.000198
0.649638 0.313024 0.000000
0.685817 0.318868 0.000000
0.721325 0.322988 0.000000
0.757549 0.326864 0.000000
0.790539 0.327749 0.000198
0.823301 0.327718 0.000198
0.856184 0.326864 0.000198
0.888899 0.325048 0.000198
0.920623 0.320653 0.000198
0.952499 0.315175 0.000198
0.980560 0.308858 0.000198
0.998200 0.301900 0.000000
0.017594 0.303517 0.000000
0.049165 0.303456 0.000198
0.078569 0.303365 0.000000
0.112322 0.303182 0.000198
0.147601 0.302968 0.000198
0.187625 0.302602 0.000000
0.224445 0.302052 0.000198
0.259251 0.301564 0.000000
0.293446 0.300923 0.000000
0.318151 0.300282 0.000198
0.343114 0.299428 0.000000
0.364248 0.294362 0.000000
0.382467 0.285969 0.000000
0.412497 0.289830 0.000000
0.447990 0.299245 0.000000
0.482536 0.309392 0.000198
0.516518 0.319280 0.000198
0.550759 0.329152 0.000198
0.583398 0.338018 0.000000
0.617807 0.344778 0.000000
0.653742 0.353063 0.000000
0.689784 0.359319 0.000000
0.724300 0.363378 0.000000
0.758557 0.366308 0.000198
0.790860 0.367010 0.000000
0.824628 0.366964 0.000000
0.857832 0.365347 0.000198
0.891081 0.362982 0.000000
0.922484 0.358480 0.000000
0.954360 0.353445 0.000000
0.981170 0.347952 0.000198
0.998398 0.342123 0.000000
0.047105 0.347219 0.000000
0.061357 0.347356 0.000000
0.081132 0.347463 0.000000
0.110811 0.347509 0.000000
0.151644 0.347463 0.000198
0.192004 0.347402 0.000000
0.232288 0.347585 0.000000
0.269551 0.347692 0.000000
0.304097 0.347540 0.000198
0.335027 0.346807 0.000000
0.360342 0.346410 0.000000
0.384482 0.345129 0.000000
0.405966 0.340398 0.000198
0.427527 0.335500 0.000000
0.457572 0.339880 0.000198
0.492393 0.350423 0.000000
0.527810 0.362051 0.000000
0.561334 0.371862 0.000198
0.594812 0.381598 0.000000
0.627283 0.389227 0.000000
0.661494 0.396307 0.000000
0.695216 0.401999 0.000198
0.729015 0.405356 0.000000
0.762860 0.407034 0.000000
0.796536 0.407782 0.000000
0.829603 0.406668 0.000000
0.862348 0.404715 0.000000
0.894591 0.402213 0.000000
0.926757 0.398962 0.000198
0.956924 0.393408 0.000198
0.981247 0.387198 0.000198
0.997391 0.381506 0.000198
0.077104 0.397696 0.000000
0.092485 0.397971 0.000000
0.108080 0.398169 0.000198
0.127031 0.398581 0.000000
0.157458 0.398917 0.000000
0.196567 0.399359 0.000000
0.237522 0.400137 0.000000
0.279103 0.400961 0.000000
0.318303 0.401434 0.000000
0.349874 0.401480 0.000000
0.380148 0.401709 0.000000
0.405539 0.401404 0.000000
0.430671 0.400977 0.000000
0.453803 0.398367 0.000000
0.475929 0.393515 0.000000
0.505699 0.398001 0.000198
0.541955 0.410208 0.000000
0.573983 0.417868 0.000000
0.605600 0.425071 0.000198
0.637324 0.431891 0.000000
0.669749 0.438376 0.000198
0.702937 0.443565 0.000000
0.736721 0.448463 0.000000
0.770810 0.450797 0.000000
0.804517 0.451301 0.000000
0.837919 0.450935 0.000000
0.869001 0.447150 0.000000
0.900313 0.443366 0.000198
0.930159 0.438346 0.000198
0.959487 0.432105 0.000198
0.983459 0.424826 0.000198
0.996506 0.419486 0.000198
0.032288 0.455650 0.000000
0.067445 0.455726 0.000000
0.095995 0.455772 0.000000
0.127260 0.455879 0.000000
0.160067 0.456062 0.000000
0.198245 0.456764 0.000000
0.244602 0.457328 0.000000
0.286931 0.457771 0.000198
0.328801 0.458305 0.000000
0.368124 0.458900 0.000000
0.398261 0.458869 0.000000
0.424369 0.458198 0.000000
0.449470 0.457420 0.000000
0.474067 0.457008 0.000000
0.497597 0.454551 0.000000
0.520607 0.450782 0.000198
0.548135 0.452064 0.000000
0.582086 0.461692 0.000198
0.615702 0.469749 0.000000
0.648829 0.477623 0.000000
0.681682 0.483574 0.000000
0.715221 0.489204 0.000000
0.748608 0.493614 0.000000
0.781003 0.495934 0.000000
0.811460 0.494499 0.000000
0.842023 0.491569 0.000000
0.871641 0.487282 0.000198
0.901289 0.481666 0.000000
0.930877 0.475715 0.000000
0.961044 0.469963 0.000000
0.986496 0.463294 0.000198
0.997192 0.458534 0.000198
0.039887 0.510155 0.000000
0.044358 0.510247 0.000000
0.050828 0.510323 0.000000
0.084138 0.510552 0.000000
0.143145 0.511162 0.000000
0.194720 0.511971 0.000000
0.243977 0.512856 0.000000
0.291676 0.513710 0.000000
0.333639 0.514611 0.000000
0.374731 0.515618 0.000000
0.414588 0.516686 0.000000
0.441001 0.516472 0.000000
0.467308 0.517067 0.000000
0.492668 0.517372 0.000000
0.519310 0.519066 0.000000
0.544823 0.518898 0.000000
0.569604 0.515648 0.000000
0.596552 0.515053 0.000000
0.629236 0.520714 0.000000
0.660990 0.524926 0.000000
0.692424 0.528878 0.000000
0.723537 0.531228 0.000000
0.754223 0.532967 0.000000
0.784009 0.533013 0.000000
0.812787 0.531655 0.000000
0.843107 0.529748 0.000000
0.873732 0.526436 0.000000
0.903899 0.521599 0.000198
0.933959 0.515404 0.000198
0.963287 0.508888 0.000000
0.990890 0.501656 0.000000
0.998047 0.496040 0.000198
0.091676 0.572808 0.000000
0.101564 0.572931 0.000000
0.115618 0.572992 0.000000
0.134814 0.573144 0.000000
0.156893 0.573358 0.000000
0.193240 0.572839 0.000000
0.243702 0.573022 0.000000
0.291936 0.573220 0.000000
0.337484 0.573526 0.000198
0.379446 0.574197 0.000000
0.418998 0.574594 0.000000
0.455146 0.575341 0.000000
0.483055 0.575616 0.000000
0.508583 0.575631 0.000000
0.534859 0.576425 0.000000
0.561379 0.577417 0.000000
0.587732 0.577295 0.000000
0.611124 0.571328 0.000000
0.636164 0.566827 0.000000
0.668223 0.570199 0.000000
0.699947 0.572137 0.000000
0.730861 0.573922 0.000000
0.760922 0.573129 0.000000
0.790921 0.572732 0.000000
0.820615 0.571466 0.000000
0.849867 0.569314 0.000000
0.878676 0.565713 0.000000
0.907836 0.560632 0.000000
0.936477 0.554788 0.000000
0.965454 0.547448 0.000000
0.990204 0.539651 0.000000
0.997879 0.532570 0.000198
0.063096 0.629633 0.000198
0.092592 0.629130 0.000000
0.119020 0.628534 0.000198
0.148791 0.627680 0.000000
0.180026 0.626581 0.000198
0.213138 0.625223 0.000000
0.246876 0.623728 0.000000
0.292149 0.624353 0.000000
0.336736 0.625635 0.000000
0.381415 0.627024 0.000198
0.422293 0.628199 0.000000
0.458015 0.629572 0.000000
0.493187 0.630671 0.000000
0.521355 0.631510 0.000000
0.547967 0.632151 0.000198
0.574945 0.633127 0.000000
0.602670 0.634073 0.000000
0.630137 0.634012 0.000000
0.653040 0.625574 0.000000
0.676600 0.617823 0.000000
0.708522 0.618128 0.000000
0.740002 0.617838 0.000198
0.769818 0.616602 0.000198
0.798230 0.613001 0.000000
0.826978 0.610376 0.000000
0.855131 0.606729 0.000198
0.883116 0.602747 0.000000
0.911177 0.598016 0.000198
0.939635 0.592310 0.000000
0.967697 0.585428 0.000198
0.989090 0.576928 0.000198
0.999802 0.568795 0.000000
0.006256 0.683757 0.000000
0.007630 0.683589 0.000000
0.008789 0.683375 0.000000
0.032486 0.682963 0.000198
0.114900 0.683055 0.000000
0.174563 0.683421 0.000000
0.230533 0.683726 0.000198
0.285176 0.683970 0.000198
0.335836 0.684566 0.000000
0.380743 0.685328 0.000000
0.423667 0.686320 0.000000
0.465431 0.686992 0.000000
0.499672 0.687602 0.000198
0.532052 0.688243 0.000198
0.561074 0.688304 0.000198
0.588312 0.688808 0.000000
0.616404 0.688869 0.000000
0.644938 0.689326 0.000198
0.673823 0.688853 0.000000
0.695781 0.677958 0.000000
0.716991 0.665934 0.000000
0.747692 0.663310 0.000000
0.778225 0.659785 0.000000
0.806699 0.655711 0.000000
0.834318 0.649821 0.000198
0.862394 0.645319 0.000198
0.889708 0.639429 0.000000
0.917083 0.633860 0.000000
0.944244 0.627894 0.000000
0.971634 0.621393 0.000198
0.990204 0.614160 0.000000
0.999710 0.607446 0.000000
0.095399 0.738628 0.000000
0.106523 0.738582 0.000000
0.118166 0.738506 0.000000
0.133166 0.738415 0.000000
0.150744 0.738323 0.000000
0.173419 0.738064 0.000000
0.228977 0.738750 0.000198
0.281865 0.739956 0.000198
0.332769 0.741085 0.000198
0.381933 0.741695 0.000000
0.424506 0.741451 0.000198
0.466346 0.741161 0.000000
0.507622 0.741070 0.000000
0.539452 0.740398 0.000198
0.570138 0.739559 0.000198
0.598261 0.739025 0.000000
0.625895 0.738109 0.000000
0.654734 0.737865 0.000000
0.684062 0.737148 0.000198
0.714290 0.736553 0.000000
0.735973 0.723980 0.000000
0.757275 0.710826 0.000000
0.786297 0.704418 0.000198
0.815717 0.698558 0.000000
0.842725 0.691554 0.000000
0.869047 0.683787 0.000000
0.895796 0.677287 0.000000
0.922255 0.669886 0.000000
0.949065 0.663432 0.000000
0.974991 0.656260 0.000000
0.993118 0.648600 0.000000
0.999634 0.642969 0.000198
0.057710 0.784329 0.000000
0.077104 0.784237 0.000000
0.099031 0.784131 0.000000
0.124392 0.784054 0.000000
0.160830 0.783688 0.000000
0.197559 0.783276 0.000000
0.234516 0.782773 0.000198
0.273503 0.782361 0.000000
0.324285 0.782437 0.000000
0.370428 0.782467 0.000000
0.415839 0.782544 0.000000
0.459480 0.782452 0.000000
0.500511 0.782452 0.000000
0.540917 0.782544 0.000000
0.573983 0.782284 0.000000
0.602899 0.781811 0.000000
0.631998 0.781643 0.000000
0.660716 0.781170 0.000198
0.691173 0.780804 0.000000
0.721355 0.779629 0.000000
0.752392 0.777874 0.000000
0.774487 0.765179 0.000198
0.794293 0.749493 0.000198
0.821027 0.740139 0.000198
0.848966 0.731762 0.000198
0.875166 0.723003 0.000000
0.900511 0.713649 0.000000
0.926482 0.705501 0.000198
0.951644 0.696361 0.000198
0.976150 0.688121 0.000000
0.999527 0.679866 0.000000
1.000000 0.674556 0.000000
0.000198 0.824537 0.000000
0.000000 0.824506 0.000000
0.000000 0.824430 0.000000
0.036713 0.824262 0.000000
0.102342 0.823880 0.000000
0.161212 0.823758 0.000000
0.216571 0.823819 0.000000
0.267033 0.823880 0.000198
0.317083 0.823850 0.000198
0.365255 0.823636 0.000000
0.409491 0.822995 0.000198
0.453300 0.822278 0.000000
0.495338 0.821988 0.000198
0.535424 0.822110 0.000198
0.575021 0.822019 0.000198
0.607233 0.821378 0.000000
0.635889 0.820737 0.000000
0.664485 0.819623 0.000000
0.694240 0.818448 0.000000
0.724392 0.816938 0.000000
0.754788 0.814313 0.000000
0.785397 0.811154 0.000000
0.807767 0.798077 0.000000
0.827375 0.781964 0.000000
0.852659 0.770428 0.000397
0.880049 0.760998 0.000000
0.905669 0.750866 0.000000
0.930571 0.740749 0.000000
0.955810 0.731411 0.000198
0.978637 0.721828 0.000198
0.994736 0.713314 0.000000
0.999344 0.705119 0.000000
0.073045 0.859861 0.000000
0.084367 0.859785 0.000000
0.096391 0.859709 0.000000
0.111879 0.859571 0.000000
0.129503 0.859403 0.000000
0.148928 0.859175 0.000000
0.197360 0.859052 0.000000
0.253513 0.858778 0.000198
0.305516 0.858457 0.000000
0.354894 0.858045 0.000000
0.402258 0.857527 0.000000
0.445350 0.857069 0.000000
0.487129 0.856733 0.000000
0.528725 0.856230 0.000000
0.566522 0.855390 0.000000
0.603159 0.854551 0.000000
0.636286 0.853330 0.000000
0.664530 0.852064 0.000000
0.693736 0.850660 0.000000
0.723919 0.849088 0.000198
0.755123 0.847440 0.000000
0.785916 0.844663 0.000000
0.817762 0.841321 0.000198
0.841535 0.829435 0.000000
0.860792 0.812528 0.000198
0.884779 0.799573 0.000000
0.911177 0.788541 0.000000
0.936217 0.777340 0.000000
0.960601 0.766262 0.000000
0.983948 0.755825 0.000000
0.995010 0.745235 0.000198
1.000000 0.737560 0.000000
0.075273 0.892561 0.000000
0.085954 0.892470 0.000198
0.096788 0.892393 0.000000
0.119097 0.892195 0.000000
0.147662 0.891920 0.000198
0.177173 0.891569 0.000000
0.208393 0.891157 0.000000
0.245472 0.890730 0.000000
0.294957 0.890318 0.000000
0.344091 0.889815 0.000000
0.390829 0.889128 0.000000
0.435325 0.888624 0.000000
0.477836 0.888243 0.000198
0.519783 0.887923 0.000198
0.560891 0.887495 0.000000
0.597513 0.886290 0.000198
0.632700 0.884947 0.000000
0.664759 0.883589 0.000000
0.693935 0.881910 0.000000
0.723537 0.880140 0.000000
0.754391 0.878157 0.000000
0.785977 0.876005 0.000198
0.817594 0.872831 0.000000
0.849500 0.868818 0.000198
0.874418 0.857557 0.000000
0.892882 0.840024 0.000000
0.915068 0.825238 0.000000
0.940688 0.813199 0.000000
0.965118 0.800977 0.000000
0.986435 0.789197 0.000000
0.997406 0.777646 0.000000
1.000000 0.769970 0.000000
0.000000 0.921553 0.000198
0.000000 0.921492 0.000198
0.000198 0.921431 0.000198
0.048829 0.921202 0.000198
0.094469 0.920913 0.000198
0.137224 0.920531 0.000198
0.187930 0.920119 0.000198
0.241108 0.919600 0.000198
0.290196 0.919005 0.000000
0.336980 0.918349 0.000000
0.383780 0.917647 0.000000
0.426764 0.916945 0.000198
0.469291 0.916182 0.000000
0.511391 0.915435 0.000000
0.552331 0.914611 0.000198
0.593103 0.913710 0.000000
0.628840 0.912459 0.000198
0.660670 0.911147 0.000000
0.692180 0.909606 0.000198
0.721691 0.907790 0.000198
0.751797 0.905821 0.000198
0.783093 0.903594 0.000000
0.815259 0.901152 0.000000
0.847334 0.897719 0.000000
0.879774 0.893233 0.000000
0.905898 0.882734 0.000000
0.923369 0.864469 0.000000
0.943755 0.848264 0.000000
0.968490 0.835126 0.000000
0.986908 0.822080 0.000000
0.999237 0.809918 0.000000
1.000000 0.800412 0.000198
0.014664 0.948013 0.000000
0.019944 0.947936 0.000000
0.026001 0.947845 0.000000
0.045274 0.947723 0.000000
0.072129 0.947509 0.000000
0.098131 0.947219 0.000198
0.153018 0.946853 0.000000
0.213428 0.946365 0.000000
0.268177 0.945724 0.000000
0.321752 0.944884 0.000000
0.369635 0.944030 0.000000
0.414511 0.943221 0.000000
0.457160 0.942382 0.000198
0.498726 0.941482 0.000000
0.539544 0.940551 0.000198
0.580896 0.939468 0.000000
0.621317 0.938354 0.000000
0.657420 0.936812 0.000000
0.688121 0.934813 0.000198
0.717830 0.932860 0.000198
0.747967 0.930434 0.000000
0.778286 0.928039 0.000000
0.809995 0.925353 0.000000
0.842496 0.922622 0.000000
0.875151 0.918929 0.000000
0.907759 0.914168 0.000198
0.935393 0.904707 0.000000
0.952377 0.886244 0.000000
0.970001 0.869062 0.000198
0.989197 0.855146 0.000000
0.998230 0.841611 0.000198
1.000000 0.830198 0.000000
0.056153 0.972915 0.000000
0.067735 0.972778 0.000000
0.078813 0.972686 0.000000
0.093202 0.972503 0.000000
0.112764 0.972274 0.000000
0.147799 0.971740 0.000000
0.181659 0.971145 0.000000
0.214878 0.970413 0.000000
0.259587 0.969604 0.000000
0.312306 0.968765 0.000000
0.359579 0.967651 0.000000
0.404166 0.966247 0.000000
0.447593 0.964782 0.000000
0.488930 0.963638 0.000198
0.529366 0.962081 0.000000
0.569482 0.960372 0.000000
0.608896 0.958801 0.000000
0.647440 0.956954 0.000000
0.683330 0.955093 0.000198
0.712596 0.953262 0.000000
0.741878 0.951339 0.000000
0.772244 0.949126 0.000000
0.803006 0.946822 0.000198
0.835035 0.944244 0.000198
0.868177 0.941466 0.000198
0.901335 0.937926 0.000000
0.934585 0.932967 0.000000
0.963653 0.924498 0.000198
0.979522 0.905394 0.000000
0.993072 0.886793 0.000000
0.997849 0.872450 0.000000
1.000000 0.862059 0.000000
0.000000 0.991150 0.000000
0.000000 0.991150 0.000000
0.029511 0.990921 0.000000
0.070298 0.990524 0.000000
0.106249 0.990021 0.000000
0.139788 0.989395 0.000000
0.172168 0.988647 0.000000
0.207462 0.987961 0.000000
0.254795 0.987610 0.000000
0.300832 0.987259 0.000000
0.346700 0.986175 0.000000
0.391760 0.984619 0.000000
0.434150 0.984024 0.000000
0.475349 0.983337 0.000000
0.515877 0.981949 0.000000
0.556313 0.980682 0.000000
0.595819 0.979355 0.000000
0.634607 0.977676 0.000000
