content/luts/atmosphere/atmosphere_09.cube
#Created by: inPixio
#Copyright: (C) Copyright 2022 inPixio
TITLE "Atmosphere 9"
#LUT size
LUT_3D_SIZE 32
#data domain
DOMAIN_MIN 0.0 0.0 0.0
DOMAIN_MAX 1.0 1.0 1.0
#LUT data points
0.000000 0.000000 0.000000
0.050843 0.000000 0.000000
0.092058 0.000000 0.000000
0.139162 0.000000 0.000000
0.181735 0.000000 0.000000
0.220157 0.000000 0.000000
0.254887 0.000000 0.000000
0.286854 0.000000 0.000000
0.316716 0.000000 0.000000
0.345113 0.000000 0.000000
0.372992 0.000000 0.000000
0.401099 0.000000 0.000000
0.430076 0.000000 0.000000
0.459388 0.001373 0.000000
0.489052 0.003738 0.000198
0.518883 0.006500 0.002564
0.548425 0.010452 0.005921
0.577951 0.013596 0.010254
0.607126 0.016754 0.014588
0.635721 0.020508 0.019715
0.663630 0.023270 0.025040
0.690395 0.026215 0.031144
0.715953 0.029770 0.037858
0.740841 0.032731 0.044190
0.764340 0.044007 0.049149
0.786572 0.062074 0.052995
0.808530 0.078004 0.055711
0.830106 0.094057 0.058656
0.851621 0.110079 0.060456
0.871595 0.122469 0.062364
0.890898 0.133913 0.063371
0.909987 0.145754 0.063371
0.000000 0.050843 0.000000
0.050507 0.050675 0.000000
0.096620 0.048798 0.000000
0.142016 0.048798 0.000000
0.183459 0.048447 0.000000
0.221210 0.045991 0.000000
0.255482 0.043259 0.000000
0.287083 0.040604 0.000000
0.316777 0.038437 0.000000
0.345251 0.036469 0.000000
0.373114 0.035691 0.000000
0.401450 0.035294 0.000000
0.430472 0.035294 0.000000
0.459739 0.036469 0.000000
0.489174 0.038636 0.002564
0.518563 0.041566 0.005325
0.548226 0.044541 0.009461
0.577752 0.047059 0.013596
0.606882 0.048981 0.017746
0.635477 0.051179 0.022873
0.663310 0.053483 0.028199
0.690089 0.055253 0.034104
0.715633 0.056977 0.040406
0.740520 0.058808 0.047059
0.763974 0.067430 0.052018
0.786328 0.080659 0.055085
0.808240 0.094469 0.058503
0.829908 0.108446 0.060746
0.851408 0.122393 0.062074
0.871397 0.133532 0.063798
0.890715 0.144030 0.064668
0.909850 0.155032 0.064668
0.000000 0.097230 0.000000
0.045991 0.097520 0.000000
0.095903 0.096513 0.000000
0.141665 0.092271 0.000000
0.183413 0.088396 0.000000
0.220630 0.085389 0.000000
0.254963 0.082185 0.000000
0.286366 0.079225 0.000000
0.316167 0.076036 0.000000
0.344701 0.073518 0.000000
0.372824 0.071321 0.000000
0.401297 0.070130 0.000000
0.430213 0.069734 0.000000
0.459419 0.070390 0.002762
0.488884 0.071580 0.004929
0.518410 0.073259 0.008865
0.548028 0.074662 0.012222
0.577447 0.075669 0.016358
0.606622 0.077028 0.020905
0.635203 0.078248 0.025437
0.663081 0.078981 0.030945
0.689754 0.080415 0.036667
0.715328 0.081132 0.042878
0.740230 0.081483 0.049317
0.763577 0.088396 0.053483
0.785962 0.099321 0.056657
0.807950 0.110613 0.059861
0.829618 0.122881 0.061936
0.851164 0.135470 0.063371
0.871153 0.145480 0.065080
0.890486 0.155169 0.066194
0.909697 0.164920 0.066056
0.000000 0.139880 0.000000
0.036271 0.139666 0.000000
0.088075 0.139239 0.000000
0.136568 0.137804 0.000000
0.180743 0.131579 0.000000
0.219440 0.124239 0.000000
0.253666 0.119844 0.000000
0.285191 0.115526 0.000000
0.314916 0.111955 0.000000
0.343572 0.108904 0.000000
0.371939 0.106416 0.000000
0.400534 0.104830 0.001190
0.429587 0.103975 0.003357
0.458930 0.104067 0.006500
0.488502 0.104357 0.009659
0.518074 0.105104 0.012818
0.547707 0.105577 0.016358
0.577142 0.105943 0.020111
0.606271 0.106783 0.025040
0.634806 0.106783 0.029770
0.662593 0.107530 0.034699
0.689281 0.107439 0.040208
0.714809 0.107530 0.046525
0.739727 0.107530 0.052674
0.763058 0.113100 0.055879
0.785458 0.121981 0.059266
0.807431 0.131731 0.061784
0.829145 0.142077 0.063523
0.850752 0.153292 0.065080
0.870665 0.162310 0.066194
0.890059 0.171191 0.066896
0.909285 0.180469 0.066621
0.000000 0.177157 0.000000
0.023453 0.177096 0.000000
0.076036 0.176486 0.000000
0.125841 0.175525 0.000000
0.172686 0.173892 0.000000
0.214206 0.167498 0.000000
0.250645 0.158587 0.000000
0.283253 0.152117 0.000000
0.313252 0.147250 0.000000
0.342153 0.143755 0.000000
0.370733 0.140887 0.002564
0.399558 0.139101 0.005921
0.428824 0.137865 0.009461
0.458259 0.137285 0.011826
0.487938 0.136935 0.014984
0.517586 0.136996 0.018341
0.547265 0.136935 0.022080
0.576700 0.136935 0.025834
0.605814 0.136782 0.030167
0.634226 0.136935 0.034699
0.662089 0.136492 0.039612
0.688594 0.136278 0.045457
0.714168 0.135683 0.050172
0.739071 0.134798 0.055711
0.762295 0.140093 0.059266
0.784726 0.147250 0.061936
0.806775 0.155489 0.064088
0.828534 0.164569 0.065644
0.850141 0.174395 0.066621
0.870024 0.182437 0.067842
0.889509 0.190570 0.067842
0.908766 0.199344 0.067308
0.000000 0.210315 0.000000
0.012818 0.209979 0.000000
0.065080 0.209522 0.000000
0.113787 0.208866 0.000000
0.159960 0.207645 0.000000
0.204242 0.205753 0.000000
0.244114 0.200031 0.000000
0.278584 0.190265 0.000000
0.310094 0.182712 0.002167
0.339818 0.178332 0.006500
0.369116 0.174792 0.009857
0.398444 0.172458 0.012619
0.427878 0.171008 0.015778
0.457633 0.169909 0.018921
0.487312 0.168963 0.022080
0.517006 0.168673 0.025437
0.546716 0.168200 0.028779
0.576135 0.167849 0.032532
0.605127 0.167620 0.036469
0.633616 0.167025 0.040604
0.661341 0.166308 0.045457
0.687831 0.165469 0.050004
0.713375 0.164263 0.054932
0.738262 0.163287 0.060014
0.761395 0.168032 0.062806
0.783856 0.174289 0.065080
0.805921 0.181186 0.066484
0.827756 0.189075 0.067842
0.849409 0.197711 0.068116
0.869246 0.204944 0.069200
0.888716 0.212741 0.069200
0.908019 0.221119 0.068116
0.000000 0.240086 0.000000
0.007889 0.239887 0.000000
0.058351 0.239490 0.000000
0.103777 0.238926 0.000000
0.148058 0.238087 0.000000
0.191501 0.236744 0.000000
0.233143 0.234958 0.000000
0.271275 0.230152 0.000000
0.304891 0.220157 0.007492
0.336049 0.213153 0.013596
0.366217 0.208637 0.017945
0.396201 0.205615 0.021286
0.426200 0.203464 0.024445
0.456397 0.202167 0.027405
0.486626 0.200900 0.030167
0.516442 0.200168 0.033127
0.546120 0.199390 0.036271
0.575433 0.198795 0.039612
0.604379 0.198001 0.043259
0.632853 0.197253 0.047242
0.660487 0.196262 0.051011
0.686854 0.195010 0.055558
0.712383 0.193591 0.059861
0.737255 0.192325 0.064805
0.760311 0.196613 0.066484
0.782788 0.202213 0.068391
0.804944 0.208209 0.069459
0.826810 0.215106 0.070390
0.848432 0.223117 0.070390
0.868223 0.229740 0.070924
0.887816 0.236957 0.070390
0.907179 0.244938 0.068803
0.000000 0.267964 0.005127
0.008865 0.267750 0.005127
0.054612 0.267506 0.005921
0.098436 0.267155 0.005722
0.138308 0.266590 0.006302
0.180591 0.265522 0.006500
0.221210 0.264134 0.007691
0.260777 0.262593 0.008865
0.297505 0.258732 0.012024
0.330816 0.249348 0.019516
0.362448 0.243381 0.025437
0.393545 0.238407 0.030762
0.424002 0.235981 0.034302
0.454429 0.233845 0.037659
0.484810 0.232487 0.040009
0.514992 0.231617 0.042695
0.544946 0.230869 0.044724
0.574655 0.229816 0.046891
0.603571 0.228641 0.050004
0.631907 0.227375 0.053315
0.659434 0.226185 0.056657
0.685695 0.224628 0.060899
0.711193 0.223087 0.065217
0.735958 0.221943 0.068940
0.758984 0.225971 0.070390
0.781552 0.230655 0.071839
0.803739 0.236103 0.072099
0.825620 0.242542 0.072877
0.847196 0.249455 0.072358
0.867079 0.255757 0.072496
0.886748 0.262730 0.071183
0.906172 0.270451 0.069062
0.000000 0.295308 0.017350
0.011627 0.295094 0.017945
0.054124 0.294896 0.018341
0.095094 0.294621 0.018143
0.133303 0.294209 0.018921
0.171771 0.293523 0.019516
0.211322 0.292622 0.020310
0.249989 0.291356 0.021485
0.288075 0.289921 0.022278
0.323873 0.286915 0.024445
0.357260 0.279057 0.032136
0.389700 0.273182 0.038437
0.421546 0.268345 0.043626
0.452384 0.265812 0.046891
0.483024 0.264027 0.049149
0.513237 0.262486 0.051347
0.543206 0.261753 0.052674
0.572870 0.260960 0.055253
0.602075 0.259800 0.056977
0.630671 0.258412 0.059266
0.658137 0.256565 0.062364
0.684382 0.254261 0.066484
0.709880 0.252262 0.070130
0.734402 0.251927 0.073136
0.757534 0.255345 0.074159
0.780148 0.259617 0.075044
0.802365 0.264744 0.075166
0.824323 0.270558 0.075044
0.845701 0.276997 0.074540
0.865736 0.282979 0.073899
0.885512 0.289784 0.071977
0.905013 0.297444 0.069200
0.000000 0.322942 0.030945
0.015183 0.322805 0.030762
0.054124 0.322652 0.031144
0.093324 0.322484 0.031342
0.129900 0.322225 0.031342
0.165591 0.321828 0.031937
0.203464 0.321187 0.032929
0.241398 0.320333 0.033509
0.278996 0.319188 0.033509
0.315847 0.317952 0.034501
0.352422 0.316533 0.035691
0.384787 0.308797 0.043824
0.417609 0.302953 0.049317
0.449699 0.298619 0.053315
0.481056 0.295125 0.056657
0.511269 0.294057 0.058503
0.541268 0.292943 0.060304
0.570901 0.291676 0.061784
0.600031 0.290623 0.063798
0.628534 0.289342 0.065782
0.656138 0.287465 0.067567
0.682750 0.285054 0.070527
0.708278 0.282429 0.074281
0.732738 0.281895 0.076783
0.755856 0.285023 0.077394
0.778500 0.289052 0.078004
0.800763 0.293767 0.077882
0.822797 0.299306 0.077028
0.844053 0.305257 0.076036
0.864225 0.311193 0.074784
0.884062 0.317952 0.072358
0.903639 0.325216 0.068391
0.000000 0.351324 0.042695
0.015778 0.351232 0.042695
0.053483 0.351125 0.042496
0.090883 0.351019 0.042695
0.126864 0.350820 0.043061
0.161639 0.350561 0.043259
0.196613 0.350225 0.044007
0.234501 0.349508 0.044190
0.271244 0.348669 0.044907
0.308019 0.347662 0.045457
0.344259 0.346487 0.045624
0.380331 0.345159 0.046525
0.412696 0.338491 0.053483
0.445930 0.332372 0.058656
0.477836 0.328664 0.061784
0.509224 0.325078 0.064805
0.539223 0.323980 0.066194
0.568795 0.322881 0.067842
0.597879 0.321386 0.069459
0.626276 0.319844 0.070924
0.653697 0.318013 0.073259
0.680293 0.315724 0.075914
0.706142 0.313130 0.078370
0.730495 0.313573 0.079347
0.753735 0.315984 0.079942
0.776547 0.319066 0.080293
0.798962 0.323247 0.079698
0.821042 0.328557 0.078737
0.842191 0.334173 0.077028
0.862516 0.340032 0.074784
0.882475 0.346883 0.071443
0.902144 0.353811 0.066758
0.000000 0.380179 0.052186
0.014984 0.380087 0.052506
0.052018 0.379995 0.052506
0.088624 0.379980 0.052827
0.124086 0.379797 0.052827
0.158724 0.379553 0.053162
0.192325 0.379400 0.053483
0.227802 0.378927 0.053483
0.264851 0.378225 0.053483
0.301122 0.377432 0.053635
0.337270 0.376501 0.053635
0.373007 0.375372 0.054124
0.408713 0.374212 0.054612
0.441047 0.368139 0.060304
0.474128 0.362188 0.065644
0.505715 0.358999 0.067842
0.536675 0.355764 0.070390
0.566659 0.353567 0.072618
0.595544 0.352224 0.074159
0.623880 0.350561 0.076036
0.651148 0.348425 0.078126
0.677577 0.346258 0.080415
0.703487 0.343786 0.082536
0.727688 0.345083 0.082292
0.751247 0.347189 0.081834
0.774044 0.350332 0.081590
0.796567 0.354101 0.080659
0.818845 0.358755 0.078981
0.840162 0.363623 0.077394
0.860609 0.369665 0.074159
0.880690 0.376547 0.069596
0.900496 0.383154 0.064515
0.000000 0.409247 0.060166
0.012024 0.409217 0.060014
0.048447 0.409140 0.059861
0.084825 0.409094 0.060014
0.120577 0.408972 0.060304
0.155032 0.408774 0.060304
0.188541 0.408606 0.060304
0.221866 0.408393 0.060014
0.258366 0.407782 0.060166
0.294713 0.407187 0.060304
0.330587 0.406363 0.060456
0.366293 0.405371 0.060456
0.401724 0.404364 0.060304
0.437186 0.403189 0.060746
0.469169 0.397849 0.066056
0.501778 0.392462 0.070390
0.533059 0.388937 0.073136
0.563577 0.385763 0.075288
0.593118 0.382559 0.078370
0.621180 0.381018 0.079942
0.648280 0.378927 0.081941
0.674754 0.376623 0.084260
0.700435 0.374670 0.085618
0.724498 0.376364 0.085176
0.748119 0.378561 0.084138
0.771267 0.381430 0.081834
0.793774 0.385168 0.080766
0.816068 0.389883 0.078492
0.837491 0.394049 0.076280
0.858305 0.399725 0.072877
0.878691 0.406790 0.066758
0.898665 0.413169 0.061051
0.000000 0.438285 0.065919
0.006119 0.438270 0.066194
0.042496 0.438163 0.066056
0.080293 0.438193 0.066194
0.116472 0.438056 0.065919
0.151125 0.437934 0.066194
0.184955 0.437751 0.066056
0.217945 0.437537 0.065919
0.251621 0.437263 0.065919
0.288411 0.436591 0.065782
0.324178 0.435889 0.066056
0.359808 0.435126 0.066194
0.395178 0.434165 0.065919
0.430381 0.433127 0.066056
0.465385 0.431952 0.066056
0.496986 0.427192 0.070527
0.529000 0.422278 0.074784
0.559823 0.418235 0.077516
0.589548 0.415076 0.079576
0.618174 0.411521 0.082887
0.645457 0.408942 0.085176
0.671794 0.406790 0.086961
0.697093 0.405829 0.087953
0.721187 0.407218 0.087068
0.744640 0.409629 0.085283
0.767865 0.412604 0.082643
0.790707 0.416342 0.079454
0.812955 0.420691 0.076905
0.834608 0.424552 0.074540
0.855711 0.429847 0.070527
0.876341 0.436637 0.063661
0.896696 0.442176 0.057588
0.000000 0.467002 0.071321
0.000000 0.467018 0.071183
0.033509 0.466987 0.071321
0.074784 0.466911 0.071321
0.111330 0.466835 0.071061
0.146304 0.466743 0.071061
0.180423 0.466545 0.070665
0.213794 0.466331 0.070924
0.246769 0.466148 0.071061
0.281621 0.465721 0.070665
0.317723 0.465065 0.070527
0.353109 0.464332 0.070390
0.388525 0.463447 0.069993
0.423621 0.462486 0.070130
0.458427 0.461402 0.070130
0.493095 0.460243 0.069871
0.524559 0.455863 0.073518
0.555627 0.451240 0.077516
0.585611 0.446784 0.081010
0.614237 0.443427 0.083452
0.641962 0.439811 0.086519
0.668742 0.436484 0.089387
0.693736 0.436286 0.089708
0.717891 0.437339 0.088624
0.741344 0.439597 0.086748
0.764294 0.443153 0.082994
0.787015 0.447501 0.078004
0.809598 0.451316 0.074403
0.831601 0.454948 0.071580
0.852979 0.460014 0.067033
0.873869 0.466606 0.059724
0.894652 0.470756 0.053803
0.000000 0.495293 0.075547
0.000000 0.495308 0.075410
0.023270 0.495216 0.075410
0.066758 0.495216 0.075044
0.104921 0.495140 0.075044
0.141100 0.494957 0.075044
0.175647 0.494804 0.074784
0.209140 0.494621 0.075044
0.242039 0.494408 0.074784
0.274617 0.494102 0.074784
0.310689 0.493507 0.074784
0.346441 0.492897 0.074281
0.381384 0.492119 0.074159
0.416617 0.491173 0.073777
0.451392 0.490135 0.073777
0.485924 0.488991 0.073136
0.520241 0.487816 0.073014
0.551263 0.483757 0.076280
0.581308 0.479164 0.080293
0.610269 0.474510 0.084031
0.638010 0.471046 0.086290
0.664790 0.467781 0.089265
0.690303 0.466194 0.090455
0.714534 0.466819 0.089708
0.738109 0.468772 0.087633
0.761059 0.472084 0.084260
0.783597 0.476936 0.078370
0.806149 0.481422 0.072358
0.828443 0.485313 0.067842
0.850095 0.490303 0.062516
0.871351 0.495644 0.054444
0.892622 0.499382 0.047929
0.000000 0.522835 0.078859
0.000000 0.522744 0.078859
0.010452 0.522728 0.078859
0.056977 0.522683 0.078737
0.097826 0.522606 0.078859
0.134646 0.522484 0.078737
0.169970 0.522332 0.078614
0.203708 0.522118 0.078492
0.237110 0.521859 0.078492
0.269749 0.521614 0.078248
0.302953 0.521233 0.078126
0.339056 0.520546 0.077882
0.374212 0.519814 0.077516
0.408896 0.518990 0.077150
0.443809 0.517983 0.077028
0.478218 0.516854 0.076661
0.512291 0.515694 0.076417
0.546227 0.514443 0.076036
0.576974 0.510643 0.079347
0.605905 0.506111 0.083345
0.633875 0.501717 0.086519
0.660655 0.498573 0.088502
0.686305 0.496757 0.089921
0.711040 0.496239 0.090135
0.734783 0.497520 0.088502
0.757855 0.500618 0.084596
0.780514 0.504982 0.079225
0.803479 0.508232 0.073640
0.825834 0.513405 0.065217
0.847150 0.520577 0.054932
0.868849 0.524666 0.048447
0.890608 0.528191 0.040803
0.000000 0.549279 0.082414
0.000000 0.549203 0.082765
0.000000 0.549157 0.082643
0.046174 0.549081 0.082643
0.090135 0.549020 0.082414
0.128039 0.548898 0.082414
0.163836 0.548745 0.082414
0.198245 0.548531 0.082292
0.231739 0.548257 0.082063
0.264317 0.547967 0.082185
0.296590 0.547662 0.082063
0.330953 0.547112 0.081834
0.366400 0.546380 0.081483
0.401144 0.545556 0.081361
0.435538 0.544686 0.080659
0.469963 0.543572 0.080766
0.503990 0.542474 0.080064
0.537728 0.541253 0.079698
0.571176 0.539941 0.079698
0.601785 0.536538 0.082063
0.629786 0.532219 0.085618
0.656672 0.528603 0.088182
0.682551 0.526253 0.089265
0.707424 0.525444 0.090028
0.731426 0.526131 0.088731
0.754665 0.528664 0.084825
0.777752 0.531792 0.080171
0.801007 0.534600 0.075166
0.823636 0.539300 0.066758
0.845518 0.546166 0.054124
0.866926 0.551553 0.044007
0.888747 0.557031 0.030762
0.000000 0.574624 0.086748
0.000000 0.574579 0.086748
0.000000 0.574533 0.086748
0.032532 0.574487 0.086854
0.081590 0.574380 0.086290
0.121080 0.574273 0.086625
0.157580 0.574075 0.086412
0.192325 0.573877 0.086290
0.225711 0.573678 0.086412
0.258625 0.573358 0.086076
0.290776 0.573037 0.086076
0.322606 0.572702 0.085847
0.358068 0.572015 0.085389
0.392905 0.571191 0.085283
0.427070 0.570413 0.084718
0.461173 0.569482 0.084138
0.495308 0.568383 0.083803
0.528817 0.567208 0.083574
0.562158 0.566003 0.083345
0.595224 0.564691 0.082765
0.625940 0.561578 0.084825
0.653025 0.557794 0.087953
0.678981 0.555062 0.089494
0.703990 0.553658 0.089708
0.728237 0.553979 0.088838
0.751690 0.556024 0.085618
0.775265 0.557946 0.081712
0.798672 0.560571 0.075914
0.821653 0.564798 0.067704
0.844160 0.570657 0.054780
0.866163 0.574960 0.045624
0.888228 0.581308 0.029572
0.000000 0.599191 0.090455
0.000000 0.599191 0.090562
0.000000 0.599176 0.090242
0.019318 0.599039 0.090349
0.071839 0.598962 0.090349
0.113100 0.598871 0.090242
0.150469 0.598749 0.090028
0.185702 0.598505 0.089921
0.219532 0.598306 0.089815
0.252613 0.598016 0.089815
0.284703 0.597742 0.089815
0.316564 0.597360 0.089494
0.349249 0.596918 0.089265
0.384283 0.596185 0.088731
0.418723 0.595377 0.088731
0.452415 0.594537 0.088182
0.486229 0.593545 0.087739
0.519875 0.592493 0.087404
0.553094 0.591302 0.087068
0.586023 0.590097 0.086519
0.618662 0.588800 0.086412
0.651041 0.587411 0.085725
0.675853 0.582910 0.089815
0.701091 0.581170 0.089815
0.725322 0.581048 0.088945
0.749157 0.582269 0.086290
0.773159 0.583352 0.083345
0.796750 0.585855 0.078126
0.819883 0.590021 0.068528
0.842893 0.594232 0.057740
0.865675 0.598428 0.046174
0.888365 0.604517 0.028977
0.000000 0.623240 0.094362
0.000000 0.623209 0.094667
0.000000 0.623179 0.094362
0.004532 0.623117 0.094469
0.060609 0.623011 0.094255
0.104830 0.622919 0.094163
0.142916 0.622782 0.093950
0.179049 0.622583 0.094163
0.213245 0.622385 0.093843
0.246342 0.622126 0.093843
0.278584 0.621851 0.093431
0.310338 0.621546 0.093324
0.341680 0.621149 0.093004
0.375494 0.620569 0.092699
0.409918 0.619852 0.092378
0.443809 0.619059 0.092058
0.477180 0.618204 0.091417
0.510704 0.617212 0.090990
0.544015 0.616144 0.090455
0.576898 0.614984 0.089815
0.609445 0.613779 0.089601
0.641718 0.612528 0.089052
0.673671 0.611185 0.088731
0.698543 0.607752 0.091096
0.723095 0.607157 0.089708
0.747204 0.607462 0.088075
0.771328 0.608393 0.085054
0.795132 0.610590 0.079454
0.818586 0.614420 0.070665
0.842023 0.617670 0.060456
0.865583 0.621927 0.045991
0.889128 0.626627 0.031144
0.000000 0.646906 0.097826
0.000000 0.646891 0.097826
0.000000 0.646861 0.097734
0.000000 0.646799 0.097734
0.045991 0.646708 0.097734
0.095094 0.646616 0.097627
0.134951 0.646510 0.097429
0.171481 0.646357 0.097429
0.206378 0.646159 0.097124
0.239811 0.645899 0.097230
0.272145 0.645655 0.096818
0.303990 0.645350 0.096513
0.335271 0.645014 0.096315
0.366323 0.644663 0.096315
0.401038 0.644007 0.095705
0.435096 0.643259 0.095293
0.468528 0.642481 0.094774
0.501549 0.641642 0.094255
0.534829 0.640650 0.093538
0.567834 0.639612 0.093111
0.600427 0.638483 0.092164
0.632715 0.637293 0.091753
0.664653 0.636088 0.090990
0.696239 0.634836 0.090455
0.721386 0.632349 0.091203
0.745831 0.632136 0.090135
0.769909 0.632960 0.087068
0.793835 0.634958 0.081712
0.817685 0.637842 0.073518
0.841672 0.640650 0.063661
0.865843 0.645121 0.047929
0.890394 0.648707 0.032532
0.000000 0.670451 0.100694
0.000000 0.670405 0.100893
0.000000 0.670375 0.100603
0.000000 0.670344 0.100694
0.025834 0.670283 0.100694
0.083452 0.670192 0.100496
0.125689 0.670085 0.100404
0.163287 0.669947 0.100206
0.199039 0.669764 0.100114
0.232731 0.669566 0.099718
0.265492 0.669322 0.099626
0.297475 0.669047 0.099123
0.328756 0.668803 0.099123
0.359747 0.668467 0.098528
0.392004 0.668025 0.098329
0.426261 0.667338 0.097932
0.459846 0.666621 0.097230
0.493034 0.665873 0.096818
0.525750 0.665019 0.096010
0.558831 0.664073 0.095399
0.591577 0.663035 0.094774
0.623941 0.661982 0.093645
0.656016 0.660838 0.093004
0.687617 0.659709 0.092164
0.719051 0.658518 0.091753
0.744732 0.656428 0.092485
0.769024 0.657069 0.089708
0.793057 0.658915 0.084138
0.817227 0.660945 0.077150
0.841779 0.663722 0.066621
0.866651 0.667948 0.050507
0.892119 0.670634 0.034501
0.000000 0.693996 0.103029
0.000000 0.693996 0.102831
0.000000 0.693950 0.102922
0.000000 0.693904 0.102739
0.002762 0.693843 0.102541
0.067567 0.693797 0.102632
0.114839 0.693690 0.102251
0.153750 0.693614 0.102251
0.190372 0.693462 0.101961
0.225284 0.693248 0.101961
0.258412 0.693065 0.101671
0.290593 0.692851 0.101381
0.322210 0.692577 0.100893
0.353384 0.692302 0.100801
0.383978 0.692012 0.100206
0.417411 0.691478 0.099825
0.451194 0.690852 0.099229
0.484581 0.690166 0.098436
0.517418 0.689433 0.098024
0.550103 0.688624 0.097230
0.582910 0.687724 0.096208
0.615488 0.686748 0.095399
0.647685 0.685725 0.094469
0.679439 0.684703 0.093736
0.711025 0.683604 0.092805
0.742290 0.682490 0.092164
0.768536 0.680842 0.092271
0.792874 0.682261 0.087190
0.817426 0.684031 0.080064
0.842451 0.686870 0.069062
0.868071 0.690028 0.054444
0.894423 0.692897 0.035874
0.000000 0.717769 0.104830
0.000000 0.717723 0.105013
0.000000 0.717723 0.104738
0.000000 0.717662 0.104921
0.000000 0.717632 0.104830
0.047593 0.717601 0.104738
0.101671 0.717525 0.104540
0.143893 0.717464 0.104540
0.181781 0.717342 0.104265
0.217227 0.717189 0.103777
0.251026 0.717022 0.103594
0.283604 0.716854 0.103304
0.315526 0.716640 0.102632
0.346807 0.716426 0.102541
0.377646 0.716182 0.101961
0.408438 0.715892 0.101671
0.442619 0.715328 0.100801
0.476295 0.714733 0.100114
0.509270 0.714092 0.099626
0.541924 0.713405 0.098833
0.574533 0.712657 0.097826
0.607294 0.711788 0.096620
0.639689 0.710887 0.095796
0.671763 0.709957 0.094774
0.703456 0.709026 0.093431
0.734875 0.708019 0.092164
0.766033 0.706981 0.091096
0.793088 0.705501 0.090135
0.818051 0.707424 0.082887
0.843717 0.710460 0.070924
0.870100 0.712673 0.056977
0.897353 0.715724 0.034699
0.000000 0.741924 0.106142
0.000000 0.741924 0.105943
0.000000 0.741924 0.105852
0.000000 0.741894 0.105760
0.000000 0.741878 0.105669
0.017350 0.741833 0.105577
0.084718 0.741802 0.105486
0.131197 0.741756 0.105196
0.171191 0.741695 0.105013
0.207981 0.741604 0.104448
0.242710 0.741466 0.104265
0.276051 0.741344 0.103883
0.308400 0.741177 0.103594
0.339986 0.741009 0.103121
0.371115 0.740841 0.102541
0.401877 0.740642 0.101961
0.434028 0.740337 0.101289
0.468025 0.739849 0.100114
0.501366 0.739300 0.099519
0.534264 0.738766 0.098329
0.566827 0.738186 0.097230
0.599542 0.737545 0.095903
0.632258 0.736812 0.094469
0.664698 0.736049 0.093004
0.696864 0.735287 0.091310
0.728618 0.734463 0.089815
0.760006 0.733547 0.088182
0.791257 0.732555 0.086412
0.819226 0.731182 0.084718
0.845380 0.733959 0.072496
0.872480 0.736645 0.056336
0.900511 0.739254 0.031540
0.000000 0.766827 0.104830
0.000000 0.766827 0.104830
0.000000 0.766827 0.104830
0.000000 0.766842 0.104448
0.000000 0.766827 0.104631
0.000000 0.766827 0.104158
0.059113 0.766857 0.104067
0.114672 0.766857 0.103594
0.157900 0.766857 0.103212
0.197055 0.766827 0.102831
0.233188 0.766781 0.102541
0.267475 0.766720 0.101762
0.300526 0.766674 0.101289
0.332692 0.766644 0.100694
0.364355 0.766598 0.100008
0.395377 0.766583 0.099123
0.426123 0.766568 0.098024
0.459815 0.766308 0.096818
0.493736 0.765957 0.095598
0.527169 0.765621 0.094057
0.560220 0.765271 0.092592
0.592889 0.764920 0.090883
0.625910 0.764492 0.088945
0.658869 0.764019 0.086519
0.691585 0.763546 0.084138
0.724163 0.763073 0.081483
0.756054 0.762310 0.078981
0.787594 0.761349 0.076661
0.818891 0.760281 0.073640
0.847471 0.758404 0.071977
0.875334 0.761761 0.051514
0.903822 0.764675 0.022675
0.000000 0.793729 0.098924
0.000000 0.793744 0.098634
0.000000 0.793774 0.098833
0.000000 0.793790 0.098634
0.000000 0.793835 0.098024
0.000000 0.793896 0.098024
0.009857 0.793942 0.097520
0.088945 0.794018 0.097230
0.139666 0.794110 0.096818
0.182376 0.794186 0.096117
0.220859 0.794247 0.095293
0.257038 0.794308 0.094575
0.291325 0.794400 0.093645
0.324651 0.794507 0.092699
0.356954 0.794644 0.091539
0.388785 0.794781 0.090242
0.420127 0.794965 0.088624
0.451728 0.795132 0.086961
