content/luts/atmosphere/atmosphere_10.cube
#Created by: inPixio
#Copyright: (C) Copyright 2022 inPixio
TITLE "Atmosphere 10"
#LUT size
LUT_3D_SIZE 5
#data domain
#LUT data points
DOMAIN_MIN 0.000000 0.000000 0.000000
DOMAIN_MAX 0.903226 0.903226 0.903226
0.000000 0.000000 0.000000
0.187671 0.000198 0.000000
0.404624 0.000198 0.000198
0.658854 0.000000 0.000000
0.912368 0.000000 0.000198
0.019944 0.162829 0.000000
0.208805 0.151446 0.001556
0.423819 0.157275 0.000198
0.673426 0.196918 0.000198
0.916548 0.198871 0.000000
0.032288 0.455650 0.000000
0.286931 0.457771 0.000198
0.497597 0.454551 0.000000
0.715221 0.489204 0.000000
0.930877 0.475715 0.000000
0.000198 0.824537 0.000000
0.267033 0.823880 0.000198
0.575021 0.822019 0.000198
0.785397 0.811154 0.000000
0.955810 0.731411 0.000198
0.002152 0.997955 0.000000
0.173709 0.997391 0.000000
0.504143 0.995972 0.000000
0.759640 0.988067 0.000198
0.980758 0.965972 0.000000
0.094896 0.000198 0.198001
0.200046 0.000000 0.190982
0.418357 0.000000 0.182422
0.663798 0.000000 0.113115
0.915328 0.000000 0.008988
0.003128 0.146853 0.206394
0.194873 0.150149 0.195163
0.425773 0.082063 0.156069
0.676310 0.061067 0.104707
0.920485 0.056001 0.000778
0.000397 0.453513 0.247547
0.188098 0.454673 0.178073
0.490913 0.451591 0.151843
0.714305 0.470710 0.051972
0.934188 0.444968 0.000000
0.001175 0.824949 0.177279
0.149554 0.824460 0.059602
0.547890 0.822324 0.000198
0.784115 0.812879 0.000000
0.956054 0.725155 0.000198
0.000000 0.999100 0.012299
0.143206 0.998032 0.003525
0.472068 0.996933 0.000000
0.751904 0.989075 0.000198
0.978515 0.965637 0.000000
0.238636 0.000198 0.436515
0.299580 0.000000 0.427161
0.441733 0.000198 0.421454
0.706355 0.000000 0.460700
0.925475 0.000000 0.387060
0.157275 0.077226 0.448890
0.270420 0.052781 0.440498
0.444129 0.000397 0.426322
0.703502 0.000198 0.439811
0.925231 0.000000 0.348867
0.001953 0.390417 0.470405
0.128344 0.395316 0.468513
0.437858 0.415671 0.440955
0.700588 0.342184 0.369116
0.934112 0.280613 0.299855
0.000580 0.821454 0.548516
0.018570 0.821393 0.527092
0.424933 0.816571 0.434897
0.756390 0.799542 0.424567
0.950408 0.707393 0.344167
0.000778 0.998459 0.475822
0.000397 0.998352 0.460639
0.399741 0.997055 0.413245
0.728710 0.989944 0.386755
0.975448 0.966659 0.366690
0.389960 0.000198 0.699977
0.429557 0.000198 0.694286
0.542031 0.000198 0.671199
0.711406 0.000198 0.673335
0.954864 0.000000 0.663035
0.352865 0.000000 0.708980
0.401175 0.000000 0.703853
0.533578 0.000198 0.680797
0.712154 0.000000 0.675944
0.956024 0.000198 0.659220
0.004883 0.275670 0.736339
0.115175 0.273671 0.733715
0.479057 0.318135 0.710170
0.715374 0.283314 0.686320
0.949264 0.279408 0.637400
0.001373 0.696132 0.745861
0.059434 0.701656 0.744305
0.411124 0.730907 0.737118
0.697887 0.769436 0.704311
0.927489 0.666697 0.613077
0.000778 0.997345 0.787137
0.048478 0.996918 0.777874
0.421408 0.997116 0.750485
0.724773 0.985229 0.730068
0.955276 0.964202 0.721599
0.459266 0.000198 0.930343
0.488167 0.000000 0.928969
0.593393 0.000000 0.922820
0.756451 0.000000 0.910170
0.954604 0.000000 0.894774
0.430213 0.000000 0.933089
0.463935 0.000000 0.931518
0.577585 0.000000 0.925414
0.748714 0.000000 0.912764
0.956893 0.000000 0.897917
0.285466 0.233173 0.942580
0.358007 0.260060 0.940658
0.518288 0.243824 0.933440
0.714626 0.067308 0.920272
0.953094 0.070558 0.899855
0.002930 0.535607 0.950759
0.046921 0.541299 0.950225
0.398108 0.596094 0.945235
0.692378 0.681071 0.926268
0.932311 0.661540 0.904143
0.000580 0.871763 0.949279
0.094148 0.878370 0.948547
0.434775 0.904616 0.945281
0.713603 0.939345 0.940673
0.920180 0.955810 0.922759
