content/luts/atmosphere/atmosphere_08.cube
#Created by: inPixio
#Copyright: (C) Copyright 2022 inPixio
TITLE "Atmosphere 8"
#LUT size
LUT_3D_SIZE 5
#data domain
#LUT data points
DOMAIN_MIN 0.000000 0.000000 0.000000
DOMAIN_MAX 0.903226 0.903226 0.903226
0.142855 0.133700 0.164614
0.199664 0.147936 0.182742
0.413611 0.191898 0.240086
0.723415 0.318563 0.367605
0.900008 0.569589 0.561166
0.169451 0.192371 0.193195
0.215427 0.199954 0.198978
0.439811 0.257954 0.238956
0.735058 0.371832 0.364660
0.902419 0.589456 0.562173
0.265858 0.410544 0.291966
0.319356 0.419516 0.299336
0.496391 0.469917 0.326040
0.758511 0.541985 0.378897
0.909834 0.659693 0.563989
0.485344 0.707973 0.468330
0.516823 0.708858 0.472648
0.620737 0.715328 0.492073
0.760159 0.734829 0.519051
0.899001 0.782284 0.625681
0.748379 0.861006 0.682536
0.756680 0.860975 0.685222
0.790768 0.860990 0.697505
0.839429 0.862837 0.718975
0.888380 0.866606 0.744671
0.154772 0.145968 0.223209
0.208911 0.151965 0.235782
0.421683 0.222644 0.320012
0.715297 0.378973 0.448661
0.890517 0.610468 0.606409
0.175891 0.201511 0.241642
0.237247 0.222004 0.265354
0.451804 0.286091 0.333791
0.728420 0.416220 0.446265
0.892378 0.621271 0.603357
0.285466 0.425620 0.348226
0.344854 0.446250 0.364538
0.505501 0.477913 0.385184
0.762020 0.554025 0.441321
0.901747 0.678111 0.602701
0.508843 0.712306 0.506828
0.549065 0.717372 0.518288
0.639887 0.721965 0.533608
0.764645 0.738415 0.554147
0.897734 0.787076 0.649241
0.754971 0.859693 0.695872
0.763149 0.859464 0.697887
0.796857 0.860487 0.711605
0.842710 0.862715 0.731701
0.889296 0.867628 0.756741
0.199954 0.181445 0.422980
0.272908 0.186557 0.433768
0.461326 0.205524 0.462272
0.733379 0.386053 0.547356
0.883146 0.659419 0.677958
0.233875 0.272236 0.452506
0.302083 0.277211 0.461479
0.493004 0.296132 0.485756
0.740826 0.466606 0.564859
0.882124 0.689464 0.690806
0.304433 0.457572 0.478462
0.371862 0.476448 0.493599
0.568490 0.535500 0.538491
0.762661 0.623102 0.604990
0.887312 0.736004 0.701579
0.528557 0.708507 0.577188
0.567514 0.715114 0.588480
0.686229 0.738415 0.629114
0.785702 0.757321 0.648402
0.895872 0.799771 0.708782
0.762051 0.858106 0.723613
0.774228 0.858488 0.729809
0.814527 0.860960 0.750576
0.851957 0.863584 0.765835
0.889723 0.868589 0.781537
0.336324 0.278965 0.659953
0.393668 0.286610 0.663340
0.557427 0.315526 0.677272
0.745586 0.391257 0.686458
0.889525 0.639689 0.735882
0.382818 0.376547 0.671000
0.430289 0.381399 0.673426
0.576364 0.403723 0.682734
0.750668 0.458808 0.690257
0.887877 0.668620 0.741039
0.465873 0.556924 0.680842
0.515419 0.570123 0.685969
0.643061 0.604135 0.700893
0.774105 0.629923 0.710765
0.885252 0.750958 0.761868
0.563180 0.723568 0.692180
0.598001 0.727947 0.696040
0.697597 0.746777 0.713451
0.809201 0.781033 0.745205
0.887602 0.826001 0.789746
0.764386 0.855924 0.765042
0.777234 0.856672 0.769146
0.818143 0.860426 0.784070
0.861799 0.866529 0.803952
0.892302 0.871885 0.814359
0.578531 0.529641 0.828458
0.601633 0.537392 0.828565
0.681163 0.564065 0.828824
0.785000 0.603296 0.829603
0.883925 0.665782 0.828046
0.614862 0.587121 0.827390
0.635126 0.592569 0.827543
0.700801 0.610513 0.827955
0.792020 0.638819 0.829053
0.884215 0.691447 0.828504
0.686488 0.700053 0.825727
0.702922 0.705684 0.826062
0.749569 0.715877 0.827359
0.813413 0.728405 0.829328
0.885069 0.758892 0.830442
0.738445 0.789639 0.825452
0.748714 0.792081 0.825834
0.791287 0.803525 0.828107
0.843381 0.818479 0.832517
0.889540 0.832075 0.836545
0.797437 0.861311 0.828763
0.804929 0.861967 0.829450
0.831510 0.864958 0.832349
0.866941 0.870115 0.838346
0.898329 0.879332 0.848386
