content/luts/atmosphere/atmosphere_04.cube
#Created by: inPixio
#Copyright: (C) Copyright 2022 inPixio
TITLE "Atmosphere 4"
#LUT size
LUT_3D_SIZE 8
#data domain
#LUT data points
DOMAIN_MIN 0.000000 0.000000 0.000000
DOMAIN_MAX 0.903226 0.903226 0.903226
0.000000 0.000000 0.120150
0.027375 0.000198 0.125521
0.140749 0.000397 0.133028
0.229892 0.002350 0.130755
0.313069 0.003708 0.140963
0.415839 0.019348 0.143420
0.560830 0.008988 0.137881
0.757137 0.045457 0.153140
0.000977 0.076127 0.129503
0.033692 0.080644 0.131136
0.145373 0.083680 0.133700
0.233097 0.089174 0.140078
0.316228 0.093614 0.141039
0.418601 0.098238 0.146990
0.564599 0.105089 0.159396
0.758404 0.108629 0.153277
0.000397 0.189334 0.138521
0.041962 0.191852 0.142641
0.150469 0.195254 0.149813
0.236957 0.198245 0.148058
0.320104 0.201755 0.148394
0.422965 0.205661 0.164447
0.568750 0.209323 0.157656
0.760693 0.213047 0.174853
0.000000 0.275410 0.147463
0.051652 0.276875 0.148394
0.156390 0.279500 0.152224
0.241474 0.282033 0.162341
0.324025 0.284657 0.166964
0.427115 0.287358 0.165087
0.572137 0.290105 0.173022
0.762387 0.292805 0.177966
0.034302 0.356573 0.173877
0.068284 0.357733 0.174228
0.163134 0.360174 0.173358
0.246052 0.362707 0.169451
0.327916 0.364904 0.163974
0.431312 0.367453 0.172671
0.575921 0.370047 0.192981
0.764675 0.372717 0.185412
0.023651 0.455589 0.173480
0.083680 0.456901 0.176242
0.168917 0.459617 0.182849
0.251133 0.462257 0.187732
0.332784 0.465095 0.189227
0.435737 0.467353 0.189120
0.579797 0.469856 0.187930
0.766796 0.472404 0.199756
0.037919 0.595209 0.176700
0.082994 0.596170 0.176822
0.173770 0.598383 0.177508
0.255573 0.600458 0.175784
0.337591 0.602487 0.178775
0.439887 0.605127 0.193454
0.584482 0.607324 0.210773
0.768734 0.609293 0.218830
0.071336 0.772534 0.200931
0.104418 0.772885 0.201709
0.180240 0.773907 0.204303
0.260884 0.774975 0.206531
0.342306 0.776059 0.211109
0.443732 0.777066 0.215839
0.587823 0.778134 0.207828
0.770459 0.779110 0.214694
0.000198 0.000000 0.244846
0.027756 0.000000 0.246098
0.141939 0.001373 0.247669
0.230610 0.002548 0.249912
0.313466 0.005661 0.250935
0.416358 0.020722 0.254002
0.561654 0.008988 0.255711
0.757534 0.044724 0.258213
0.000778 0.078202 0.247944
0.031678 0.082643 0.249455
0.146304 0.085618 0.250935
0.233799 0.090913 0.252720
0.316884 0.095399 0.254719
0.419394 0.099901 0.256977
0.565332 0.106523 0.258961
0.758816 0.110369 0.260884
0.002152 0.190311 0.250782
0.040070 0.192935 0.252567
0.151446 0.196429 0.254459
0.237720 0.199374 0.256901
0.320653 0.203037 0.259358
0.423697 0.206775 0.260700
0.569467 0.210498 0.263020
0.761013 0.214115 0.266163
0.003128 0.275959 0.254231
0.055070 0.277623 0.255970
0.157397 0.280186 0.258778
0.242176 0.282796 0.261677
0.324620 0.285466 0.263996
0.427802 0.288167 0.265202
0.572854 0.290944 0.267674
0.762692 0.293751 0.270802
0.033692 0.357336 0.258747
0.063096 0.358434 0.260090
0.164157 0.360845 0.263066
0.246830 0.363394 0.265919
0.328756 0.365728 0.267384
0.432136 0.368246 0.269902
0.576532 0.370733 0.270909
0.764996 0.373449 0.275105
0.034699 0.456504 0.262333
0.088518 0.457771 0.263493
0.169101 0.460227 0.265858
0.251667 0.462928 0.268467
0.333440 0.465766 0.271748
0.436164 0.468132 0.272938
0.580591 0.470558 0.274479
0.767041 0.473045 0.278660
0.023850 0.595651 0.266972
0.082643 0.596735 0.268345
0.174960 0.599023 0.271305
0.256367 0.601160 0.272511
0.338491 0.603159 0.274586
0.440620 0.605737 0.279408
0.584985 0.607828 0.278965
0.768963 0.609751 0.278935
0.065217 0.772778 0.271962
0.098741 0.773083 0.272511
0.181216 0.774197 0.273899
0.261616 0.775311 0.274891
0.342794 0.776303 0.274998
0.444236 0.777264 0.273106
0.588266 0.778317 0.277180
0.770871 0.779263 0.283284
0.000000 0.000198 0.338201
0.028153 0.000397 0.338903
0.142367 0.000000 0.339941
0.231037 0.001755 0.341207
0.314366 0.004883 0.342367
0.417273 0.018174 0.344274
0.562753 0.012299 0.345220
0.757946 0.040864 0.346883
0.000397 0.080400 0.339971
0.037125 0.083101 0.340856
0.147326 0.087861 0.342077
0.234394 0.092897 0.343389
0.317693 0.097719 0.344823
0.420356 0.102342 0.346227
0.566156 0.108080 0.347387
0.759167 0.112673 0.348821
0.003326 0.191745 0.342596
0.046006 0.194019 0.343526
0.152819 0.197711 0.344930
0.238514 0.200641 0.346166
0.321157 0.204242 0.347463
0.424048 0.208057 0.348745
0.569940 0.211749 0.350240
0.761379 0.215290 0.351904
0.011872 0.276829 0.344747
0.058030 0.278492 0.345708
0.158709 0.281224 0.347280
0.242924 0.283742 0.348714
0.325216 0.286473 0.350286
0.428870 0.289281 0.352010
0.573800 0.291997 0.353384
0.763088 0.294759 0.354681
0.006836 0.357794 0.347707
0.061509 0.359075 0.348455
0.164675 0.361730 0.350103
0.247578 0.364279 0.351675
0.329915 0.366583 0.353033
0.432837 0.369253 0.354604
0.577768 0.371664 0.356497
0.765271 0.374411 0.357763
0.049851 0.457878 0.350683
0.089830 0.458946 0.351385
0.169635 0.461067 0.352728
0.252461 0.464012 0.354406
0.334157 0.466728 0.356069
0.436652 0.469032 0.357488
0.581537 0.471489 0.358984
0.767254 0.473900 0.360617
0.037720 0.596307 0.353307
0.087968 0.597376 0.353933
0.177859 0.599954 0.355734
0.257481 0.602014 0.357061
0.339086 0.604059 0.358511
0.441444 0.606546 0.360220
0.585657 0.608591 0.361975
0.769146 0.610498 0.363256
0.052140 0.772870 0.356405
0.089830 0.773282 0.356924
0.182254 0.774685 0.358709
0.262226 0.775799 0.360296
0.343526 0.776684 0.361883
0.445975 0.777585 0.363424
0.588632 0.778714 0.364324
0.771038 0.779599 0.364950
0.000397 0.000000 0.408331
0.030488 0.000000 0.408789
0.143420 0.000198 0.409552
0.231617 0.003708 0.410330
0.315236 0.010208 0.411307
0.418036 0.012711 0.412161
0.564065 0.021897 0.413230
0.758373 0.032074 0.414298
0.000977 0.081010 0.409552
0.039094 0.084138 0.410117
0.148196 0.090043 0.410971
0.235294 0.094362 0.411795
0.318044 0.099611 0.412741
0.420981 0.104997 0.413718
0.566857 0.108904 0.414756
0.759548 0.115084 0.415839
0.003525 0.193133 0.411154
0.047105 0.195254 0.411765
0.153597 0.198673 0.412696
0.239292 0.201846 0.413687
0.322026 0.205615 0.414740
0.424613 0.209278 0.415824
0.570047 0.212787 0.416861
0.761593 0.216388 0.417884
0.010208 0.277821 0.413016
0.057710 0.279469 0.413626
0.159457 0.282170 0.414740
0.243702 0.284779 0.415793
0.326146 0.287419 0.416800
0.429175 0.290227 0.417899
0.574716 0.293004 0.418921
0.763775 0.295811 0.420005
0.030304 0.358633 0.415030
0.076005 0.359991 0.415580
0.165576 0.362676 0.416693
0.248478 0.365209 0.417868
0.330724 0.367453 0.418860
0.433448 0.370123 0.419989
0.578851 0.372595 0.421073
0.765576 0.375296 0.422126
0.028351 0.458564 0.417334
0.070817 0.459525 0.417731
0.171756 0.462059 0.418860
0.253452 0.464973 0.419944
0.334936 0.467689 0.421042
0.438071 0.469902 0.422049
0.582422 0.472511 0.423072
0.767514 0.474876 0.424140
0.062226 0.597711 0.419532
0.104234 0.598627 0.420035
0.178607 0.600763 0.421012
0.258320 0.602701 0.422080
0.339757 0.604944 0.423117
0.442557 0.607416 0.424109
0.585672 0.609201 0.425055
0.769421 0.611109 0.425956
0.059602 0.773343 0.421622
0.104799 0.773907 0.422065
0.182574 0.774975 0.423072
0.263020 0.776059 0.424109
0.343755 0.777066 0.425071
0.447318 0.777920 0.425925
0.589212 0.779019 0.426871
0.771328 0.779828 0.427604
0.004501 0.001556 0.473732
0.036713 0.000000 0.474159
0.144534 0.000000 0.474769
0.232487 0.004685 0.475609
0.316030 0.011673 0.476387
0.417685 0.013092 0.477119
0.564691 0.036713 0.478370
0.758404 0.017792 0.478904
0.003906 0.083452 0.474907
0.043793 0.086397 0.475319
0.149340 0.091463 0.476066
0.235828 0.096483 0.476860
0.319097 0.101274 0.477699
0.421332 0.106889 0.478599
0.566812 0.109087 0.479469
0.759777 0.118425 0.480339
0.008408 0.194766 0.476387
0.047623 0.196674 0.476844
0.154711 0.199710 0.477714
0.240162 0.203372 0.478584
0.322545 0.206638 0.479469
0.425849 0.210452 0.480400
0.571252 0.214252 0.481346
0.761898 0.217624 0.482277
0.012085 0.278965 0.478065
0.059281 0.280324 0.478553
0.160967 0.283131 0.479500
0.244724 0.285725 0.480385
0.326864 0.288426 0.481315
0.429999 0.291234 0.482216
0.574807 0.293919 0.483116
0.764157 0.296819 0.483986
0.017014 0.359472 0.479576
0.076616 0.360906 0.480095
0.166796 0.363623 0.481102
0.249455 0.366110 0.482017
0.330892 0.368322 0.482948
0.434394 0.371023 0.483925
0.579583 0.373404 0.484947
0.766232 0.376150 0.485939
0.056931 0.459358 0.481758
0.097093 0.460487 0.482185
0.172503 0.463142 0.483131
0.254307 0.465950 0.484077
0.335790 0.468574 0.484978
0.439078 0.470619 0.485939
0.582956 0.473472 0.486824
0.768231 0.475715 0.487648
0.053437 0.598413 0.483558
0.090150 0.599252 0.483879
0.177112 0.601236 0.484810
0.258961 0.603326 0.485802
0.339864 0.605814 0.486748
0.443214 0.608225 0.487709
0.586709 0.609888 0.488594
0.769848 0.611917 0.489357
0.078813 0.773983 0.485496
0.115267 0.774411 0.485847
0.184863 0.775418 0.486671
0.263493 0.776394 0.487572
0.344091 0.777432 0.488380
0.448310 0.778271 0.489159
0.590402 0.779355 0.490013
0.771313 0.780102 0.490822
0.002731 0.003128 0.552926
0.045274 0.000198 0.553307
0.145571 0.004105 0.553979
0.233127 0.004685 0.554620
0.316289 0.013092 0.555322
0.419608 0.021302 0.556146
0.565789 0.028351 0.556832
0.758709 0.021500 0.557702
0.011246 0.085496 0.554009
0.044541 0.088197 0.554391
0.150210 0.093095 0.555108
0.236851 0.097719 0.555840
0.319783 0.103029 0.556558
0.422263 0.106798 0.557244
0.568399 0.112673 0.558084
0.760571 0.120317 0.559121
0.012085 0.195163 0.555139
0.061509 0.197269 0.555627
0.156008 0.200931 0.556466
0.241108 0.204715 0.557244
0.323644 0.208347 0.558068
0.426429 0.211612 0.559045
0.571908 0.215152 0.560098
0.762387 0.218921 0.561166
0.027955 0.280079 0.556909
0.062226 0.281392 0.557351
0.161975 0.284062 0.558267
0.245701 0.286732 0.559152
0.328008 0.289448 0.560174
0.430793 0.292149 0.561151
0.576227 0.295018 0.562127
0.764447 0.297688 0.563119
0.020325 0.360800 0.558907
0.067308 0.361852 0.559289
0.168261 0.364447 0.560266
0.250401 0.366934 0.561227
0.332387 0.369314 0.562158
0.434913 0.372000 0.563012
0.579828 0.374319 0.563928
0.766491 0.376837 0.564721
0.031083 0.459815 0.560281
0.091234 0.461189 0.560784
0.174685 0.464302 0.561837
0.255238 0.466941 0.562676
0.336599 0.469490 0.563485
0.438727 0.471260 0.564309
0.583688 0.474342 0.565454
0.768582 0.476326 0.566506
0.073793 0.599252 0.562661
0.108995 0.600046 0.563027
0.180087 0.602045 0.563912
0.260090 0.604166 0.564828
0.341360 0.606668 0.565789
0.443885 0.608835 0.566598
0.587839 0.610422 0.567453
0.770199 0.612741 0.568185
0.067735 0.774212 0.564050
0.107530 0.774624 0.564385
0.184161 0.775677 0.565301
0.264836 0.776806 0.566339
0.346044 0.777691 0.567208
0.447379 0.778790 0.567987
0.590951 0.779660 0.568811
0.771664 0.780499 0.569558
0.008209 0.002731 0.662501
0.045640 0.006058 0.662776
0.146441 0.000000 0.663417
0.234272 0.008606 0.664073
0.317464 0.018769 0.664851
0.420295 0.019348 0.665461
0.565332 0.023072 0.666026
0.759274 0.052461 0.666987
0.008789 0.087175 0.663417
0.053773 0.090043 0.663768
0.151125 0.095216 0.664439
0.237522 0.100298 0.665141
0.320531 0.104601 0.665797
0.423346 0.110094 0.666514
0.568963 0.116808 0.667262
0.760571 0.119509 0.667872
0.002548 0.196567 0.664607
0.056001 0.198428 0.664988
0.157198 0.202747 0.665812
0.241947 0.205814 0.666484
0.324590 0.209613 0.667277
0.426902 0.213016 0.667979
0.573053 0.216831 0.668696
0.762814 0.220157 0.669352
0.003128 0.280919 0.665950
0.059754 0.282139 0.666255
0.163317 0.285039 0.667109
0.246479 0.287709 0.667826
0.329168 0.290486 0.668589
0.431922 0.293156 0.669307
0.576120 0.295934 0.670024
0.765164 0.298863 0.670924
0.042695 0.361608 0.667186
0.080522 0.362676 0.667536
0.168322 0.365301 0.668421
0.251255 0.367651 0.669307
0.333318 0.370306 0.670176
0.436378 0.372839 0.671092
0.580865 0.375448 0.671916
0.766949 0.377783 0.672786
0.029908 0.461418 0.669200
0.077470 0.462486 0.669535
0.174853 0.465293 0.670405
0.256046 0.467872 0.671244
0.337408 0.470115 0.672068
0.440772 0.472465 0.672847
0.584253 0.475303 0.673549
0.768673 0.477073 0.674296
0.053269 0.599359 0.670512
0.104143 0.600259 0.670848
0.181003 0.602701 0.671748
0.260884 0.605234 0.672572
0.341894 0.607523 0.673228
0.444541 0.609628 0.673884
0.587106 0.610895 0.674632
0.770398 0.613367 0.675425
0.089616 0.774914 0.672572
0.118425 0.775219 0.672816
0.187198 0.776135 0.673503
0.265065 0.777142 0.674312
0.345342 0.777997 0.675074
0.449180 0.779080 0.675685
0.591348 0.779950 0.676265
0.772305 0.780758 0.676844
0.020523 0.000397 0.803540
0.059129 0.008011 0.803708
0.147326 0.002930 0.804044
0.234852 0.014664 0.804334
0.318044 0.019547 0.804669
0.420691 0.018769 0.805036
0.567041 0.043977 0.805539
0.759884 0.045640 0.805921
0.025803 0.089174 0.804044
0.054414 0.091356 0.804196
0.152422 0.097520 0.804593
0.238392 0.101961 0.804883
0.321157 0.107439 0.805280
0.424079 0.111437 0.805631
0.569253 0.115175 0.806012
0.761044 0.122927 0.806424
0.021118 0.198138 0.804639
0.069780 0.199817 0.804837
0.158038 0.203616 0.805264
0.242847 0.207324 0.805646
0.325353 0.210681 0.806058
0.428306 0.214389 0.806455
0.573694 0.218570 0.806851
0.763272 0.222126 0.807263
0.021118 0.281834 0.805402
0.066331 0.283024 0.805554
0.163561 0.285893 0.805997
0.247379 0.288731 0.806455
0.329641 0.291493 0.806851
0.432868 0.294194 0.807248
0.577325 0.297017 0.807614
0.765179 0.299733 0.807996
0.042878 0.362722 0.806195
0.074662 0.363623 0.806348
0.168856 0.365957 0.806775
0.252049 0.368689 0.807187
0.334066 0.371313 0.807569
0.437781 0.373648 0.807965
0.581659 0.376272 0.808331
0.767239 0.378744 0.808682
0.043427 0.462089 0.806821
0.086275 0.463142 0.806973
0.176700 0.466346 0.807508
0.257160 0.468742 0.807904
0.339025 0.470756 0.808301
0.441520 0.473564 0.808682
0.585535 0.475959 0.809125
0.769406 0.478325 0.809491
0.036316 0.600183 0.807797
0.090806 0.601175 0.807919
0.179599 0.603525 0.808362
0.261860 0.606149 0.808759
0.342901 0.608393 0.809125
0.445487 0.610117 0.809506
0.589059 0.611887 0.809827
0.770779 0.614023 0.810117
0.074540 0.775006 0.808499
0.118425 0.775387 0.808667
0.188968 0.776425 0.809018
0.265919 0.777401 0.809400
0.347204 0.778454 0.809766
0.449485 0.779431 0.810071
0.591653 0.780346 0.810361
0.771832 0.780942 0.810544
