content/luts/atmosphere/atmosphere_04.cube
#Created by: inPixio
#Copyright: (C) Copyright 2022 inPixio
TITLE "Atmosphere 4"
#LUT size
LUT_3D_SIZE 5
#data domain
#LUT data points
DOMAIN_MIN 0.000000 0.000000 0.000000
DOMAIN_MAX 0.903226 0.903226 0.903226
0.000000 0.000000 0.120150
0.115526 0.000000 0.130831
0.270710 0.003326 0.132189
0.447257 0.008209 0.148867
0.757137 0.045457 0.153140
0.001373 0.164447 0.134066
0.124300 0.169909 0.137591
0.276463 0.176349 0.152880
0.453086 0.182528 0.158343
0.760098 0.189487 0.167498
0.008209 0.314656 0.160769
0.135454 0.318181 0.161654
0.283681 0.322454 0.163806
0.460838 0.326879 0.178348
0.763775 0.331563 0.184924
0.025223 0.486687 0.183017
0.145769 0.489448 0.188708
0.291707 0.494011 0.191699
0.468757 0.498405 0.192310
0.767086 0.503044 0.202640
0.071336 0.772534 0.200931
0.158038 0.773556 0.203418
0.299611 0.775570 0.208118
0.477134 0.777295 0.214511
0.770459 0.779110 0.214694
0.000000 0.000000 0.317784
0.116808 0.000000 0.319295
0.271794 0.005280 0.321889
0.447898 0.007630 0.324285
0.757839 0.042329 0.327520
0.000977 0.166430 0.321767
0.126391 0.172396 0.324086
0.277821 0.178607 0.326406
0.454536 0.185077 0.329152
0.760800 0.192111 0.332387
0.025803 0.316564 0.327153
0.137591 0.319585 0.329152
0.285008 0.323812 0.331762
0.461952 0.328359 0.334905
0.764462 0.333013 0.338064
0.013291 0.487221 0.332387
0.149813 0.490654 0.334829
0.292775 0.495338 0.337942
0.469291 0.499748 0.340200
0.767636 0.504341 0.343221
0.052781 0.772900 0.338308
0.158587 0.774167 0.339986
0.300496 0.776059 0.342489
0.477836 0.777768 0.344503
0.770993 0.779538 0.347814
0.003525 0.000000 0.440406
0.118608 0.000000 0.441352
0.272831 0.004105 0.442664
0.449943 0.016815 0.444251
0.758389 0.025605 0.445762
0.004685 0.169451 0.442725
0.128420 0.174167 0.443870
0.278996 0.180835 0.445396
0.455375 0.187823 0.447028
0.761120 0.194522 0.448646
0.021500 0.317952 0.445594
0.139712 0.321157 0.446830
0.286229 0.325353 0.448508
0.463264 0.329961 0.450340
0.765011 0.334615 0.452110
0.056779 0.489738 0.449149
0.148928 0.491981 0.450111
0.294545 0.497108 0.451957
0.471321 0.501198 0.453727
0.768368 0.505638 0.455436
0.074403 0.773632 0.452552
0.163684 0.774868 0.453605
0.302358 0.776745 0.455421
0.478111 0.778363 0.456901
0.771450 0.779980 0.458228
0.008209 0.001755 0.577020
0.120714 0.003906 0.577829
0.274311 0.011048 0.579126
0.451392 0.018372 0.580301
0.759045 0.028733 0.581613
0.017014 0.171527 0.578973
0.129992 0.176638 0.579980
0.280415 0.183398 0.581338
0.456962 0.189944 0.582742
0.762188 0.197559 0.584421
0.021698 0.319387 0.581689
0.141665 0.322637 0.582849
0.287877 0.327138 0.584558
0.464332 0.331563 0.586191
0.765637 0.336263 0.587793
0.025406 0.490822 0.584817
0.151385 0.493767 0.585855
0.296010 0.498802 0.587457
0.471473 0.502403 0.588815
0.768765 0.506935 0.590570
0.051484 0.774258 0.587945
0.159701 0.775418 0.588861
0.303059 0.777371 0.590478
0.480400 0.779065 0.591760
0.771862 0.780575 0.593042
0.020523 0.000397 0.803540
0.122438 0.004501 0.803922
0.275670 0.014862 0.804562
0.452552 0.036118 0.805280
0.759884 0.045640 0.805921
0.012085 0.174044 0.804562
0.132570 0.178729 0.805005
0.281834 0.185840 0.805615
0.458869 0.192569 0.806348
0.762600 0.199466 0.807034
0.025025 0.320760 0.805798
0.143633 0.324193 0.806333
0.289479 0.328786 0.807034
0.466621 0.333288 0.807706
0.766415 0.337804 0.808347
0.073915 0.493248 0.807172
0.155489 0.495918 0.807599
0.297536 0.500343 0.808347
0.473259 0.504356 0.808988
0.769558 0.508034 0.809674
0.074540 0.775006 0.808499
0.170031 0.776074 0.808896
0.304677 0.777874 0.809628
0.481300 0.779599 0.810147
0.771832 0.780942 0.810544
