content/luts/atmosphere/atmosphere_02.cube
#Created by: inPixio
#Copyright: (C) Copyright 2022 inPixio
TITLE "Atmosphere 2"
#LUT size
LUT_3D_SIZE 32
#data domain
DOMAIN_MIN 0.0 0.0 0.0
DOMAIN_MAX 1.0 1.0 1.0
#LUT data points
0.078325 0.078325 0.078325
0.089067 0.079423 0.078080
0.102937 0.080644 0.077714
0.130755 0.082994 0.076371
0.170840 0.084947 0.073915
0.214923 0.087968 0.069902
0.262440 0.093095 0.063523
0.314397 0.103304 0.049348
0.378882 0.112062 0.021500
0.446616 0.127565 0.004105
0.518334 0.144610 0.000000
0.591547 0.160327 0.000000
0.654353 0.180514 0.000000
0.709148 0.193393 0.000000
0.756451 0.205188 0.000000
0.795453 0.218616 0.000000
0.828580 0.222644 0.000000
0.855131 0.232929 0.000000
0.878355 0.239200 0.000000
0.899413 0.242176 0.000000
0.916930 0.251743 0.000198
0.932952 0.251362 0.000000
0.946883 0.256184 0.000000
0.959197 0.260807 0.000000
0.970672 0.259403 0.000000
0.979538 0.263996 0.000000
0.987793 0.261616 0.000000
0.994705 0.259907 0.000000
0.999435 0.261860 0.000000
0.999893 0.252354 0.000000
1.000000 0.251789 0.000000
1.000000 0.248631 0.000000
0.081132 0.087633 0.078447
0.088518 0.086732 0.078691
0.105196 0.087968 0.077836
0.129427 0.090700 0.076371
0.167971 0.094469 0.073793
0.212253 0.098924 0.069383
0.260746 0.104418 0.062654
0.312276 0.112673 0.047959
0.374334 0.124468 0.017014
0.444236 0.137224 0.002548
0.516167 0.153399 0.000000
0.587442 0.172854 0.000000
0.653864 0.186191 0.000000
0.707301 0.202503 0.000000
0.754513 0.213611 0.000198
0.794675 0.221515 0.000198
0.827253 0.232807 0.000000
0.854856 0.236317 0.000000
0.877913 0.242496 0.000000
0.898405 0.249683 0.000198
0.916747 0.254353 0.000000
0.932448 0.256901 0.000000
0.946716 0.258701 0.000000
0.958999 0.262837 0.000000
0.970184 0.265095 0.000000
0.979461 0.266026 0.000000
0.987640 0.263356 0.000000
0.994675 0.262196 0.000198
0.999313 0.263417 0.000198
0.999878 0.256550 0.000000
1.000000 0.253636 0.000000
1.000000 0.250202 0.000000
0.077714 0.101671 0.077836
0.087968 0.100588 0.077836
0.102937 0.098924 0.077836
0.130144 0.101076 0.076005
0.164324 0.107073 0.073045
0.207645 0.113802 0.067582
0.255863 0.120241 0.059907
0.309255 0.128191 0.042329
0.369863 0.138445 0.012085
0.438422 0.153933 0.002152
0.511223 0.169513 0.000198
0.583825 0.185077 0.000000
0.649134 0.202930 0.000000
0.705135 0.214344 0.000000
0.751965 0.224155 0.000198
0.792996 0.232242 0.000000
0.825940 0.243595 0.000000
0.853483 0.245274 0.000000
0.876829 0.251896 0.000000
0.897322 0.258000 0.000000
0.916533 0.257084 0.000198
0.931746 0.264881 0.000000
0.946014 0.265568 0.000000
0.958694 0.266377 0.000000
0.969650 0.271382 0.000000
0.979339 0.268391 0.000000
0.987350 0.268879 0.000198
0.994324 0.267735 0.000198
0.999191 0.265171 0.000198
0.999908 0.261967 0.000198
1.000000 0.255711 0.000000
1.000000 0.252094 0.000000
0.076005 0.126558 0.074784
0.085054 0.126009 0.074403
0.101274 0.124804 0.074281
0.126482 0.121294 0.074281
0.159518 0.123003 0.071992
0.199115 0.130617 0.066743
0.247471 0.140154 0.055528
0.300588 0.150210 0.034104
0.360571 0.162463 0.006836
0.430686 0.176120 0.001556
0.502678 0.193240 0.000000
0.574975 0.209751 0.000000
0.642725 0.225635 0.000000
0.699397 0.234928 0.000198
0.747921 0.244877 0.000000
0.788388 0.253178 0.000000
0.824079 0.257160 0.000000
0.850813 0.263279 0.000000
0.874968 0.265782 0.000000
0.895827 0.269032 0.000000
0.914672 0.272099 0.000000
0.930755 0.275731 0.000000
0.945052 0.275273 0.000198
0.957992 0.276005 0.000000
0.968872 0.280049 0.000198
0.978760 0.275731 0.000198
0.986862 0.277318 0.000198
0.993835 0.275380 0.000198
0.999100 0.269871 0.000198
0.999939 0.269490 0.000000
1.000000 0.261723 0.000000
1.000000 0.258778 0.000198
0.066743 0.157656 0.068284
0.082292 0.157015 0.067735
0.099321 0.156191 0.067170
0.122194 0.153475 0.067445
0.150149 0.145373 0.069902
0.184970 0.145159 0.066880
0.230533 0.156191 0.054902
0.286030 0.171939 0.027558
0.346273 0.186877 0.007813
0.414298 0.204395 0.000580
0.489326 0.222217 0.000000
0.562341 0.238956 0.000000
0.631357 0.254154 0.000000
0.691432 0.266102 0.000000
0.740429 0.272908 0.000000
0.782818 0.278584 0.000000
0.818280 0.283452 0.000000
0.847471 0.285924 0.000000
0.871443 0.287511 0.000198
0.893385 0.288853 0.000000
0.912093 0.291646 0.000198
0.929046 0.291127 0.000000
0.943481 0.292241 0.000000
0.956420 0.292088 0.000000
0.967926 0.290868 0.000000
0.977752 0.290684 0.000000
0.986267 0.287877 0.000000
0.993164 0.285328 0.000000
0.998596 0.281788 0.000198
1.000000 0.279103 0.000000
1.000000 0.271382 0.000000
1.000000 0.267918 0.000000
0.060639 0.190570 0.056306
0.073793 0.190250 0.056001
0.094041 0.189334 0.055375
0.121447 0.187411 0.054414
0.149752 0.182467 0.055222
0.173190 0.168734 0.064942
0.205432 0.163928 0.066331
0.260639 0.182696 0.039689
0.323537 0.204944 0.008988
0.391806 0.226108 0.001175
0.469810 0.251408 0.000000
0.545235 0.269902 0.000198
0.615869 0.285832 0.000198
0.679652 0.298405 0.000198
0.731106 0.305791 0.000198
0.774075 0.309957 0.000000
0.811185 0.312657 0.000000
0.841794 0.314565 0.000000
0.867201 0.314855 0.000000
0.889006 0.314931 0.000000
0.909102 0.314153 0.000000
0.926314 0.314366 0.000198
0.941436 0.312429 0.000198
0.954467 0.311345 0.000198
0.966308 0.309697 0.000000
0.976516 0.308110 0.000198
0.985016 0.304616 0.000000
0.992477 0.300984 0.000198
0.997665 0.297047 0.000000
0.999985 0.291035 0.000000
1.000000 0.285466 0.000000
1.000000 0.280919 0.000000
0.053773 0.224750 0.040269
0.069902 0.224491 0.039292
0.087297 0.224064 0.038514
0.115618 0.222431 0.037125
0.149554 0.218387 0.035111
0.179538 0.210590 0.038712
0.196674 0.190723 0.057557
0.221256 0.178988 0.067445
0.284718 0.204242 0.033890
0.358190 0.235996 0.002731
0.435981 0.264408 0.001373
0.522179 0.297383 0.000000
0.595377 0.315526 0.000000
0.662699 0.330694 0.000000
0.718044 0.339056 0.000000
0.764004 0.343725 0.000198
0.801999 0.345419 0.000198
0.834745 0.345861 0.000000
0.861051 0.345037 0.000198
0.884352 0.343313 0.000000
0.904570 0.341756 0.000000
0.923034 0.339376 0.000000
0.938399 0.337194 0.000000
0.952285 0.334020 0.000000
0.964065 0.331518 0.000198
0.974823 0.328145 0.000198
0.983627 0.324559 0.000000
0.991257 0.319738 0.000198
0.996811 0.314595 0.000198
0.999786 0.308660 0.000000
1.000000 0.301656 0.000000
1.000000 0.296986 0.000000
0.034302 0.261067 0.016617
0.053605 0.260990 0.016037
0.082521 0.260563 0.014862
0.113115 0.260060 0.013291
0.147128 0.257298 0.011246
0.181170 0.249378 0.009583
0.210910 0.237888 0.013092
0.218708 0.211048 0.049165
0.230991 0.188510 0.073793
0.307500 0.224537 0.043244
0.389654 0.264210 0.003525
0.476753 0.300588 0.001953
0.570321 0.341787 0.000000
0.640024 0.358923 0.000000
0.702754 0.372580 0.000000
0.750546 0.377218 0.000198
0.791470 0.379156 0.000198
0.825238 0.378836 0.000000
0.854246 0.377157 0.000000
0.877867 0.374197 0.000198
0.899596 0.370901 0.000000
0.918395 0.367666 0.000000
0.935103 0.363775 0.000000
0.948943 0.359945 0.000000
0.961685 0.355367 0.000198
0.972458 0.351476 0.000198
0.981903 0.346243 0.000198
0.989746 0.340993 0.000000
0.996109 0.334829 0.000198
0.999512 0.328115 0.000000
0.999954 0.320562 0.000000
1.000000 0.314855 0.000000
0.006836 0.300710 0.001755
0.032685 0.300496 0.001373
0.067308 0.300343 0.000977
0.103212 0.299947 0.000580
0.144396 0.299245 0.000000
0.181216 0.294896 0.000000
0.214969 0.283803 0.001175
0.242695 0.267384 0.006455
0.245029 0.235493 0.050340
0.244526 0.201907 0.079789
0.329229 0.244251 0.048646
0.418036 0.290364 0.002548
0.512764 0.333883 0.000000
0.611368 0.381109 0.000000
0.676234 0.396826 0.000000
0.736660 0.411383 0.000000
0.777676 0.412467 0.000000
0.814633 0.412085 0.000198
0.844877 0.409598 0.000198
0.871107 0.405905 0.000198
0.893065 0.401694 0.000198
0.913253 0.397025 0.000198
0.930633 0.392645 0.000000
0.945617 0.387259 0.000000
0.958297 0.382025 0.000000
0.969955 0.376104 0.000000
0.979782 0.370642 0.000000
0.988067 0.363973 0.000000
0.994431 0.357198 0.000000
0.999085 0.349279 0.000000
1.000000 0.341207 0.000198
1.000000 0.334829 0.000198
0.020325 0.344015 0.000580
0.039292 0.343877 0.000580
0.057710 0.343801 0.000580
0.096895 0.343496 0.000198
0.140154 0.343023 0.000000
0.181766 0.342031 0.000000
0.220249 0.337301 0.000397
0.250355 0.319966 0.000778
0.276173 0.297353 0.000977
0.274617 0.262944 0.043244
0.269841 0.225757 0.072129
0.351217 0.264988 0.048997
0.441505 0.312245 0.002930
0.541131 0.361364 0.000000
0.642985 0.412192 0.000000
0.705013 0.428031 0.000000
0.764111 0.444938 0.000000
0.800946 0.444175 0.000000
0.834623 0.442039 0.000000
0.862181 0.438300 0.000000
0.886336 0.433310 0.000000
0.906706 0.428016 0.000000
0.925490 0.422080 0.000198
0.941222 0.416053 0.000000
0.955001 0.409293 0.000000
0.966659 0.402747 0.000000
0.977264 0.395789 0.000000
0.985916 0.388968 0.000000
0.993439 0.380469 0.000000
0.997742 0.372152 0.000000
0.999970 0.363180 0.000000
1.000000 0.355688 0.000000
0.043793 0.390585 0.000000
0.058808 0.390509 0.000000
0.073548 0.390539 0.000000
0.101869 0.390234 0.000000
0.136553 0.389883 0.000000
0.179965 0.389166 0.000000
0.222477 0.386969 0.000000
0.260700 0.379355 0.000000
0.288029 0.356893 0.000778
0.308324 0.328313 0.000778
0.306020 0.291966 0.041230
0.300008 0.254200 0.069505
0.372244 0.285039 0.047440
0.462974 0.332555 0.007233
0.561837 0.381994 0.000000
0.662806 0.433051 0.000000
0.727108 0.454170 0.000000
0.786160 0.475120 0.000000
0.820676 0.473900 0.000198
0.852323 0.470436 0.000000
0.877455 0.465034 0.000000
0.900176 0.458747 0.000000
0.919142 0.452262 0.000000
0.936553 0.445258 0.000000
0.950652 0.438041 0.000000
0.963378 0.430152 0.000000
0.974044 0.422782 0.000198
0.983642 0.414756 0.000000
0.991272 0.405737 0.000198
0.997375 0.396094 0.000000
0.999741 0.386801 0.000000
1.000000 0.377691 0.000198
0.000000 0.440040 0.000000
0.029328 0.439887 0.000198
0.061799 0.439719 0.000198
0.097200 0.439506 0.000198
0.133104 0.439277 0.000000
0.178454 0.438727 0.000000
0.222568 0.436301 0.000000
0.264103 0.430778 0.000000
0.303426 0.420523 0.000000
0.324788 0.392721 0.000198
0.340047 0.359045 0.000000
0.337591 0.321569 0.030488
0.327108 0.279851 0.059434
0.388647 0.301534 0.048142
0.479561 0.348928 0.009583
0.578637 0.399847 0.000198
0.678416 0.450721 0.000000
0.745968 0.477150 0.000000
0.802335 0.497780 0.000000
0.837400 0.498299 0.000000
0.867781 0.495552 0.000000
0.891493 0.489830 0.000000
0.912642 0.482628 0.000000
0.930236 0.475334 0.000000
0.946227 0.467308 0.000000
0.959075 0.458885 0.000198
0.970840 0.449897 0.000000
0.980621 0.441321 0.000000
0.989120 0.431434 0.000198
0.995239 0.421454 0.000000
0.999435 0.410834 0.000000
1.000000 0.401572 0.000000
0.000000 0.490562 0.000198
0.006455 0.490517 0.000000
0.023850 0.490425 0.000198
0.066743 0.490227 0.000198
0.124804 0.489799 0.000000
0.172900 0.489326 0.000000
0.221180 0.488640 0.000198
0.266316 0.484337 0.000000
0.307652 0.475609 0.000000
0.344198 0.459510 0.000000
0.362951 0.428718 0.000000
0.373190 0.391043 0.000000
0.368521 0.349950 0.028351
0.354009 0.305287 0.054414
0.403601 0.316457 0.043244
0.497261 0.366156 0.011460
0.593683 0.416159 0.000000
0.690806 0.465843 0.000000
0.760205 0.495445 0.000000
0.814069 0.514992 0.000000
0.850858 0.519371 0.000198
0.881376 0.518807 0.000198
0.904219 0.513268 0.000000
0.923888 0.505058 0.000000
0.940383 0.496605 0.000000
0.954788 0.487312 0.000000
0.966644 0.478035 0.000000
0.977478 0.468269 0.000000
0.986450 0.458381 0.000000
0.993866 0.447105 0.000000
0.997711 0.436088 0.000000
0.999970 0.426871 0.000000
0.041413 0.540108 0.000000
0.054093 0.540032 0.000198
0.067170 0.539849 0.000000
0.082414 0.539712 0.000000
0.112230 0.539376 0.000000
0.162646 0.538766 0.000198
0.215335 0.537911 0.000000
0.264347 0.536934 0.000000
0.309896 0.532067 0.000000
0.348287 0.517220 0.000000
0.383246 0.496452 0.000000
0.399268 0.463249 0.000000
0.405997 0.422309 0.000000
0.399069 0.378561 0.018570
0.378088 0.328084 0.040070
0.414893 0.328588 0.037919
0.508476 0.378378 0.012299
0.606058 0.430365 0.000000
0.701534 0.479408 0.000198
0.773358 0.511727 0.000198
0.825025 0.530434 0.000000
0.863142 0.537636 0.000198
0.893462 0.539651 0.000000
0.915908 0.534646 0.000000
0.934127 0.525811 0.000000
0.949523 0.516640 0.000000
0.962524 0.506462 0.000198
0.973510 0.496193 0.000000
0.983475 0.485267 0.000000
0.991424 0.473732 0.000198
0.997269 0.461723 0.000000
0.999558 0.453544 0.000000
0.017594 0.586648 0.000198
0.046189 0.586435 0.000000
0.071733 0.586130 0.000000
0.098543 0.585794 0.000000
0.126391 0.585367 0.000000
0.159640 0.584772 0.000198
0.208393 0.583886 0.000000
0.259876 0.582727 0.000198
0.307775 0.581430 0.000000
0.352956 0.577920 0.000000
0.389807 0.558419 0.000198
0.420584 0.531762 0.000000
0.435569 0.495796 0.000000
0.438621 0.453071 0.000000
0.429709 0.406424 0.014664
0.400885 0.349828 0.035508
0.421820 0.336599 0.034913
0.521263 0.391791 0.015641
0.618204 0.444038 0.000000
0.711818 0.492317 0.000000
0.785321 0.526696 0.000000
0.835081 0.544411 0.000000
0.874205 0.553979 0.000000
0.904021 0.558038 0.000000
0.926177 0.553857 0.000000
0.943236 0.544671 0.000000
0.957778 0.535226 0.000000
0.969680 0.523980 0.000000
0.979797 0.512718 0.000198
0.988830 0.500542 0.000000
0.995285 0.488121 0.000000
0.999023 0.479393 0.000000
0.000397 0.628489 0.000198
0.000000 0.628473 0.000198
0.000397 0.628351 0.000198
0.022675 0.628077 0.000198
0.100877 0.627421 0.000000
0.155428 0.626627 0.000000
0.203037 0.625666 0.000198
0.252277 0.624506 0.000000
0.301473 0.622980 0.000000
0.348180 0.621195 0.000198
0.393378 0.617365 0.000000
0.426139 0.592187 0.000198
0.455634 0.563882 0.000000
0.469581 0.527321 0.000000
0.471199 0.483681 0.000000
0.460105 0.434653 0.009796
0.426246 0.373343 0.032883
0.432105 0.347463 0.039887
0.531746 0.403067 0.015244
0.631006 0.458106 0.000000
0.722423 0.505272 0.000000
0.797330 0.541116 0.000000
0.844968 0.557626 0.000198
0.884520 0.568414 0.000000
0.912581 0.572442 0.000000
0.935088 0.570184 0.000198
0.951583 0.561776 0.000000
0.965316 0.552361 0.000000
0.976196 0.540276 0.000000
0.985458 0.527703 0.000000
0.993378 0.514702 0.000198
0.997589 0.505455 0.000000
0.019165 0.665751 0.000198
0.022477 0.665614 0.000198
0.030884 0.665415 0.000198
0.045640 0.665171 0.000198
0.061646 0.664851 0.000198
0.108446 0.664210 0.000000
0.180682 0.663066 0.000000
0.239200 0.661708 0.000198
0.291554 0.660151 0.000000
0.339696 0.657649 0.000000
0.385473 0.653376 0.000198
0.428306 0.645441 0.000000
0.461296 0.621286 0.000000
0.488121 0.592248 0.000000
0.503151 0.556802 0.000000
0.502236 0.512398 0.000198
0.491600 0.462928 0.008011
0.455787 0.400687 0.019165
0.446647 0.361624 0.019348
0.546975 0.418341 0.007813
0.644221 0.472267 0.000000
0.734051 0.518761 0.000198
0.810224 0.555657 0.000000
0.855879 0.571023 0.000000
0.894713 0.581964 0.000000
0.921111 0.585535 0.000000
0.943343 0.584573 0.000000
0.959106 0.576730 0.000000
0.972244 0.568002 0.000198
0.982132 0.554940 0.000000
0.990387 0.542001 0.000000
0.996002 0.530938 0.000000
0.035309 0.698741 0.000000
0.059434 0.698497 0.000000
0.080644 0.698207 0.000000
0.104326 0.697795 0.000198
0.128496 0.697276 0.000000
0.153735 0.696635 0.000000
0.179370 0.695842 0.000000
0.229603 0.694606 0.000000
0.281727 0.693111 0.000000
0.330510 0.691402 0.000000
0.376288 0.687984 0.000000
0.419440 0.679683 0.000000
0.460990 0.669612 0.000000
0.492577 0.646967 0.000198
0.518776 0.618677 0.000000
0.534707 0.585275 0.000000
0.534112 0.541695 0.000198
0.526177 0.494575 0.002350
0.489540 0.431006 0.005661
0.464912 0.378607 0.002731
0.562509 0.433204 0.000198
0.661738 0.489265 0.000198
0.747265 0.532891 0.000198
0.823438 0.570153 0.000000
0.866285 0.583841 0.000000
0.904295 0.594537 0.000000
0.928985 0.596918 0.000000
0.950851 0.596719 0.000000
0.966110 0.590265 0.000000
0.978470 0.581781 0.000198
0.987381 0.568170 0.000000
0.994461 0.555657 0.000000
0.000397 0.728191 0.000198
0.000198 0.728145 0.000000
0.000000 0.728145 0.000000
0.012299 0.727993 0.000000
0.079057 0.727413 0.000000
0.130068 0.726635 0.000198
0.176532 0.725719 0.000000
0.220874 0.724575 0.000000
0.267063 0.723247 0.000000
0.317647 0.721538 0.000000
0.364401 0.719692 0.000000
0.409186 0.717281 0.000198
0.451484 0.706493 0.000000
0.490990 0.692912 0.000000
0.523354 0.671412 0.000198
0.547829 0.643717 0.000000
0.566430 0.613001 0.000000
0.565255 0.570260 0.000000
0.561593 0.526589 0.000397
0.523400 0.461936 0.000397
0.485023 0.396963 0.000000
0.582849 0.452293 0.000000
0.678737 0.505745 0.000198
0.760617 0.547143 0.000000
0.836683 0.584619 0.000000
0.877607 0.597055 0.000000
0.914809 0.607019 0.000198
0.937789 0.608286 0.000397
0.958724 0.607996 0.000000
0.972595 0.601862 0.000198
0.984131 0.594507 0.000000
0.990524 0.584253 0.000198
0.007233 0.754986 0.000000
0.008789 0.754849 0.000000
0.010208 0.754711 0.000000
0.012497 0.754543 0.000000
0.015442 0.754315 0.000000
0.024628 0.753994 0.000000
0.124147 0.753155 0.000000
0.195254 0.752056 0.000198
0.253483 0.750820 0.000000
0.305882 0.749310 0.000198
0.352987 0.747570 0.000198
0.398215 0.745602 0.000198
0.441825 0.743191 0.000198
0.482048 0.730434 0.000000
0.520302 0.715221 0.000000
0.552178 0.694575 0.000000
0.576547 0.667948 0.000000
0.597162 0.640452 0.000000
0.597482 0.599634 0.000000
0.596109 0.558801 0.000000
0.561730 0.496468 0.000000
0.530175 0.437156 0.000000
0.609217 0.476021 0.000198
0.697963 0.523644 0.000000
0.774945 0.561822 0.000000
0.847868 0.597467 0.000000
0.888441 0.609735 0.000000
0.925017 0.619104 0.000000
0.946441 0.619349 0.000000
0.966400 0.618616 0.000000
0.978668 0.613031 0.000198
0.986862 0.608743 0.000198
0.003525 0.780697 0.000000
0.012085 0.780530 0.000198
0.026581 0.780301 0.000198
0.047959 0.779995 0.000000
0.082063 0.779553 0.000198
0.113207 0.779019 0.000000
0.142641 0.778363 0.000000
0.176471 0.777569 0.000000
0.238361 0.776333 0.000198
0.290272 0.774975 0.000000
0.338338 0.773388 0.000000
0.384253 0.771481 0.000000
0.428244 0.768856 0.000000
0.470817 0.765728 0.000000
0.510582 0.753735 0.000000
0.547234 0.736584 0.000000
0.580331 0.717235 0.000000
0.603830 0.691524 0.000000
0.626810 0.666758 0.000000
0.626597 0.626734 0.000198
0.627558 0.588632 0.000000
0.602029 0.533303 0.000198
0.573251 0.475685 0.000198
0.634211 0.498863 0.000000
0.716686 0.541070 0.000198
0.790036 0.577035 0.000198
0.858915 0.609903 0.000198
0.901030 0.623255 0.000000
0.934600 0.630396 0.000198
0.955688 0.630274 0.000198
0.973678 0.628397 0.000000
0.981827 0.624689 0.000198
0.000198 0.803952 0.000000
0.000198 0.803891 0.000000
0.000000 0.803845 0.000000
0.017014 0.803647 0.000000
0.057557 0.803220 0.000000
0.104997 0.802594 0.000000
0.149889 0.801801 0.000000
0.189487 0.800885 0.000000
0.228733 0.799802 0.000000
0.276127 0.798489 0.000198
0.324987 0.797025 0.000000
0.371069 0.795361 0.000000
0.414923 0.793133 0.000000
0.457603 0.789502 0.000000
0.499077 0.785367 0.000000
0.537697 0.773693 0.000000
0.573892 0.756420 0.000000
0.607141 0.738811 0.000000
0.630900 0.714443 0.000000
0.653208 0.690730 0.000198
0.657282 0.654643 0.000000
0.659739 0.618952 0.000000
0.640223 0.567788 0.000000
0.615702 0.513634 0.000000
0.662226 0.523781 0.000000
0.740856 0.562951 0.000000
0.808408 0.594400 0.000198
0.872236 0.623774 0.000198
0.913558 0.636622 0.000000
0.944518 0.641810 0.000198
0.964202 0.641123 0.000000
0.978836 0.638148 0.000198
0.000198 0.824994 0.000000
0.000198 0.824903 0.000000
0.000198 0.824796 0.000000
0.000198 0.824613 0.000000
0.000198 0.824384 0.000000
0.000000 0.824109 0.000000
0.068986 0.823453 0.000000
0.139635 0.822538 0.000000
0.205997 0.821469 0.000000
0.260929 0.820249 0.000000
0.310521 0.818845 0.000000
0.356970 0.817273 0.000198
0.400778 0.815518 0.000000
0.443061 0.813581 0.000198
0.484749 0.808347 0.000000
0.525124 0.802106 0.000000
0.563684 0.791714 0.000000
0.598734 0.775418 0.000198
0.632929 0.759564 0.000198
0.655924 0.736370 0.000198
0.679210 0.714275 0.000000
0.686366 0.681727 0.000198
0.692058 0.649195 0.000000
0.678523 0.603037 0.000000
0.657832 0.551278 0.000198
0.692729 0.550927 0.000000
0.765637 0.585336 0.000000
0.828779 0.613428 0.000000
0.887480 0.639109 0.000000
0.927184 0.650736 0.000000
0.954833 0.653391 0.000198
0.970916 0.652705 0.000000
0.000198 0.845182 0.000000
0.000397 0.845075 0.000000
0.000580 0.844968 0.000198
0.012711 0.844724 0.000000
0.035508 0.844373 0.000000
0.061357 0.843885 0.000000
0.086275 0.843336 0.000000
0.118334 0.842619 0.000000
0.181598 0.841611 0.000000
0.241520 0.840436 0.000198
0.293919 0.839048 0.000198
0.340993 0.837598 0.000000
0.385473 0.835905 0.000000
0.428153 0.834058 0.000000
0.469139 0.832075 0.000198
0.510094 0.826185 0.000000
0.550073 0.818769 0.000198
0.588220 0.808774 0.000000
0.623209 0.793698 0.000198
0.656580 0.778851 0.000198
0.681666 0.758358 0.000198
0.705181 0.737759 0.000198
0.716915 0.709423 0.000198
0.724208 0.679194 0.000198
0.717037 0.637980 0.000397
0.703380 0.591959 0.000000
0.728679 0.582635 0.000198
0.794278 0.611139 0.000198
0.851072 0.633982 0.000000
0.904051 0.655451 0.000000
0.940826 0.664912 0.000000
0.959747 0.666224 0.000000
0.000198 0.863752 0.000000
0.000000 0.863722 0.000000
0.000000 0.863661 0.000000
0.014862 0.863401 0.000000
0.034699 0.863066 0.000000
0.063096 0.862577 0.000000
0.104799 0.861936 0.000000
0.149004 0.861112 0.000000
0.187884 0.860151 0.000000
0.225757 0.859037 0.000000
0.279759 0.857710 0.000000
0.326940 0.856291 0.000000
0.371328 0.854719 0.000000
0.414252 0.852934 0.000000
0.454933 0.851041 0.000198
0.494606 0.849012 0.000198
0.534569 0.843137 0.000198
0.573983 0.834318 0.000198
0.612162 0.824842 0.000000
0.646128 0.811048 0.000000
0.679637 0.797452 0.000000
0.705974 0.779522 0.000198
0.730816 0.760906 0.000000
0.745968 0.736431 0.000000
0.756497 0.709178 0.000000
0.755703 0.673610 0.000198
0.747631 0.631815 0.000000
0.765744 0.615488 0.000000
0.823301 0.637461 0.000000
0.874754 0.655955 0.000198
0.921050 0.672831 0.000000
0.949172 0.679683 0.000000
0.000000 0.880690 0.000000
0.000000 0.880583 0.000000
0.000000 0.880507 0.000000
0.000000 0.880354 0.000000
0.000000 0.880125 0.000000
0.000000 0.879835 0.000000
0.052140 0.879301 0.000000
0.112062 0.878477 0.000000
0.161212 0.877562 0.000000
0.211002 0.876463 0.000198
0.260960 0.875288 0.000000
0.308476 0.873900 0.000000
0.354070 0.872374 0.000198
0.396872 0.870710 0.000000
0.437964 0.868910 0.000000
0.478126 0.866758 0.000198
0.517083 0.864286 0.000198
0.556283 0.859098 0.000198
0.595850 0.850126 0.000198
0.634073 0.840589 0.000000
0.668711 0.828199 0.000198
0.701854 0.815854 0.000000
0.730327 0.800610 0.000000
0.755779 0.783841 0.000000
0.775204 0.763470 0.000198
0.787579 0.738811 0.000000
0.793378 0.708797 0.000198
0.790463 0.671244 0.000000
0.803418 0.649607 0.000198
0.853559 0.665660 0.000000
0.897536 0.678447 0.000000
0.935012 0.690517 0.000198
0.000000 0.896666 0.000000
0.000000 0.896559 0.000000
0.000397 0.896437 0.000000
0.000198 0.896284 0.000000
0.002350 0.896040 0.000000
0.018967 0.895628 0.000000
0.040070 0.895094 0.000000
0.061219 0.894514 0.000000
0.110903 0.893690 0.000000
0.179812 0.892653 0.000000
0.238270 0.891447 0.000000
0.290745 0.890150 0.000000
0.338384 0.888701 0.000000
0.381964 0.887053 0.000000
0.423072 0.885298 0.000000
0.462928 0.883406 0.000000
0.502327 0.880659 0.000000
0.540795 0.877516 0.000000
0.579049 0.872847 0.000000
0.617807 0.864073 0.000000
0.655558 0.855085 0.000198
0.689830 0.844724 0.000198
0.723110 0.833814 0.000198
0.753048 0.821195 0.000198
0.779980 0.806500 0.000198
0.802899 0.789776 0.000000
0.818143 0.767788 0.000198
0.829541 0.742718 0.000000
0.830091 0.707912 0.000000
0.839612 0.682475 0.000000
0.882582 0.693050 0.000198
0.911910 0.699214 0.018570
0.000000 0.911711 0.000000
0.000000 0.911696 0.000000
0.005081 0.911543 0.000000
0.014267 0.911299 0.000000
0.026200 0.910964 0.000000
0.040864 0.910552 0.000000
0.056779 0.910079 0.000000
0.080156 0.909438 0.000000
0.123003 0.908599 0.000000
0.161395 0.907652 0.000000
0.216526 0.906539 0.000000
0.272206 0.905257 0.000000
0.319677 0.903868 0.000000
0.363119 0.902373 0.000000
0.405081 0.900664 0.000000
0.445167 0.898848 0.000198
0.483406 0.896925 0.000000
0.522133 0.894087 0.000000
