content/luts/atmosphere/atmosphere_12.cube
#Created by: inPixio
#Copyright: (C) Copyright 2022 inPixio
TITLE "Atmosphere 1"
#LUT size
LUT_3D_SIZE 5
#data domain
#LUT data points
DOMAIN_MIN 0.000000 0.000000 0.000000
DOMAIN_MAX 0.903226 0.903226 0.903226
0.000000 0.000000 0.000000
0.207172 0.000000 0.001190
0.432624 0.000000 0.003738
0.680995 0.000000 0.002564
0.910582 0.000000 0.000000
0.000000 0.213016 0.000000
0.205234 0.206607 0.000000
0.440864 0.162554 0.000000
0.688853 0.091096 0.000000
0.913314 0.004730 0.000000
0.000000 0.451698 0.000000
0.163836 0.451759 0.000000
0.437141 0.440436 0.000000
0.690150 0.400092 0.000000
0.909941 0.411032 0.000000
0.000000 0.699931 0.000000
0.000000 0.699916 0.000000
0.397131 0.698405 0.000000
0.680278 0.686381 0.000000
0.900069 0.678706 0.000000
0.000000 0.913680 0.000000
0.000000 0.913741 0.000000
0.309621 0.913802 0.000000
0.621027 0.912032 0.000000
0.893599 0.901793 0.000000
0.000000 0.000000 0.246189
0.227802 0.000000 0.224628
0.478477 0.000000 0.212100
0.730770 0.000000 0.178103
0.933944 0.000000 0.149538
0.000000 0.211917 0.213153
0.210315 0.210315 0.210315
0.475502 0.168734 0.184161
0.723781 0.083452 0.171130
0.931258 0.000000 0.155871
0.000000 0.461418 0.141299
0.096620 0.459266 0.141665
0.439811 0.443427 0.142779
0.703456 0.407309 0.144518
0.921325 0.412528 0.121737
0.000000 0.704997 0.002762
0.000000 0.704585 0.000000
0.375464 0.702754 0.000000
0.681285 0.687816 0.000000
0.906233 0.681178 0.000000
0.000000 0.915435 0.000000
0.000000 0.915450 0.000000
0.282689 0.915435 0.000000
0.612589 0.913741 0.000000
0.894514 0.902983 0.000000
0.000000 0.000000 0.504372
0.245213 0.000000 0.494194
0.476417 0.000000 0.470436
0.719814 0.000000 0.454749
0.946197 0.000000 0.418051
0.000000 0.202167 0.488472
0.202411 0.194904 0.482994
0.472282 0.168139 0.466590
0.729336 0.075547 0.448295
0.952255 0.000000 0.405646
0.000000 0.450141 0.452674
0.023072 0.450538 0.452049
0.446967 0.446967 0.446967
0.736904 0.407141 0.412299
0.955383 0.372137 0.380530
0.000000 0.716884 0.366445
0.000000 0.716152 0.361334
0.324849 0.710430 0.356390
0.685435 0.690456 0.353918
0.925643 0.680156 0.345968
0.000000 0.920760 0.296254
0.000000 0.920928 0.294652
0.169314 0.920913 0.292119
0.583413 0.919463 0.291066
0.898100 0.906691 0.305882
0.000000 0.000000 0.728512
0.242069 0.000000 0.726360
0.483406 0.000000 0.721111
0.720424 0.000000 0.710720
0.929778 0.000000 0.675975
0.000000 0.187549 0.725658
0.201831 0.181125 0.724254
0.472007 0.153414 0.720150
0.720852 0.081132 0.711605
0.934417 0.000000 0.675685
0.000000 0.440803 0.720913
0.000000 0.436896 0.720394
0.438926 0.430778 0.717006
0.715816 0.412711 0.708461
0.948562 0.377295 0.673320
0.000000 0.695140 0.699382
0.000000 0.695583 0.699138
0.344091 0.695781 0.697459
0.691218 0.691280 0.691234
0.957992 0.655467 0.655299
0.000000 0.925139 0.606928
0.000000 0.925933 0.605142
0.073259 0.927810 0.603754
0.570672 0.927886 0.596521
0.907301 0.913344 0.597772
0.085954 0.000000 0.920729
0.250370 0.000000 0.920134
0.470893 0.000000 0.919249
0.701305 0.000000 0.918074
0.928969 0.000000 0.914565
0.000000 0.174289 0.920256
0.223819 0.169726 0.919921
0.461219 0.151522 0.919127
0.697826 0.103502 0.918319
0.928801 0.000000 0.914931
0.000000 0.420340 0.920821
0.160281 0.425498 0.920394
0.442176 0.422355 0.920043
0.690211 0.412512 0.919371
0.928512 0.393942 0.916533
0.000000 0.666514 0.920974
0.000000 0.667643 0.921126
0.417105 0.672358 0.921492
0.686381 0.679072 0.921218
0.926650 0.671367 0.919158
0.000000 0.911177 0.916182
0.000000 0.911818 0.916487
0.284031 0.913710 0.917296
0.634623 0.915373 0.917022
0.911894 0.911971 0.911910
