content/luts/atmosphere/atmosphere_12.cube
#Created by: inPixio
#Copyright: (C) Copyright 2022 inPixio
TITLE "Atmosphere 1"
#LUT size
LUT_3D_SIZE 8
#data domain
#LUT data points
DOMAIN_MIN 0.000000 0.000000 0.000000
DOMAIN_MAX 0.903226 0.903226 0.903226
0.000000 0.000000 0.000000
0.118242 0.000000 0.000397
0.237766 0.000000 0.001190
0.365454 0.000000 0.002564
0.501961 0.000000 0.004730
0.644907 0.000000 0.003357
0.787427 0.000000 0.000000
0.910582 0.000000 0.000000
0.000000 0.119417 0.000000
0.115007 0.115618 0.000000
0.240803 0.086412 0.003159
0.370413 0.051850 0.006119
0.506676 0.000000 0.004532
0.648707 0.000000 0.000397
0.789593 0.000000 0.000000
0.912017 0.000000 0.000000
0.000000 0.245441 0.000000
0.094575 0.245335 0.000000
0.236713 0.238361 0.000000
0.371435 0.211688 0.000000
0.511360 0.189334 0.000000
0.654078 0.157397 0.000000
0.792966 0.117998 0.000000
0.913466 0.113176 0.000000
0.000000 0.380926 0.000000
0.039429 0.381048 0.000000
0.222080 0.379690 0.000000
0.368566 0.371206 0.000000
0.508034 0.345876 0.000000
0.654856 0.326223 0.000000
0.793881 0.315938 0.000000
0.912490 0.321859 0.000000
0.000000 0.523583 0.000000
0.000000 0.523644 0.000000
0.185489 0.523522 0.000000
0.355779 0.520028 0.000000
0.506539 0.510536 0.000000
0.648646 0.487785 0.000000
0.790127 0.481453 0.000000
0.906569 0.494575 0.000000
0.000000 0.665461 0.000000
0.000000 0.665446 0.000000
0.101762 0.665339 0.000000
0.317464 0.665049 0.000000
0.490959 0.660105 0.000000
0.646082 0.651713 0.000000
0.785596 0.640818 0.000000
0.900786 0.644709 0.000000
0.000000 0.798474 0.000000
0.000000 0.798444 0.000000
0.000000 0.798383 0.000000
0.268238 0.798169 0.000000
0.452506 0.796979 0.000000
0.622400 0.792615 0.000000
0.777874 0.785138 0.000000
0.901244 0.771878 0.000000
0.000000 0.913680 0.000000
0.000000 0.913695 0.000000
0.000000 0.913756 0.000000
0.191913 0.913787 0.000000
0.403067 0.913832 0.000000
0.578683 0.912566 0.000000
0.743252 0.910170 0.000000
0.893599 0.901793 0.000000
0.000000 0.000000 0.140459
0.129519 0.000000 0.127413
0.263386 0.000000 0.119341
0.399161 0.000000 0.105943
0.531197 0.000000 0.091951
0.668055 0.000000 0.087953
0.803372 0.000000 0.081483
0.919493 0.000000 0.069596
0.000000 0.118914 0.119844
0.117998 0.117998 0.117998
0.260929 0.097826 0.104067
0.394049 0.065782 0.097932
0.528893 0.000000 0.095399
0.668208 0.000000 0.091417
0.803525 0.000000 0.084260
0.920241 0.000000 0.071977
0.000000 0.251972 0.083803
0.066194 0.250111 0.083909
0.238560 0.240452 0.084367
0.380926 0.218479 0.088289
0.523491 0.197650 0.086625
0.666911 0.164797 0.082414
0.803067 0.125994 0.072755
0.919799 0.118074 0.056031
0.000000 0.385306 0.047761
0.000000 0.384878 0.046708
0.209247 0.383459 0.044373
0.369726 0.372686 0.047761
0.513939 0.348791 0.057130
0.661906 0.330160 0.052506
0.800412 0.319493 0.034699
0.917357 0.323537 0.004532
0.000000 0.526772 0.000000
0.000000 0.526604 0.000000
0.166186 0.526055 0.000000
0.349966 0.522347 0.000000
0.507225 0.511589 0.000000
0.651911 0.488624 0.000000
0.793942 0.484169 0.000000
0.910124 0.496590 0.000000
0.000000 0.667567 0.000000
0.000000 0.667475 0.000000
0.050507 0.667247 0.000000
0.308995 0.666575 0.000000
0.487541 0.661448 0.000000
0.646433 0.652369 0.000000
0.787533 0.641489 0.000000
0.903273 0.646128 0.000000
0.000000 0.799725 0.000000
0.000000 0.799741 0.000000
0.000000 0.799664 0.000000
0.255299 0.799313 0.000000
0.445838 0.798215 0.000000
0.620188 0.793545 0.000000
0.778286 0.785733 0.000000
0.902770 0.772900 0.000000
0.000000 0.914351 0.000000
0.000000 0.914351 0.000000
0.000000 0.914397 0.000000
0.172915 0.914412 0.000000
0.396887 0.914443 0.000000
0.574868 0.913222 0.000000
0.741863 0.910704 0.000000
0.893950 0.902251 0.000000
0.000000 0.000000 0.281926
0.136706 0.000000 0.274067
0.261463 0.000000 0.257923
0.392996 0.000000 0.249760
0.553506 0.000000 0.244038
0.699855 0.000000 0.226139
0.834165 0.000000 0.200458
0.940185 0.000000 0.177722
0.000000 0.115099 0.267781
0.114061 0.110155 0.263706
0.257008 0.098634 0.253803
0.398871 0.061189 0.245335
0.558465 0.000000 0.231952
0.703578 0.000000 0.212512
0.833021 0.000000 0.190372
0.938781 0.000000 0.179706
0.000000 0.244282 0.245640
0.053483 0.244358 0.245182
0.242435 0.242435 0.242435
0.401709 0.220859 0.224338
0.550668 0.193851 0.212009
0.694728 0.155749 0.203327
0.825757 0.105669 0.195361
0.935042 0.083116 0.185061
0.000000 0.393301 0.205005
0.000000 0.393011 0.199680
0.182651 0.388785 0.197009
0.373037 0.375189 0.196017
0.527977 0.351858 0.197009
0.678431 0.334356 0.191241
0.816205 0.319707 0.183459
0.929076 0.321431 0.172290
0.000000 0.534264 0.160403
0.000000 0.533562 0.161639
0.102922 0.531838 0.160830
0.333242 0.527977 0.158465
0.509468 0.513756 0.162005
0.660868 0.491417 0.166903
0.803159 0.487617 0.157839
0.919158 0.497108 0.142153
0.000000 0.672648 0.109163
0.000000 0.672358 0.108446
0.000000 0.671672 0.106233
0.285710 0.670192 0.102831
0.478721 0.664683 0.102449
0.647685 0.653742 0.107347
0.791943 0.642542 0.109529
0.909621 0.648310 0.092164
0.000000 0.802976 0.000000
0.000000 0.802899 0.000000
0.000000 0.802701 0.000000
0.218601 0.802197 0.000000
0.428809 0.801251 0.000000
0.614618 0.795819 0.000000
0.779400 0.787183 0.000000
0.906828 0.775341 0.002960
0.000000 0.915984 0.000000
0.000000 0.915953 0.000000
0.000000 0.915953 0.000000
0.110964 0.915938 0.000000
0.381018 0.915862 0.000000
0.564904 0.914855 0.000000
0.738293 0.912032 0.000000
0.894759 0.903319 0.000000
0.000000 0.000000 0.431724
0.139162 0.000000 0.426291
0.277165 0.000000 0.415061
0.403891 0.000000 0.398657
0.532052 0.000000 0.386175
0.692546 0.000000 0.384283
0.834943 0.000000 0.366781
0.947677 0.000000 0.339193
0.000000 0.106325 0.420035
0.108812 0.101381 0.416983
0.265705 0.084947 0.409873
0.401663 0.053315 0.396704
0.535454 0.000000 0.384970
0.696788 0.000000 0.379843
0.838575 0.000000 0.360205
0.949950 0.000000 0.332616
0.000000 0.245289 0.407858
0.000000 0.240528 0.406134
0.237156 0.232700 0.400748
0.394675 0.221637 0.390448
0.543618 0.198703 0.380072
0.705455 0.140810 0.366003
0.845106 0.042496 0.343938
0.955703 0.000000 0.311162
0.000000 0.379553 0.381704
0.000000 0.379889 0.381643
0.184741 0.379690 0.380438
0.377035 0.377035 0.377035
0.547601 0.355306 0.357015
0.702770 0.330648 0.340887
0.841123 0.306218 0.326497
0.949218 0.291966 0.311437
0.000000 0.537743 0.344701
0.000000 0.539208 0.339590
0.000000 0.539605 0.328557
0.311345 0.532815 0.324086
0.513741 0.516106 0.321294
0.674525 0.492958 0.319493
0.818402 0.487099 0.307652
0.935866 0.486503 0.296071
0.000000 0.680324 0.287373
0.000000 0.680049 0.285161
0.000000 0.678416 0.285252
0.240650 0.675441 0.283909
0.461463 0.669871 0.280262
0.650278 0.655528 0.282918
0.799664 0.642222 0.283681
0.921218 0.647715 0.274067
0.000000 0.808606 0.242435
0.000000 0.808408 0.243885
0.000000 0.807904 0.246616
0.133303 0.806928 0.244434
0.406455 0.805188 0.241245
0.604563 0.799359 0.241520
0.781506 0.789014 0.245991
0.914138 0.778714 0.250065
0.000000 0.918868 0.209430
0.000000 0.918868 0.209140
0.000000 0.918853 0.208637
0.000000 0.918853 0.207416
0.349355 0.918715 0.205570
0.545419 0.918105 0.204089
0.731777 0.914580 0.208820
0.896696 0.905318 0.218738
0.000000 0.000000 0.573938
0.137438 0.000000 0.571176
0.280858 0.000000 0.564981
0.419150 0.000000 0.555489
0.549142 0.000000 0.542077
0.673564 0.000000 0.525383
0.819623 0.000000 0.518303
0.942763 0.000000 0.494591
0.000000 0.093431 0.567529
0.103975 0.087510 0.565698
0.267369 0.068391 0.561379
0.413550 0.015778 0.553857
0.548623 0.000000 0.541695
0.675212 0.000000 0.524910
0.822919 0.000000 0.516747
0.945037 0.000000 0.491768
0.000000 0.231861 0.560723
0.000000 0.230747 0.559258
0.233814 0.224979 0.555520
0.399207 0.212146 0.549111
0.545556 0.194003 0.539117
0.680003 0.174456 0.523796
0.830488 0.097124 0.512444
0.950362 0.000000 0.484901
0.000000 0.381506 0.549050
0.000000 0.379309 0.548241
0.165103 0.374060 0.546365
0.371511 0.366659 0.541131
0.536568 0.356909 0.531548
0.686427 0.340017 0.518502
0.841840 0.302617 0.500755
0.959136 0.263737 0.470436
0.000000 0.521355 0.524300
0.000000 0.521569 0.524239
0.007889 0.521721 0.523461
0.323781 0.520851 0.521508
0.517418 0.517510 0.517449
0.690395 0.495048 0.495476
0.843183 0.470878 0.474357
0.960815 0.449165 0.452903
0.000000 0.677211 0.486900
0.000000 0.678080 0.484260
0.000000 0.680232 0.476448
0.142077 0.680964 0.462135
0.443854 0.673777 0.456046
0.654215 0.656947 0.451026
0.811292 0.638209 0.445502
0.938842 0.637888 0.429389
0.000000 0.814313 0.419638
0.000000 0.814405 0.417914
0.000000 0.814420 0.414176
0.000000 0.813382 0.411688
0.371557 0.810208 0.409751
0.587259 0.803983 0.405325
0.783993 0.790219 0.408866
0.924651 0.780987 0.410590
0.000000 0.922393 0.385031
0.000000 0.922454 0.384375
0.000000 0.922713 0.382544
0.000000 0.923217 0.378256
0.302434 0.923018 0.376501
0.525887 0.922225 0.375280
0.722835 0.918380 0.378485
0.900221 0.908461 0.388083
0.000000 0.000000 0.698283
0.137362 0.000000 0.697215
0.277165 0.000000 0.694835
0.415610 0.000000 0.691280
0.554574 0.000000 0.686214
0.686915 0.000000 0.677791
0.809171 0.000000 0.660349
0.931975 0.000000 0.640879
0.000000 0.077516 0.696101
0.106325 0.071321 0.695369
0.264378 0.051011 0.693477
0.409415 0.000000 0.690395
0.552010 0.000000 0.686046
0.687221 0.000000 0.678248
0.810956 0.000000 0.660746
0.933944 0.000000 0.640406
0.000000 0.225025 0.693843
0.000000 0.223117 0.693202
0.233524 0.217899 0.691615
0.394904 0.206378 0.688823
0.545296 0.185916 0.684749
0.686793 0.157961 0.678294
0.814633 0.135531 0.661189
0.938903 0.050172 0.639139
0.000000 0.369497 0.690471
0.000000 0.367163 0.690166
0.158160 0.361624 0.689479
0.369024 0.359625 0.686381
0.532815 0.349722 0.682063
0.683650 0.336568 0.676020
0.818845 0.324743 0.660365
0.947463 0.287785 0.636225
0.000000 0.516411 0.682857
0.000000 0.515770 0.682628
0.000000 0.513939 0.682017
0.322972 0.510643 0.680827
0.511482 0.506569 0.677241
0.675334 0.497887 0.670115
0.823102 0.483131 0.655634
0.957824 0.453758 0.630076
0.000000 0.661158 0.665095
0.000000 0.661326 0.664973
0.000000 0.661662 0.664698
0.234089 0.661784 0.663752
0.467094 0.660777 0.661479
0.657176 0.657176 0.657176
0.824094 0.636317 0.636240
0.960845 0.615030 0.615198
0.000000 0.809537 0.623911
0.000000 0.810101 0.622385
0.000000 0.811536 0.618341
0.000000 0.813047 0.611002
0.351278 0.812863 0.601358
0.584665 0.806058 0.596094
0.787442 0.790433 0.591424
0.933623 0.777554 0.585092
0.000000 0.924804 0.561059
0.000000 0.925017 0.560617
0.000000 0.925612 0.559335
0.000000 0.926482 0.559991
0.303899 0.927199 0.561807
0.520241 0.927199 0.552422
0.713970 0.923552 0.547982
0.905715 0.912429 0.555154
0.027207 0.000000 0.814679
0.145953 0.000000 0.814282
0.275807 0.000000 0.813428
0.410147 0.000000 0.812146
0.545770 0.000000 0.810452
0.683177 0.000000 0.808484
0.815839 0.000000 0.804379
0.928115 0.000000 0.781354
0.000000 0.058351 0.814191
0.121080 0.051850 0.813886
0.264698 0.031342 0.813062
0.404120 0.000000 0.811963
0.542718 0.000000 0.810483
0.682033 0.000000 0.808606
0.816098 0.000000 0.804791
0.929152 0.000000 0.781674
0.000000 0.217670 0.813718
0.028199 0.215976 0.813504
0.238773 0.211734 0.812940
0.390555 0.202457 0.812009
0.535561 0.185229 0.810681
0.678996 0.156375 0.808820
0.816403 0.114138 0.805554
0.931960 0.085512 0.782712
0.000000 0.355764 0.814221
0.000000 0.360250 0.813855
0.191959 0.358236 0.813367
0.369741 0.354345 0.812482
0.524514 0.346777 0.811139
0.673579 0.333974 0.809140
0.816037 0.317556 0.806165
0.936065 0.305287 0.784237
0.000000 0.504067 0.812848
0.000000 0.503395 0.812894
0.086961 0.501915 0.812894
0.332723 0.499977 0.812787
0.508888 0.499855 0.811093
0.665019 0.492393 0.808606
0.813382 0.482567 0.805310
0.939300 0.474022 0.785641
0.000000 0.646510 0.809232
0.000000 0.646372 0.809186
0.000000 0.646174 0.809094
0.279362 0.646738 0.808774
0.481086 0.647639 0.807996
0.652247 0.647913 0.805585
0.805875 0.640909 0.800748
0.942580 0.629618 0.785687
0.000000 0.792737 0.797635
0.000000 0.792859 0.797635
0.000000 0.793301 0.797528
0.108812 0.793881 0.797208
0.417090 0.794202 0.796277
0.614603 0.793393 0.794110
0.789700 0.789715 0.789700
0.942245 0.772198 0.771740
0.000000 0.922896 0.752209
0.000000 0.923339 0.751751
0.000000 0.924422 0.750576
0.000000 0.926299 0.748486
0.303807 0.928725 0.744030
0.536828 0.930129 0.738735
0.721325 0.926345 0.732189
0.910216 0.913558 0.728573
0.085954 0.000000 0.920729
0.166491 0.000000 0.920501
0.280629 0.000000 0.919997
0.406439 0.000000 0.919524
0.536065 0.000000 0.918914
0.668055 0.000000 0.918257
0.800671 0.000000 0.917556
0.928969 0.000000 0.914565
0.044007 0.037659 0.920455
0.148272 0.031739 0.920302
0.271794 0.015183 0.919936
0.401511 0.000000 0.919493
0.533166 0.000000 0.918929
0.666346 0.000000 0.918257
0.800092 0.000000 0.917708
0.928924 0.000000 0.914717
0.000000 0.211276 0.920119
0.102159 0.210071 0.919997
0.252155 0.206851 0.919722
0.390417 0.200275 0.919356
0.526787 0.187549 0.919005
0.662821 0.167971 0.918532
0.798657 0.137148 0.917952
0.928817 0.089494 0.915099
0.000000 0.354727 0.920195
0.000000 0.354177 0.920134
0.223819 0.352880 0.919967
0.375967 0.350530 0.919722
0.518257 0.345602 0.919432
0.657771 0.337285 0.919081
0.796689 0.324880 0.918532
0.928603 0.309361 0.915862
0.000000 0.491386 0.920867
0.000000 0.491356 0.920913
0.169436 0.491722 0.920974
0.361944 0.496757 0.920562
0.510430 0.495140 0.920348
0.653071 0.491325 0.919982
0.793927 0.485130 0.919387
0.928130 0.477211 0.917174
0.000000 0.631785 0.920989
0.000000 0.632151 0.921035
0.110155 0.633448 0.921187
0.336919 0.635889 0.921355
0.501869 0.639628 0.921508
0.651438 0.642771 0.921019
0.791470 0.639170 0.920440
0.927184 0.634180 0.918868
0.000000 0.769818 0.920470
0.000000 0.770245 0.920546
0.000000 0.771206 0.920714
0.294301 0.773175 0.921035
0.480446 0.776455 0.921447
0.640238 0.780270 0.921492
0.787030 0.783063 0.920516
0.923446 0.778683 0.918700
0.000000 0.911177 0.916182
0.000000 0.911391 0.916289
0.000000 0.911971 0.916564
0.087190 0.912993 0.917006
0.401709 0.914366 0.917495
0.591852 0.915312 0.917296
0.756649 0.915175 0.915892
0.911894 0.911971 0.911910
