content/luts/atmosphere/atmosphere_01.cube
#Created by: inPixio
#Copyright: (C) Copyright 2022 inPixio
TITLE "Atmosphere 1"
#LUT size
LUT_3D_SIZE 8
#data domain
#LUT data points
DOMAIN_MIN 0.000000 0.000000 0.000000
DOMAIN_MAX 0.903226 0.903226 0.903226
0.135317 0.135317 0.135317
0.171298 0.135958 0.135668
0.245777 0.134447 0.136767
0.351675 0.132113 0.135821
0.521737 0.111162 0.131441
0.759960 0.030304 0.104891
0.917388 0.009796 0.074540
0.985840 0.000198 0.074037
0.135744 0.171527 0.135668
0.171069 0.170550 0.135744
0.245472 0.167269 0.136553
0.352529 0.166186 0.136843
0.523018 0.163378 0.129915
0.760403 0.141314 0.100877
0.916350 0.102937 0.072908
0.985473 0.082994 0.068711
0.132189 0.248066 0.136843
0.164920 0.248096 0.137224
0.245853 0.247791 0.138445
0.355795 0.253712 0.137301
0.529671 0.274754 0.124956
0.763088 0.295079 0.084031
0.914550 0.283223 0.020523
0.983307 0.258442 0.040864
0.115526 0.364370 0.132036
0.154650 0.365179 0.131594
0.251820 0.368231 0.130312
0.369406 0.373556 0.127733
0.541161 0.408194 0.104051
0.768307 0.453025 0.009583
0.913130 0.441291 0.000580
0.980163 0.405127 0.002152
0.053269 0.557351 0.079789
0.104891 0.558587 0.077104
0.259220 0.563958 0.064378
0.415778 0.573159 0.031876
0.578668 0.586099 0.007233
0.775998 0.617823 0.000000
0.909545 0.596521 0.000198
0.974289 0.546609 0.000000
0.002930 0.787015 0.000000
0.065492 0.787549 0.000000
0.232044 0.788861 0.000000
0.431403 0.788708 0.000000
0.606134 0.786069 0.000000
0.773282 0.782651 0.000198
0.903441 0.751003 0.000000
0.966781 0.684611 0.000000
0.000000 0.902678 0.000000
0.033082 0.902098 0.000000
0.199374 0.899672 0.000000
0.389426 0.895125 0.000198
0.557107 0.888121 0.000198
0.710903 0.877760 0.000000
0.855741 0.865187 0.000198
0.956481 0.821195 0.000000
0.000000 0.954971 0.000000
0.000000 0.954437 0.000000
0.158160 0.952087 0.000198
0.343526 0.947250 0.000000
0.498573 0.940200 0.000000
0.639170 0.930968 0.000000
0.771588 0.918883 0.000198
0.895735 0.904936 0.000198
0.135393 0.135180 0.179370
0.170779 0.134371 0.179324
0.245625 0.136843 0.178775
0.355215 0.121447 0.177966
0.528466 0.029129 0.171588
0.766369 0.000000 0.152621
0.919249 0.000580 0.133104
0.986420 0.000000 0.128878
0.135180 0.171420 0.179217
0.168856 0.169909 0.179751
0.245655 0.168154 0.179706
0.356664 0.157137 0.177340
0.530633 0.128496 0.170550
0.766125 0.063523 0.149279
0.918105 0.017792 0.130465
0.986038 0.044541 0.126558
0.134295 0.248478 0.178454
0.161334 0.249348 0.178241
0.246372 0.248524 0.175296
0.358389 0.251362 0.175403
0.535515 0.263462 0.165209
0.768292 0.270253 0.138170
0.916411 0.255711 0.116716
0.983825 0.237369 0.116060
0.107805 0.365713 0.178882
0.140826 0.367865 0.172274
0.243870 0.371283 0.163806
0.370672 0.375464 0.160128
0.546731 0.406424 0.144610
0.772213 0.442710 0.108904
0.914290 0.429297 0.081361
0.980575 0.394720 0.091127
0.001556 0.560464 0.145769
0.025803 0.562203 0.135531
0.237842 0.568231 0.115267
0.409537 0.576898 0.100191
0.580789 0.588998 0.064378
0.779721 0.615320 0.011460
0.910369 0.590936 0.017395
0.974563 0.541070 0.043793
0.000580 0.789288 0.049348
0.022278 0.790402 0.008606
0.187198 0.791516 0.000778
0.418296 0.790707 0.000000
0.601694 0.787640 0.000000
0.773770 0.783459 0.000000
0.904112 0.748608 0.000000
0.966903 0.681773 0.012909
0.000198 0.904021 0.004685
0.037324 0.903456 0.000198
0.162951 0.901000 0.000000
0.374456 0.896330 0.000000
0.550179 0.889006 0.000000
0.708263 0.878248 0.000198
0.855650 0.865339 0.000198
0.956405 0.819944 0.000000
0.000397 0.955627 0.000000
0.000000 0.955154 0.000198
0.149416 0.952636 0.000000
0.333013 0.947768 0.000000
0.493629 0.940551 0.000198
0.636469 0.931228 0.000000
0.770443 0.918975 0.000000
0.895628 0.904891 0.000198
0.133471 0.133104 0.272297
0.166613 0.132036 0.273213
0.251438 0.128649 0.275670
0.360342 0.114046 0.282170
0.539254 0.000000 0.304097
0.775341 0.000198 0.304891
0.923659 0.000000 0.254719
0.987671 0.000198 0.242542
0.127260 0.163867 0.275380
0.161837 0.163256 0.275898
0.247669 0.159518 0.276463
0.361852 0.147051 0.282200
0.542428 0.038895 0.298360
0.777066 0.000000 0.288731
0.922835 0.000000 0.251362
0.987121 0.000000 0.241825
0.122271 0.251484 0.275837
0.151186 0.249683 0.276494
0.236439 0.240635 0.276173
0.362905 0.236271 0.276097
0.547478 0.197223 0.270497
0.781888 0.121950 0.256931
0.921264 0.112230 0.244526
0.984924 0.132418 0.238163
0.084611 0.367910 0.283482
0.120638 0.369955 0.282567
0.215244 0.374624 0.272908
0.369284 0.374853 0.259327
0.556771 0.388205 0.259434
0.782666 0.399603 0.244297
0.917586 0.381506 0.234440
0.980804 0.359625 0.232731
0.001373 0.562631 0.306523
0.010010 0.565728 0.300862
0.135454 0.576791 0.262333
0.369101 0.585885 0.226871
0.583551 0.593332 0.216648
0.789395 0.603113 0.202441
0.911818 0.569833 0.218036
0.974411 0.523323 0.224796
0.000977 0.791684 0.299458
0.002548 0.793469 0.285100
0.061357 0.798642 0.222385
0.349493 0.798199 0.167559
0.580743 0.792813 0.158160
0.774136 0.785534 0.145022
0.905654 0.739773 0.152743
0.966201 0.672297 0.202640
0.001953 0.904585 0.248859
0.002930 0.904830 0.229603
0.020920 0.904799 0.169574
0.313054 0.900176 0.140963
0.526085 0.891600 0.138445
0.698833 0.879759 0.135531
0.855116 0.865660 0.133318
0.955917 0.815427 0.156695
0.001556 0.956405 0.191074
0.001175 0.956161 0.183017
0.079912 0.954253 0.158526
0.296483 0.949264 0.153018
0.476219 0.941695 0.154192
0.628489 0.931808 0.156573
0.767483 0.919066 0.160891
0.895399 0.904585 0.168154
0.126391 0.123903 0.427268
0.167269 0.120714 0.428687
0.268772 0.105379 0.433066
0.389014 0.043610 0.437339
0.553689 0.000000 0.464500
0.778988 0.000000 0.503548
0.916854 0.000397 0.469490
0.983032 0.000000 0.412528
0.091463 0.156069 0.433204
0.145296 0.153277 0.434089
0.261326 0.138445 0.437064
0.388739 0.101671 0.440864
0.555947 0.000397 0.465187
0.781277 0.000000 0.499611
0.917479 0.000198 0.463401
0.982895 0.000198 0.409186
0.010636 0.255970 0.440467
0.067582 0.247471 0.441978
0.217014 0.224323 0.445304
0.378927 0.205905 0.447440
0.564385 0.156954 0.464393
0.788495 0.004105 0.481376
0.919722 0.010208 0.441627
0.980591 0.085161 0.407721
0.001175 0.394675 0.444587
0.010010 0.392416 0.445701
0.167788 0.383459 0.448219
0.342916 0.354482 0.447227
0.568444 0.344244 0.449775
0.792248 0.308049 0.441856
0.915236 0.326284 0.427710
0.974014 0.353460 0.418326
0.001373 0.568460 0.469490
0.001373 0.571237 0.469368
0.096483 0.579950 0.467475
0.301595 0.589365 0.448905
0.573922 0.587518 0.419104
0.791012 0.576974 0.428809
0.906798 0.550683 0.429831
0.966735 0.523796 0.421988
0.001953 0.794156 0.499229
0.001175 0.795529 0.496254
0.001953 0.800671 0.473747
0.226825 0.803998 0.420127
0.537591 0.797650 0.386694
0.771435 0.784436 0.384527
0.901289 0.729076 0.392767
0.957092 0.674846 0.425910
0.000397 0.904723 0.450279
0.001373 0.904845 0.443366
0.004883 0.905089 0.421408
0.223941 0.902953 0.380209
0.497063 0.893416 0.374334
0.690639 0.880171 0.376104
0.854109 0.864759 0.379812
0.949691 0.809476 0.381933
0.000977 0.955886 0.390967
0.000198 0.955612 0.384939
0.019165 0.954315 0.367987
0.269551 0.949172 0.363424
0.477028 0.940520 0.376181
0.630976 0.930266 0.380194
0.769116 0.917479 0.384375
0.894148 0.903288 0.391257
0.074907 0.080522 0.678477
0.157778 0.064805 0.679576
0.298558 0.000000 0.682994
0.449867 0.000000 0.687419
0.610422 0.000000 0.691600
0.784527 0.000000 0.697047
0.907607 0.000000 0.653788
0.972458 0.000000 0.584924
0.000397 0.126391 0.683101
0.109636 0.117998 0.683665
0.280247 0.066194 0.685939
0.441856 0.001556 0.689555
0.608225 0.000000 0.692790
0.784711 0.000000 0.696193
0.908202 0.000000 0.651865
0.972488 0.000000 0.582300
0.001373 0.225940 0.691203
0.010636 0.218067 0.691814
0.176471 0.199069 0.693431
0.407614 0.152819 0.695857
0.598825 0.053773 0.698039
0.788205 0.000000 0.695705
0.908400 0.000000 0.641535
0.970962 0.034913 0.575860
0.001175 0.426993 0.693614
0.001755 0.419654 0.694774
0.014862 0.383841 0.698909
0.304463 0.326406 0.702663
0.574762 0.294011 0.703822
0.792111 0.263127 0.690105
0.906386 0.294133 0.629770
0.962860 0.359396 0.585977
0.001755 0.613718 0.698543
0.002731 0.610925 0.699596
0.002930 0.603418 0.702129
0.219226 0.581445 0.705043
0.535256 0.554254 0.702602
0.781857 0.566873 0.684154
0.882994 0.608972 0.671077
0.934722 0.640162 0.673243
0.002548 0.797604 0.698268
0.002731 0.798734 0.697826
0.002548 0.801495 0.696620
0.185351 0.802731 0.685390
0.522240 0.794156 0.668086
0.764584 0.778515 0.671260
0.872602 0.755856 0.683314
0.926085 0.739605 0.684520
0.001175 0.904738 0.637552
0.001556 0.904784 0.635554
0.001755 0.904341 0.624750
0.227726 0.901320 0.606729
0.525078 0.887953 0.616312
0.726986 0.871397 0.653010
0.852049 0.859846 0.652979
0.925429 0.823224 0.648325
0.000778 0.954742 0.560800
0.001175 0.954345 0.558160
0.026383 0.952834 0.550546
0.255055 0.947799 0.542168
0.554528 0.931228 0.604089
0.700999 0.918593 0.641871
0.799786 0.909316 0.643977
0.893050 0.899443 0.646861
0.022477 0.001175 0.837491
0.130755 0.000198 0.837659
0.281025 0.000000 0.838270
0.432181 0.000000 0.839170
0.585535 0.000000 0.840238
0.744259 0.000198 0.841352
0.893050 0.000000 0.825116
0.958236 0.000000 0.742626
0.013291 0.087297 0.838682
0.078325 0.071733 0.838804
0.261219 0.016419 0.839323
0.422019 0.000000 0.840085
0.580850 0.000000 0.840940
0.742504 0.000198 0.841871
0.893217 0.000000 0.824567
0.957977 0.000000 0.741131
0.000198 0.201221 0.841856
0.001175 0.196368 0.841932
0.155489 0.178012 0.842207
0.381781 0.126864 0.842634
0.562142 0.014466 0.843031
0.736019 0.000198 0.842969
0.893416 0.000000 0.822477
0.956603 0.017792 0.736355
0.002350 0.374273 0.842023
0.002930 0.367285 0.842344
0.001175 0.328313 0.843946
0.286473 0.305425 0.844007
0.524422 0.281727 0.843412
0.725628 0.248600 0.842725
0.891234 0.242771 0.815580
0.950912 0.332143 0.733669
0.000397 0.562432 0.838148
0.000580 0.558938 0.838438
0.002350 0.543542 0.839643
0.194629 0.519875 0.840833
0.501961 0.517189 0.839475
0.726314 0.525765 0.837202
0.878538 0.560922 0.809247
0.929824 0.616068 0.761746
0.001175 0.736706 0.833967
0.001953 0.735134 0.834196
0.001755 0.731823 0.834714
0.178561 0.726848 0.834989
0.529687 0.735653 0.832258
0.757610 0.764584 0.825910
0.858335 0.773861 0.815442
0.904143 0.793362 0.812970
0.001755 0.897627 0.817960
0.001755 0.897520 0.817151
0.003525 0.897566 0.814893
0.193393 0.895125 0.808270
0.543420 0.882368 0.801236
0.755459 0.863951 0.806317
0.851240 0.856428 0.812741
0.900572 0.848920 0.815259
0.001175 0.952972 0.726436
0.000977 0.952422 0.725185
0.070954 0.950073 0.721325
0.288533 0.943404 0.718151
0.564706 0.927871 0.738430
0.760510 0.907927 0.787671
0.838010 0.900084 0.804303
0.892165 0.895506 0.803769
0.028534 0.000580 0.902647
0.107897 0.001373 0.902632
0.248631 0.000198 0.902602
0.385733 0.000000 0.902464
0.522225 0.000000 0.902205
0.660563 0.000198 0.901701
0.802945 0.000000 0.901152
0.940200 0.000198 0.889128
0.014862 0.071870 0.902861
0.088853 0.058030 0.902831
0.231952 0.009384 0.902754
0.377554 0.000000 0.902617
0.517449 0.000000 0.902297
0.658061 0.000198 0.901732
0.802136 0.000000 0.901167
0.939712 0.000198 0.888258
0.000397 0.188190 0.903365
0.008789 0.184207 0.903365
0.146578 0.171008 0.903258
0.343725 0.141741 0.902968
0.499580 0.077470 0.902495
0.649928 0.020523 0.901732
0.799374 0.000000 0.900847
0.937362 0.000000 0.884398
0.000977 0.318181 0.903334
0.000397 0.313985 0.903395
0.014069 0.305364 0.903288
0.282734 0.296101 0.902815
0.472648 0.283940 0.902022
0.639414 0.273899 0.900694
0.796841 0.269337 0.898833
0.933928 0.292714 0.878828
0.002350 0.490425 0.899931
0.001755 0.488609 0.899977
0.002350 0.481437 0.900069
0.270527 0.484321 0.899245
0.484016 0.492439 0.897566
0.655207 0.509682 0.894987
0.807782 0.538232 0.892042
0.920043 0.584634 0.869490
0.000778 0.647410 0.894530
0.001556 0.646906 0.894499
0.009384 0.643900 0.894438
0.282963 0.650950 0.893156
0.564691 0.693416 0.888365
0.738994 0.743389 0.882780
0.833768 0.755169 0.881071
0.903624 0.772290 0.868498
0.000977 0.795697 0.888045
0.000778 0.795941 0.887923
0.001373 0.796490 0.887602
0.321752 0.801770 0.886122
0.590082 0.817166 0.882521
0.763897 0.839323 0.878294
0.849043 0.851667 0.875502
0.894698 0.855634 0.870985
0.001373 0.939483 0.878264
0.002350 0.939101 0.877623
0.077836 0.937423 0.875059
0.366934 0.930480 0.869383
0.616327 0.918273 0.865477
0.766751 0.905409 0.864469
0.848447 0.897154 0.866560
0.891966 0.894209 0.869856
0.050996 0.000198 0.936233
0.108354 0.005661 0.936187
0.222431 0.000000 0.936019
0.344717 0.000000 0.935653
0.466117 0.000000 0.935073
0.588129 0.000000 0.934234
0.714153 0.000000 0.933028
0.843366 0.000000 0.931365
0.038712 0.071214 0.936172
0.076249 0.065492 0.936126
0.210819 0.022278 0.935958
0.338582 0.004883 0.935561
0.462654 0.000580 0.934981
0.586206 0.000000 0.934096
0.713420 0.000198 0.932860
0.843305 0.000000 0.931121
0.000397 0.182849 0.935988
0.038315 0.180621 0.935912
0.158343 0.173251 0.935683
0.315877 0.157015 0.935256
0.450645 0.127184 0.934585
0.580255 0.091463 0.933562
0.711406 0.037919 0.932097
0.843931 0.047440 0.930236
0.000778 0.299672 0.935012
0.001175 0.298940 0.934951
0.078935 0.296574 0.934676
0.282445 0.293217 0.934096
0.437263 0.290517 0.933166
0.576425 0.290776 0.931808
0.713405 0.299764 0.929809
0.846952 0.326253 0.927291
0.000778 0.451408 0.931701
0.001373 0.451896 0.931609
0.172046 0.462165 0.930800
0.326574 0.468544 0.929854
0.473014 0.477638 0.928405
0.609583 0.497780 0.926177
0.740108 0.531731 0.922942
0.857542 0.576654 0.919097
0.009796 0.586481 0.927352
0.025605 0.587823 0.927199
0.174273 0.595453 0.926345
0.405081 0.625940 0.923507
0.615946 0.695262 0.917311
0.722103 0.724651 0.913954
0.802548 0.743114 0.911528
0.875624 0.761151 0.909514
0.002548 0.715251 0.921431
0.111528 0.717540 0.921111
0.246052 0.723873 0.920134
0.446052 0.745052 0.917311
0.644892 0.785580 0.912123
0.775784 0.824796 0.907240
0.843275 0.844266 0.904677
0.886626 0.848554 0.904051
0.089937 0.836729 0.914519
0.180514 0.838041 0.914183
0.308263 0.841474 0.913283
0.493004 0.851453 0.910918
0.669459 0.865766 0.907439
0.785443 0.877684 0.904601
0.852857 0.887083 0.902815
0.892943 0.893278 0.901488
