content/luts/atmosphere/atmosphere_03.cube
#Created by: inPixio
#Copyright: (C) Copyright 2022 inPixio
TITLE "Atmosphere 3"
#LUT size
LUT_3D_SIZE 8
#data domain
#LUT data points
DOMAIN_MIN 0.000000 0.000000 0.000000
DOMAIN_MAX 0.903226 0.903226 0.903226
0.085725 0.106340 0.119417
0.097719 0.108629 0.123003
0.169207 0.115267 0.132418
0.310140 0.139849 0.145296
0.491173 0.183780 0.173480
0.710124 0.224201 0.219623
0.846220 0.295522 0.291234
0.931472 0.391455 0.392493
0.086839 0.119753 0.123003
0.101381 0.122515 0.123980
0.177447 0.138872 0.129595
0.315023 0.168856 0.142290
0.495338 0.214481 0.171237
0.708660 0.247898 0.217273
0.841657 0.310552 0.288365
0.933654 0.401938 0.395010
0.096986 0.201129 0.131670
0.118944 0.205524 0.131899
0.196765 0.221469 0.134142
0.345312 0.266239 0.139788
0.532738 0.307713 0.167498
0.718654 0.326665 0.213886
0.851515 0.377157 0.293416
0.932433 0.433814 0.391440
0.133852 0.364492 0.156634
0.160266 0.368078 0.156573
0.244099 0.381888 0.158099
0.382864 0.413779 0.167269
0.580896 0.446616 0.177569
0.755062 0.448310 0.211795
0.861311 0.463752 0.295934
0.940353 0.494499 0.397757
0.216068 0.558465 0.203327
0.232044 0.559091 0.203174
0.306386 0.567254 0.204486
0.430869 0.577493 0.210025
0.604563 0.580438 0.219944
0.765667 0.578073 0.252689
0.866880 0.566201 0.309072
0.948501 0.575128 0.403021
0.297047 0.703197 0.281590
0.317433 0.704601 0.282673
0.373602 0.708705 0.286000
0.478737 0.711406 0.290837
0.625773 0.706966 0.301656
0.763455 0.703349 0.320562
0.865309 0.690959 0.376761
0.950927 0.678691 0.441154
0.425132 0.806058 0.401144
0.435981 0.806027 0.401511
0.479927 0.804990 0.402213
0.556954 0.803525 0.405097
0.655222 0.800214 0.412360
0.761425 0.796704 0.428992
0.865995 0.795255 0.453346
0.949310 0.778958 0.499840
0.597025 0.874022 0.508415
0.601526 0.873976 0.508598
0.624247 0.873838 0.510231
0.664805 0.873640 0.513466
0.717983 0.873915 0.519661
0.785016 0.873549 0.532250
0.868254 0.870771 0.551217
0.954253 0.867552 0.576379
0.082521 0.110094 0.131960
0.094789 0.109178 0.134142
0.169802 0.118853 0.150927
0.312520 0.147936 0.173709
0.493767 0.191852 0.206104
0.705226 0.232654 0.248142
0.835813 0.300160 0.311803
0.927062 0.401755 0.411383
0.085283 0.120317 0.132113
0.101869 0.124880 0.137377
0.182361 0.144259 0.151125
0.320012 0.174456 0.173587
0.498772 0.219577 0.204395
0.702297 0.253819 0.244877
0.835782 0.318044 0.311803
0.927626 0.409384 0.411185
0.093294 0.206775 0.149813
0.123491 0.213794 0.157137
0.204715 0.228824 0.160449
0.350439 0.268742 0.171710
0.529122 0.307210 0.199619
0.721645 0.332631 0.244770
0.843076 0.379202 0.314916
0.930373 0.443351 0.411322
0.134447 0.371618 0.184695
0.165820 0.375036 0.186664
0.248997 0.387243 0.187671
0.384024 0.413199 0.194965
0.574533 0.441383 0.204807
0.749462 0.447181 0.241077
0.856580 0.465629 0.320241
0.936278 0.499031 0.413443
0.220035 0.560403 0.229236
0.233372 0.560922 0.229435
0.307713 0.565835 0.229435
0.428183 0.573724 0.234089
0.600519 0.576700 0.245151
0.761715 0.575494 0.277073
0.863981 0.566079 0.329824
0.945373 0.578271 0.418662
0.303883 0.700862 0.303243
0.322484 0.701915 0.303975
0.374777 0.704250 0.305135
0.478477 0.707836 0.310491
0.627421 0.706401 0.324697
0.766476 0.705882 0.347204
0.865049 0.692012 0.396155
0.949401 0.679484 0.451591
0.432273 0.804013 0.415351
0.445075 0.803815 0.415656
0.487083 0.802731 0.416129
0.562463 0.801724 0.420035
0.657954 0.799100 0.426963
0.761791 0.795865 0.441108
0.865324 0.794537 0.463035
0.948669 0.779278 0.508064
0.600458 0.872343 0.515206
0.604547 0.872267 0.515374
0.628748 0.872236 0.517525
0.669718 0.872648 0.522225
0.721401 0.873426 0.529030
0.787732 0.873426 0.541939
0.869978 0.870680 0.560571
0.953872 0.867399 0.582742
0.039094 0.123415 0.197070
0.070298 0.112856 0.197894
0.161395 0.123980 0.214878
0.306203 0.158770 0.264881
0.502922 0.196674 0.292348
0.707729 0.262913 0.335790
0.833936 0.347921 0.400382
0.921965 0.442939 0.471504
0.058961 0.144183 0.207004
0.084611 0.137804 0.210361
0.173938 0.151843 0.225055
0.322087 0.186038 0.263859
0.512749 0.231373 0.290196
0.708873 0.281788 0.334585
0.832883 0.359152 0.397101
0.922789 0.449470 0.471626
0.085496 0.215656 0.214344
0.119585 0.224277 0.222828
0.223072 0.247898 0.243549
0.367880 0.282399 0.263813
0.546136 0.318532 0.292622
0.722652 0.349264 0.333852
0.838651 0.407874 0.397452
0.926268 0.478035 0.472145
0.123323 0.377691 0.247623
0.159274 0.387915 0.254231
0.264378 0.409354 0.272908
0.404883 0.430228 0.280324
0.595438 0.446983 0.295460
0.749966 0.455360 0.335912
0.849806 0.481590 0.401022
0.933318 0.528298 0.473961
0.195605 0.567880 0.291524
0.233127 0.571481 0.302846
0.325673 0.578103 0.320211
0.446830 0.586221 0.325673
0.621439 0.586923 0.338277
0.766003 0.580102 0.362417
0.861891 0.575570 0.406241
0.941955 0.598611 0.475609
0.331075 0.706905 0.382284
0.346548 0.707363 0.384482
0.402838 0.709361 0.388754
0.501396 0.711879 0.391836
0.641306 0.709835 0.401022
0.771344 0.709270 0.418219
0.865019 0.696300 0.451331
0.948943 0.688685 0.496040
0.476005 0.801816 0.466621
0.487312 0.801617 0.467170
0.523934 0.800885 0.468208
0.591287 0.800015 0.470344
0.673869 0.798840 0.474754
0.769284 0.797131 0.486900
0.868544 0.796506 0.505425
0.948898 0.783841 0.544213
0.630777 0.869963 0.551385
0.633967 0.869978 0.551186
0.654185 0.870069 0.552255
0.689998 0.870832 0.556222
0.736233 0.872343 0.562692
0.796490 0.872908 0.573327
0.875670 0.870787 0.590677
0.954833 0.868757 0.612512
0.000000 0.141390 0.309957
0.007034 0.128267 0.313344
0.146105 0.128267 0.320623
0.293034 0.162280 0.348043
0.475013 0.235996 0.426093
0.690654 0.283619 0.456611
0.823804 0.390127 0.488930
0.913436 0.504372 0.544640
0.000000 0.177737 0.325155
0.001175 0.163439 0.328008
0.156573 0.156130 0.332845
0.310369 0.193713 0.362722
0.488624 0.260960 0.428672
0.696986 0.306767 0.454933
0.825513 0.410544 0.490715
0.914885 0.510185 0.544946
0.000580 0.272862 0.343679
0.065354 0.273564 0.350515
0.201419 0.265065 0.366735
0.355291 0.302419 0.395697
0.541802 0.344503 0.432044
0.722454 0.393225 0.457633
0.834089 0.468315 0.500221
0.919310 0.532479 0.545190
0.098543 0.390982 0.352865
0.147189 0.398169 0.360830
0.271794 0.425635 0.391943
0.435523 0.456504 0.423514
0.608743 0.466438 0.437964
0.747005 0.485588 0.463142
0.842725 0.520272 0.498390
0.925933 0.572976 0.545480
0.209415 0.566461 0.396948
0.237446 0.571023 0.402838
0.338766 0.587610 0.428931
0.484123 0.601022 0.452842
0.647334 0.600046 0.459327
0.771786 0.593301 0.471260
0.858488 0.602045 0.501717
0.936721 0.632548 0.548440
0.319753 0.708400 0.444114
0.340703 0.710597 0.448951
0.446372 0.715251 0.477440
0.554879 0.716793 0.490440
0.667079 0.715847 0.493507
0.778607 0.715068 0.503945
0.866575 0.705348 0.523659
0.947814 0.703258 0.557824
0.496407 0.801617 0.509743
0.520928 0.800992 0.517723
0.585535 0.799420 0.537835
0.638956 0.799664 0.541146
0.703029 0.800183 0.543648
0.783261 0.800366 0.552773
0.874037 0.800320 0.567010
0.948150 0.790723 0.596216
0.663981 0.868788 0.597177
0.674312 0.868483 0.601999
0.695949 0.868330 0.609827
0.719875 0.869688 0.609491
0.758389 0.871443 0.613718
0.810437 0.872953 0.621134
0.884276 0.871229 0.634470
0.955001 0.870253 0.651789
0.000580 0.181827 0.464530
0.000397 0.160647 0.466850
0.077104 0.149889 0.471321
0.279194 0.163623 0.476051
0.469490 0.224750 0.506813
0.667765 0.329809 0.553674
0.807202 0.427573 0.577524
0.902953 0.527520 0.612070
0.000198 0.217182 0.474342
0.001755 0.202045 0.476448
0.070954 0.178836 0.480278
0.289250 0.192676 0.483116
0.480232 0.253330 0.510735
0.673121 0.352956 0.554803
0.809949 0.442283 0.578317
0.904891 0.540673 0.614221
0.000198 0.330083 0.492714
0.008011 0.323812 0.495094
0.136767 0.290776 0.501488
0.326803 0.296101 0.504692
0.525506 0.350774 0.528069
0.698283 0.426581 0.558663
0.819165 0.494957 0.582071
0.908782 0.576852 0.618067
0.008209 0.452445 0.500191
0.071595 0.454292 0.503975
0.241199 0.461189 0.519036
0.416754 0.464759 0.535775
0.607340 0.499229 0.553582
0.738994 0.526497 0.566400
0.834089 0.571878 0.588144
0.915602 0.627207 0.623301
0.184482 0.570337 0.498482
0.229145 0.575341 0.503609
0.345571 0.588281 0.519509
0.524910 0.606821 0.547738
0.677653 0.616114 0.563256
0.771420 0.618326 0.570443
0.849821 0.636973 0.590112
0.927932 0.667460 0.623484
0.365011 0.702876 0.520989
0.388190 0.704891 0.525155
0.467491 0.710536 0.539788
0.600107 0.719097 0.569772
0.696513 0.723598 0.584314
0.788998 0.724437 0.591470
0.868879 0.716884 0.601846
0.942916 0.724056 0.630884
0.518929 0.795895 0.560311
0.533150 0.795956 0.563638
0.592508 0.796490 0.580407
0.676371 0.798367 0.609903
0.732952 0.801282 0.619242
0.797360 0.804105 0.624857
0.879881 0.805051 0.636942
0.948547 0.800809 0.654597
0.671107 0.865980 0.627359
0.678889 0.866026 0.630854
0.703319 0.866468 0.641962
0.753704 0.867948 0.667445
0.781659 0.870680 0.667475
0.827314 0.872633 0.671763
0.893858 0.872282 0.681712
0.956771 0.873060 0.695171
0.000000 0.238636 0.593484
0.000977 0.217670 0.594598
0.000778 0.189334 0.596231
0.253376 0.198673 0.599084
0.443061 0.232410 0.596719
0.662989 0.304768 0.619761
0.792828 0.458824 0.658900
0.889281 0.561608 0.684642
0.000397 0.268177 0.595499
0.001373 0.254871 0.596140
0.013886 0.215106 0.598352
0.258320 0.225803 0.600183
0.450416 0.257740 0.598001
0.671534 0.330022 0.622599
0.795361 0.473838 0.660227
0.891112 0.572824 0.685741
0.000580 0.378012 0.606973
0.001953 0.366980 0.607752
0.034302 0.326635 0.610559
0.288167 0.319753 0.612680
0.489036 0.347021 0.609812
0.695567 0.415213 0.631113
0.801877 0.524361 0.662974
0.895125 0.603632 0.687068
0.017014 0.492805 0.613077
0.053925 0.492622 0.614389
0.261219 0.497688 0.622324
0.375372 0.469871 0.629374
0.565835 0.483848 0.628931
0.728054 0.530755 0.645060
0.817289 0.598413 0.668742
0.905089 0.653437 0.691264
0.161273 0.613474 0.615702
0.199619 0.614344 0.617426
0.327215 0.617380 0.624857
0.502678 0.620722 0.638346
0.656565 0.618326 0.650248
0.761791 0.648508 0.661906
0.839216 0.674235 0.674937
0.919463 0.704982 0.696132
0.346807 0.706081 0.601801
0.381918 0.708385 0.605768
0.469291 0.712978 0.616693
0.608560 0.719173 0.637583
0.725414 0.730022 0.664149
0.802792 0.737789 0.677623
0.868254 0.736446 0.682307
0.936782 0.749340 0.700084
0.564294 0.790295 0.623743
0.577295 0.790448 0.626673
0.620707 0.791623 0.637369
0.692165 0.795575 0.659068
0.760311 0.803586 0.684108
0.816297 0.810422 0.694987
0.888365 0.812223 0.701274
0.950134 0.810971 0.710155
0.685481 0.862715 0.668528
0.692699 0.862882 0.671046
0.716548 0.863798 0.680034
0.758129 0.866392 0.696757
0.808118 0.870192 0.716777
0.849989 0.872969 0.723247
0.904997 0.874388 0.729061
0.957900 0.876219 0.739483
0.000397 0.299947 0.705470
0.001556 0.288136 0.705638
0.000198 0.251362 0.706630
0.191394 0.259297 0.705776
0.414344 0.279851 0.704173
0.619532 0.322911 0.696742
0.783078 0.428718 0.712001
0.880964 0.572397 0.739345
0.000977 0.326040 0.703059
0.001556 0.313802 0.703594
0.000000 0.273076 0.704677
0.197116 0.279301 0.704387
0.418647 0.298863 0.702800
0.622400 0.339986 0.695399
0.783719 0.441550 0.711406
0.881087 0.580407 0.739361
0.000977 0.417395 0.706584
0.002930 0.407874 0.707012
0.006455 0.375403 0.707927
0.236561 0.357763 0.708690
0.449668 0.375372 0.706523
0.646861 0.414084 0.699336
0.793820 0.495750 0.714870
0.884428 0.617472 0.741680
0.115709 0.532540 0.709651
0.167025 0.531655 0.709941
0.266819 0.522713 0.710689
0.344381 0.489311 0.713817
0.518334 0.492927 0.712978
0.686854 0.518105 0.708629
0.814328 0.582422 0.723339
0.893477 0.670390 0.746410
0.216648 0.626764 0.708248
0.241596 0.626429 0.708553
0.344289 0.625223 0.710445
0.506691 0.628046 0.714229
0.607172 0.608652 0.719036
0.729656 0.625635 0.717647
0.829358 0.671351 0.728573
0.906691 0.719692 0.750439
0.351736 0.736629 0.707118
0.373434 0.736339 0.707698
0.462638 0.735302 0.711009
0.582666 0.733013 0.716426
0.692927 0.731624 0.723964
0.782147 0.733669 0.733928
0.860426 0.752560 0.743298
0.928893 0.774136 0.758236
0.542351 0.796262 0.691508
0.561593 0.796567 0.693797
0.608454 0.797070 0.699611
0.683497 0.798947 0.711421
0.758450 0.804273 0.727565
0.835355 0.814725 0.747097
0.901915 0.822950 0.758877
0.948821 0.825834 0.764141
0.703075 0.858534 0.711208
0.707836 0.858793 0.712566
0.728298 0.860151 0.718914
0.767743 0.863371 0.731640
0.816465 0.868177 0.747662
0.873488 0.873335 0.766323
0.918410 0.877745 0.776288
0.958877 0.881682 0.783841
0.000198 0.361822 0.782849
0.000977 0.354910 0.782956
0.000778 0.328695 0.783810
0.139010 0.329458 0.782879
0.385962 0.351003 0.780926
0.585733 0.376288 0.777920
0.741512 0.446906 0.769360
0.866377 0.541604 0.777081
0.000977 0.384466 0.782620
0.001556 0.379446 0.782849
0.000778 0.347387 0.782376
0.143343 0.345266 0.782040
0.391089 0.364904 0.779629
0.588006 0.390219 0.776165
0.743389 0.457191 0.768856
0.868452 0.551186 0.777325
0.000397 0.459464 0.781216
0.001953 0.452903 0.781308
0.049516 0.431251 0.781476
0.210773 0.407614 0.782239
0.424888 0.425544 0.779599
0.611658 0.449210 0.776577
0.754711 0.502403 0.770169
0.874968 0.588327 0.779004
0.239368 0.565026 0.778988
0.250324 0.562066 0.779019
0.285496 0.546243 0.778943
0.348104 0.521492 0.781094
0.490028 0.515679 0.780743
0.649729 0.530541 0.778409
0.774548 0.573022 0.773037
0.888197 0.645060 0.783047
0.282704 0.638071 0.777768
0.299428 0.638346 0.777859
0.396307 0.640925 0.777966
0.514046 0.639994 0.778988
0.582147 0.615488 0.780621
0.690745 0.621653 0.779431
0.798383 0.655284 0.777005
0.905516 0.706401 0.788174
0.398611 0.734325 0.774823
0.413535 0.733776 0.774868
0.474922 0.731594 0.775555
0.569085 0.728130 0.777050
0.674098 0.729732 0.779400
0.742931 0.720394 0.784299
0.836713 0.739010 0.787274
0.924727 0.772625 0.797223
0.552972 0.822889 0.777478
0.565255 0.822690 0.777890
0.606226 0.821347 0.779263
0.668452 0.819944 0.782040
0.737697 0.819333 0.786496
0.810437 0.820050 0.793347
0.885100 0.820111 0.801022
0.943450 0.837705 0.809140
0.686351 0.873472 0.766278
0.694179 0.873137 0.767086
0.713512 0.872557 0.769284
0.753201 0.873152 0.775479
0.806851 0.874327 0.784894
0.869429 0.876005 0.797467
0.928481 0.880476 0.813489
0.960784 0.888441 0.828122
