content/luts/atmosphere/atmosphere_05.cube
#Created by: inPixio
#Copyright: (C) Copyright 2022 inPixio
TITLE "Atmosphere 5"
#LUT size
LUT_3D_SIZE 8
#data domain
#LUT data points
DOMAIN_MIN 0.000000 0.000000 0.000000
DOMAIN_MAX 0.903226 0.903226 0.903226
0.001556 0.001373 0.007630
0.039094 0.009796 0.015061
0.090364 0.018174 0.024826
0.159152 0.032883 0.033890
0.239002 0.041779 0.045823
0.344579 0.067445 0.060197
0.448814 0.070298 0.067582
0.584955 0.106157 0.088853
0.014862 0.041596 0.017792
0.050828 0.047440 0.021897
0.106706 0.059602 0.030488
0.178668 0.073915 0.042145
0.265126 0.089067 0.052781
0.367453 0.105867 0.066056
0.488182 0.125917 0.083909
0.606867 0.144259 0.094148
0.034501 0.100389 0.031281
0.070954 0.106157 0.034501
0.127108 0.116060 0.041047
0.203662 0.134142 0.050828
0.296376 0.153933 0.062516
0.407370 0.177218 0.081239
0.528054 0.199222 0.092287
0.647898 0.225849 0.114824
0.064225 0.177737 0.046555
0.095705 0.183398 0.048829
0.156695 0.193912 0.053437
0.233295 0.209842 0.063951
0.332448 0.235294 0.078325
0.445747 0.260807 0.091020
0.570596 0.289632 0.110094
0.682734 0.319280 0.128344
0.104051 0.277211 0.071214
0.130907 0.283253 0.073548
0.195453 0.295674 0.076982
0.271717 0.308171 0.079789
0.366674 0.328359 0.086839
0.486778 0.360617 0.106157
0.611383 0.396002 0.132647
0.714733 0.427512 0.146105
0.118608 0.387152 0.086961
0.159640 0.396658 0.091676
0.236881 0.415564 0.100496
0.320699 0.432395 0.108263
0.414847 0.449378 0.114824
0.528145 0.476356 0.126711
0.642908 0.511437 0.143694
0.747326 0.553338 0.175250
0.167269 0.524315 0.108537
0.198581 0.531365 0.111162
0.276661 0.548562 0.117739
0.365957 0.565438 0.123415
0.464546 0.582254 0.132952
0.573343 0.604318 0.152682
0.690395 0.647471 0.191135
0.796124 0.696895 0.234852
0.224064 0.659693 0.145968
0.253452 0.665110 0.149340
0.324468 0.677806 0.157275
0.423774 0.696345 0.170138
0.540093 0.723613 0.193545
0.654078 0.754955 0.223377
0.749935 0.782834 0.248554
0.838712 0.817578 0.297963
0.010010 0.008789 0.045090
0.041962 0.012299 0.048142
0.092790 0.020325 0.057389
0.164324 0.036515 0.071214
0.244175 0.044541 0.082765
0.353964 0.071870 0.101762
0.457862 0.074281 0.112413
0.596796 0.112062 0.135958
0.022477 0.046006 0.052140
0.058808 0.054902 0.060349
0.118074 0.068284 0.072251
0.192981 0.083452 0.085832
0.282841 0.099809 0.100389
0.386847 0.116640 0.114824
0.508476 0.136553 0.131823
0.626902 0.156954 0.149340
0.038514 0.103777 0.066056
0.082063 0.117479 0.076127
0.140307 0.127733 0.082872
0.219898 0.147051 0.096788
0.316167 0.168154 0.112505
0.427726 0.190509 0.129183
0.551476 0.214740 0.147189
0.665965 0.240360 0.166735
0.064378 0.183932 0.084947
0.106523 0.196872 0.093095
0.170947 0.208621 0.099214
0.249653 0.224674 0.108904
0.351339 0.250431 0.125841
0.468284 0.277623 0.144045
0.591150 0.306523 0.163684
0.700374 0.336645 0.184482
0.114824 0.289128 0.109545
0.141039 0.297597 0.114046
0.209659 0.311376 0.120882
0.288991 0.325368 0.128115
0.387976 0.347768 0.140963
0.509224 0.379812 0.161090
0.627894 0.412528 0.181384
0.731075 0.447272 0.204669
0.136400 0.403418 0.130907
0.176242 0.414466 0.136477
0.250828 0.432899 0.145434
0.336599 0.449958 0.153796
0.433143 0.467781 0.163439
0.547448 0.495598 0.179431
0.660426 0.531518 0.201755
0.763394 0.574350 0.233295
0.174853 0.542168 0.159579
0.211704 0.551080 0.164035
0.294163 0.568933 0.173816
0.386374 0.586145 0.183673
0.486168 0.602472 0.193912
0.595468 0.625834 0.211566
0.706966 0.665751 0.245151
0.808896 0.712840 0.290837
0.233509 0.672602 0.191135
0.262257 0.678355 0.195316
0.338170 0.691310 0.204486
0.441505 0.711437 0.221256
0.558648 0.739056 0.248142
0.669368 0.768704 0.277852
0.765927 0.798672 0.317647
0.851804 0.832303 0.367819
0.018967 0.016037 0.093721
0.050507 0.018769 0.096590
0.097520 0.023270 0.100786
0.167025 0.036515 0.115618
0.250553 0.047623 0.130694
0.357931 0.071595 0.151125
0.468086 0.079912 0.166735
0.601938 0.112322 0.191699
0.030304 0.055070 0.102647
0.068421 0.063951 0.111879
0.122271 0.071473 0.118517
0.198428 0.086961 0.134371
0.289952 0.103868 0.151583
0.396811 0.121782 0.169970
0.519463 0.142290 0.190158
0.637903 0.164279 0.211704
0.047623 0.110094 0.113207
0.086168 0.122103 0.123903
0.154772 0.141039 0.140307
0.237965 0.161090 0.157397
0.337560 0.183612 0.176883
0.452384 0.206958 0.196918
0.576440 0.232120 0.218662
0.687846 0.258824 0.241474
0.072129 0.188968 0.134218
0.114214 0.204715 0.146044
0.188037 0.225544 0.161151
0.269657 0.242420 0.173083
0.374212 0.269276 0.193454
0.494362 0.297383 0.215015
0.615152 0.327153 0.238193
0.720897 0.358251 0.262989
0.108263 0.293309 0.162158
0.148135 0.308721 0.172671
0.227924 0.331853 0.187625
0.309758 0.346349 0.196124
0.412253 0.369635 0.211933
0.534920 0.402518 0.235416
0.650660 0.436500 0.260166
0.750408 0.471656 0.286549
0.160327 0.420920 0.195316
0.196277 0.435309 0.204105
0.270039 0.456825 0.217090
0.358908 0.474723 0.227421
0.457832 0.492577 0.238590
0.572534 0.520989 0.258106
0.682872 0.557717 0.286153
0.785016 0.603143 0.325567
0.177401 0.548714 0.220569
0.217060 0.561318 0.228733
0.317250 0.593393 0.251362
0.409796 0.609659 0.262913
0.512764 0.626627 0.276463
0.622889 0.653025 0.301045
0.732128 0.693736 0.342763
0.830427 0.740200 0.398077
0.231998 0.681636 0.261357
0.265019 0.690486 0.269413
0.361578 0.713069 0.289418
0.471489 0.736355 0.313603
0.590295 0.765225 0.348211
0.698131 0.795270 0.388098
0.790158 0.823468 0.433112
0.870405 0.853971 0.486427
0.028153 0.023850 0.153338
0.060349 0.026581 0.156756
0.110002 0.031678 0.162036
0.170321 0.036912 0.167971
0.259724 0.055528 0.188602
0.360189 0.069123 0.207599
0.481209 0.089387 0.230488
0.604929 0.109636 0.253712
0.040665 0.064942 0.164447
0.078325 0.073793 0.174502
0.135027 0.080766 0.181827
0.202991 0.089281 0.190463
0.295705 0.106706 0.210498
0.404654 0.125841 0.232075
0.526436 0.145708 0.254307
0.644877 0.168444 0.278935
0.060060 0.122759 0.177630
0.098238 0.134814 0.189593
0.167208 0.152102 0.206149
0.245075 0.166491 0.219013
0.346975 0.189639 0.241474
0.463935 0.214206 0.265232
0.588235 0.240238 0.290303
0.698344 0.267918 0.317021
0.078447 0.195209 0.192157
0.119997 0.210498 0.205371
0.198779 0.236515 0.227756
0.289662 0.260670 0.248371
0.397711 0.288457 0.272099
0.520256 0.317617 0.297597
0.638209 0.348257 0.324559
0.740597 0.380255 0.353018
0.116136 0.298589 0.223072
0.155032 0.314214 0.235050
0.240955 0.346777 0.260166
0.331563 0.367880 0.275670
0.436912 0.391943 0.294225
0.560021 0.425788 0.321340
0.672175 0.460502 0.349950
0.768826 0.496407 0.380240
0.159396 0.426535 0.259907
0.192477 0.440360 0.270008
0.287038 0.476982 0.296452
0.382086 0.499565 0.312245
0.482414 0.516899 0.324697
0.595728 0.545327 0.347631
0.705318 0.584070 0.383063
0.806165 0.631617 0.431754
0.206775 0.566461 0.298589
0.248402 0.581964 0.311147
0.335058 0.613336 0.336873
0.433204 0.631815 0.353018
0.540032 0.650965 0.371695
0.650126 0.679973 0.404059
0.755673 0.720027 0.453300
0.849439 0.764996 0.515923
0.241352 0.688975 0.337743
0.283742 0.701488 0.350423
0.383887 0.731594 0.383551
0.502052 0.760159 0.418891
0.619379 0.788922 0.459724
0.722652 0.817746 0.505623
0.811154 0.844648 0.553491
0.887114 0.873198 0.604257
0.036515 0.032288 0.223850
0.071595 0.036316 0.229114
0.123323 0.040864 0.234608
0.187778 0.049348 0.242268
0.265675 0.058656 0.252644
0.363973 0.068986 0.272343
0.496559 0.101381 0.304402
0.606165 0.103960 0.322087
0.059907 0.077958 0.240513
0.090043 0.083909 0.248524
0.149279 0.091981 0.257450
0.217441 0.099123 0.264775
0.302052 0.110002 0.277348
0.412512 0.129915 0.302236
0.533318 0.148653 0.326436
0.649714 0.171069 0.353170
0.077348 0.137591 0.254917
0.111879 0.148791 0.267277
0.183673 0.167147 0.286549
0.258747 0.176700 0.295018
0.353368 0.193866 0.312490
0.471840 0.218875 0.339437
0.595514 0.245502 0.367865
0.704784 0.273289 0.397498
0.096086 0.212512 0.271412
0.132189 0.225406 0.283711
0.214923 0.252430 0.309697
0.304311 0.273426 0.329000
0.409217 0.297536 0.351309
0.533257 0.327779 0.380560
0.650492 0.359350 0.411215
0.751125 0.392386 0.443427
0.113039 0.301991 0.289982
0.159457 0.319707 0.305287
0.248661 0.353933 0.334936
0.349950 0.386069 0.362921
0.461692 0.414893 0.388052
0.584344 0.449622 0.419089
0.693141 0.485039 0.451545
0.786679 0.521599 0.486442
0.170550 0.433280 0.334310
0.209049 0.449714 0.347387
0.294789 0.485435 0.376181
0.402136 0.520867 0.405814
0.507698 0.541238 0.423240
0.618296 0.569207 0.449226
0.728313 0.611261 0.493828
0.825956 0.659739 0.549264
0.209979 0.573205 0.377264
0.243626 0.586343 0.388708
0.340291 0.618723 0.419577
0.453834 0.650355 0.451820
0.568795 0.676020 0.481468
0.676387 0.706157 0.519646
0.778180 0.745556 0.571695
0.867277 0.788647 0.630716
0.259510 0.698802 0.425132
0.300984 0.711467 0.440467
0.399100 0.743450 0.480461
0.532372 0.782284 0.534615
0.648249 0.811994 0.579080
0.746746 0.839475 0.622675
0.831235 0.864958 0.664958
0.902739 0.891051 0.708263
0.047105 0.041779 0.306081
0.081132 0.044541 0.311193
0.137377 0.050660 0.318669
0.202197 0.056153 0.325734
0.279332 0.063798 0.334096
0.378805 0.080278 0.351812
0.499062 0.098344 0.378714
0.614618 0.110369 0.403677
0.069780 0.088075 0.324086
0.102647 0.095705 0.335180
0.164096 0.103868 0.344793
0.234806 0.110903 0.352728
0.317556 0.119265 0.362005
0.417884 0.131960 0.378607
0.542687 0.153994 0.408026
0.658518 0.175952 0.437705
0.080644 0.148653 0.338018
0.124636 0.162341 0.354604
0.200534 0.182147 0.377905
0.278248 0.192310 0.387778
0.367575 0.203418 0.398505
0.479698 0.223545 0.421454
0.602777 0.250202 0.452812
0.710979 0.278767 0.486015
0.116396 0.231235 0.362951
0.149554 0.243748 0.376135
0.233219 0.270741 0.404715
0.325567 0.292653 0.426581
0.421286 0.306584 0.439323
0.540887 0.333547 0.467308
0.656901 0.365255 0.500954
0.756878 0.398367 0.534997
0.138094 0.324727 0.385168
0.172213 0.337835 0.397528
0.264485 0.371359 0.429557
0.368811 0.404547 0.461296
0.477821 0.429267 0.484459
0.597543 0.462760 0.516289
0.704662 0.498970 0.550439
0.797375 0.537057 0.585809
0.155688 0.431754 0.408804
0.204242 0.450843 0.425696
0.301747 0.492866 0.463035
0.411505 0.529809 0.497536
0.531640 0.564248 0.530907
0.640971 0.592660 0.558984
0.751263 0.638987 0.607477
0.845151 0.687221 0.658991
0.224491 0.581659 0.466163
0.261067 0.595209 0.479820
0.348669 0.626658 0.511803
0.465568 0.660563 0.548943
0.594888 0.700084 0.594308
0.701824 0.731914 0.632792
0.799481 0.770199 0.679744
0.884627 0.811383 0.731792
0.260273 0.703624 0.516426
0.300435 0.716091 0.531487
0.405493 0.749706 0.573465
0.543969 0.792737 0.629984
0.669612 0.830655 0.682338
0.770504 0.859937 0.725063
0.850446 0.883925 0.761532
0.917571 0.908049 0.797833
0.066056 0.051652 0.400626
0.091783 0.055833 0.404868
0.152483 0.062226 0.414893
0.223072 0.072389 0.425559
0.305394 0.082765 0.436759
0.393790 0.086503 0.444190
0.500511 0.095109 0.460472
0.633402 0.130541 0.501488
0.079912 0.098833 0.419028
0.115526 0.106340 0.430427
0.180682 0.116396 0.443671
0.253925 0.124147 0.453117
0.337942 0.132036 0.462654
0.434653 0.141253 0.473869
0.551263 0.158282 0.497078
0.665080 0.179751 0.528206
0.094255 0.164508 0.438178
0.135607 0.176013 0.453605
0.218250 0.197894 0.481270
0.298863 0.208911 0.492470
0.390448 0.220035 0.504204
0.493156 0.232166 0.516884
0.610117 0.255390 0.544228
0.717128 0.283574 0.576181
0.123903 0.247623 0.463493
0.161776 0.259907 0.477287
0.252506 0.290196 0.511482
0.347509 0.312398 0.534356
0.445350 0.326284 0.547356
0.551736 0.342214 0.561853
0.663615 0.371450 0.590829
0.761944 0.404471 0.622034
0.153597 0.344015 0.487800
0.189593 0.358190 0.502205
0.283543 0.392691 0.536858
0.391791 0.427192 0.569589
0.502297 0.452445 0.591196
0.605692 0.471077 0.606622
0.709941 0.505379 0.636027
0.803983 0.546822 0.671214
0.179538 0.457084 0.516930
0.217365 0.472389 0.530541
0.315145 0.509880 0.564462
0.428153 0.547005 0.597467
0.550332 0.582147 0.629160
0.657588 0.610925 0.655604
0.765927 0.657115 0.699992
0.857176 0.704814 0.746731
0.206912 0.578668 0.548165
0.254154 0.593973 0.563058
0.353536 0.631739 0.600076
0.475547 0.669154 0.638254
0.608103 0.712306 0.684245
0.725261 0.755489 0.731319
0.820783 0.794217 0.774426
0.900939 0.833097 0.818631
0.284352 0.715404 0.611933
0.320592 0.727871 0.626246
0.419410 0.761547 0.665690
0.557275 0.802762 0.715831
0.683253 0.841550 0.764233
0.787213 0.875410 0.808194
0.868086 0.901442 0.843015
0.930999 0.923690 0.872801
0.082292 0.061357 0.505638
0.109361 0.067735 0.511788
0.168566 0.073548 0.521294
0.239765 0.081712 0.530633
0.322179 0.089387 0.540337
0.416739 0.096788 0.550744
0.529244 0.116716 0.567346
0.636942 0.128191 0.587243
0.099611 0.111620 0.526268
0.126314 0.117311 0.535073
0.197116 0.129503 0.550927
0.273564 0.137804 0.560235
0.361578 0.147128 0.570672
0.458991 0.155428 0.580438
0.562600 0.164447 0.590295
0.672618 0.185779 0.615915
0.112581 0.179812 0.545708
0.152880 0.191241 0.559915
0.236957 0.214740 0.587640
0.319966 0.225803 0.598306
0.414069 0.237598 0.609094
0.518715 0.249912 0.620615
0.620813 0.263127 0.633143
0.723583 0.289082 0.659327
0.140230 0.265965 0.570428
0.177447 0.278447 0.583505
0.271611 0.309484 0.615137
0.370169 0.332662 0.636500
0.470695 0.347463 0.648295
0.575296 0.362448 0.660319
0.670665 0.378607 0.673228
0.767025 0.410971 0.700725
0.178561 0.370016 0.598718
0.208393 0.381827 0.609628
0.303670 0.414756 0.638422
0.415839 0.451347 0.668513
0.527321 0.476631 0.687633
0.626932 0.493950 0.700237
0.717708 0.515312 0.716259
0.811872 0.558785 0.749905
0.187930 0.475258 0.616419
0.227390 0.490288 0.628611
0.338048 0.535470 0.665003
0.452537 0.571099 0.693843
0.573037 0.604746 0.721447
0.681880 0.637186 0.749004
0.775952 0.670604 0.778271
0.864225 0.716197 0.818357
0.219944 0.598764 0.646662
0.264729 0.612528 0.658839
0.365667 0.644785 0.688121
0.496361 0.687282 0.727703
0.628901 0.731594 0.770291
0.743923 0.775113 0.813016
0.834928 0.811292 0.849012
0.909361 0.845090 0.882857
0.267277 0.713085 0.684215
0.319677 0.729000 0.701122
0.431617 0.769116 0.743832
0.564950 0.811429 0.790066
0.691447 0.849928 0.833478
0.795651 0.883619 0.872145
0.879881 0.913436 0.906066
0.944015 0.938094 0.933791
