content/luts/atmosphere/atmosphere_01.cube
#Created by: inPixio
#Copyright: (C) Copyright 2022 inPixio
TITLE "Atmosphere 1"
#LUT size
LUT_3D_SIZE 32
#data domain
DOMAIN_MIN 0.0 0.0 0.0
DOMAIN_MAX 1.0 1.0 1.0
#LUT data points
0.135317 0.135317 0.135317
0.139010 0.135744 0.135393
0.144396 0.135882 0.135454
0.155428 0.136248 0.135607
0.171298 0.135958 0.135668
0.188357 0.135454 0.135821
0.205951 0.135241 0.135958
0.224369 0.135668 0.136400
0.245777 0.134447 0.136767
0.268284 0.134508 0.136690
0.293187 0.133928 0.136614
0.320211 0.132418 0.136690
0.351675 0.132113 0.135821
0.387366 0.128878 0.134875
0.426795 0.125689 0.134295
0.470848 0.122515 0.133471
0.521737 0.111162 0.131441
0.578637 0.103578 0.126558
0.639124 0.085054 0.120073
0.700862 0.049683 0.112764
0.759960 0.030304 0.104891
0.810376 0.016815 0.097932
0.853330 0.001556 0.088624
0.888686 0.002350 0.080400
0.917388 0.009796 0.074540
0.938598 0.000000 0.073289
0.956817 0.000000 0.074662
0.972503 0.000000 0.075151
0.985840 0.000198 0.074037
0.996078 0.000000 0.076005
0.999313 0.007034 0.079301
1.000000 0.007431 0.083574
0.136690 0.139086 0.135821
0.139361 0.138811 0.135882
0.145632 0.139010 0.135882
0.155489 0.139284 0.135958
0.171008 0.139498 0.135958
0.188251 0.139086 0.136095
0.206149 0.138598 0.136400
0.224582 0.138659 0.136477
0.245350 0.138445 0.136553
0.268391 0.137224 0.136767
0.293217 0.136919 0.136553
0.320363 0.136919 0.136248
0.351583 0.134295 0.135454
0.387320 0.133318 0.135180
0.427024 0.130144 0.134737
0.471489 0.124300 0.133852
0.521492 0.120241 0.131060
0.578607 0.108629 0.126162
0.639323 0.091020 0.119661
0.700938 0.069902 0.112856
0.760403 0.039689 0.105379
0.810544 0.040269 0.097093
0.853452 0.002731 0.087739
0.888518 0.003326 0.079301
0.917159 0.032486 0.074037
0.938689 0.000000 0.073671
0.956771 0.000198 0.074907
0.972473 0.002731 0.074159
0.985748 0.000000 0.073167
0.996155 0.020142 0.075273
0.999344 0.009583 0.079667
1.000000 0.009796 0.083803
0.136095 0.144945 0.136095
0.139635 0.144671 0.136248
0.145632 0.144259 0.136248
0.156512 0.144610 0.136248
0.170840 0.145510 0.136095
0.187930 0.145296 0.136095
0.205951 0.144610 0.136324
0.224842 0.143908 0.136690
0.245350 0.143145 0.136614
0.268238 0.143206 0.136553
0.293309 0.142580 0.136172
0.320897 0.141314 0.135744
0.351537 0.141177 0.135744
0.387396 0.139361 0.135744
0.427527 0.135668 0.135241
0.471565 0.132647 0.133700
0.521340 0.129915 0.130617
0.578973 0.117998 0.125612
0.639612 0.108171 0.119753
0.701183 0.088746 0.113039
0.760769 0.049348 0.105669
0.810819 0.068009 0.095598
0.853346 0.030884 0.086275
0.888411 0.012909 0.078691
0.916991 0.054582 0.073793
0.938781 0.000000 0.074281
0.956710 0.023651 0.073548
0.972335 0.025223 0.072389
0.985626 0.000198 0.072648
0.996292 0.047959 0.074037
0.999374 0.012085 0.080156
1.000000 0.012299 0.084138
0.136477 0.156313 0.136248
0.139361 0.156191 0.136248
0.145831 0.156008 0.136324
0.157015 0.155612 0.136248
0.171191 0.155352 0.136400
0.187518 0.155428 0.136324
0.205814 0.154650 0.136248
0.224842 0.153933 0.136248
0.245274 0.153338 0.136172
0.268238 0.151965 0.136172
0.293507 0.151965 0.136172
0.321157 0.151904 0.136400
0.351736 0.151385 0.136614
0.387839 0.149279 0.136400
0.427771 0.148592 0.135027
0.472282 0.146578 0.133028
0.521691 0.141589 0.130236
0.579263 0.137453 0.125444
0.640147 0.128954 0.120073
0.701610 0.111254 0.113115
0.760647 0.096590 0.103777
0.811368 0.096483 0.093294
0.853300 0.068421 0.084611
0.888518 0.052140 0.077348
0.916686 0.078569 0.073548
0.938674 0.028733 0.073793
0.956634 0.058961 0.070695
0.972137 0.054902 0.069902
0.985611 0.017014 0.071870
0.996445 0.076127 0.073915
0.999283 0.037522 0.080156
1.000000 0.049683 0.082643
0.135744 0.171527 0.135668
0.140444 0.171420 0.135668
0.145907 0.171420 0.135607
0.155489 0.171237 0.135668
0.171069 0.170550 0.135744
0.187778 0.169863 0.135744
0.205280 0.168856 0.135882
0.224842 0.167849 0.136095
0.245472 0.167269 0.136553
0.267918 0.166552 0.136996
0.293751 0.165759 0.137224
0.321889 0.165576 0.137072
0.352529 0.166186 0.136843
0.387594 0.166430 0.135958
0.428306 0.165271 0.134661
0.473274 0.164614 0.132647
0.523018 0.163378 0.129915
0.579873 0.160769 0.125841
0.641215 0.154391 0.119753
0.702083 0.150088 0.110994
0.760403 0.141314 0.100877
0.811872 0.130907 0.091020
0.853727 0.121614 0.081483
0.888350 0.110094 0.075883
0.916350 0.102937 0.072908
0.938674 0.097826 0.069123
0.956573 0.091234 0.066880
0.971923 0.085832 0.067872
0.985473 0.082994 0.068711
0.996628 0.104051 0.073548
0.999176 0.078691 0.079057
1.000000 0.087297 0.080522
0.135531 0.188403 0.135531
0.138598 0.188403 0.135607
0.144808 0.188296 0.135668
0.155291 0.188144 0.135821
0.168689 0.187823 0.135958
0.186709 0.187030 0.136172
0.205371 0.186099 0.136477
0.224674 0.184970 0.136843
0.245747 0.184161 0.137224
0.268284 0.183780 0.137530
0.293477 0.183673 0.137530
0.322255 0.183719 0.137301
0.353735 0.184268 0.136843
0.387915 0.185733 0.136034
0.428672 0.187030 0.134737
0.474434 0.187350 0.133028
0.525063 0.187091 0.130144
0.580682 0.187884 0.124880
0.641917 0.187625 0.117144
0.702678 0.184314 0.108446
0.760769 0.180514 0.098039
0.812833 0.174624 0.086961
0.854261 0.167315 0.079057
0.888106 0.159152 0.072786
0.916091 0.153277 0.066606
0.938689 0.148196 0.063233
0.956252 0.143343 0.062226
0.971664 0.139147 0.062654
0.985077 0.135027 0.066194
0.996735 0.133104 0.072648
0.999405 0.129595 0.075273
1.000000 0.130907 0.077714
0.136172 0.206684 0.136172
0.139086 0.206638 0.136095
0.143145 0.206592 0.136172
0.152819 0.206485 0.136324
0.167681 0.206195 0.136553
0.184268 0.205860 0.136767
0.204105 0.205097 0.136996
0.224445 0.204395 0.137224
0.245823 0.203616 0.137453
0.269062 0.203372 0.137591
0.293950 0.203616 0.137591
0.322377 0.204578 0.137453
0.354528 0.205860 0.137301
0.389853 0.207370 0.136843
0.429374 0.209979 0.135241
0.475349 0.213016 0.132342
0.526391 0.215381 0.128649
0.582193 0.217487 0.123415
0.643320 0.219501 0.115084
0.703899 0.220783 0.104601
0.761227 0.218753 0.094255
0.813550 0.214969 0.084138
0.854841 0.210636 0.073289
0.888197 0.205478 0.064378
0.915496 0.199374 0.059129
0.938338 0.193759 0.054093
0.956069 0.189014 0.050172
0.971237 0.183780 0.056458
0.984604 0.179599 0.062089
0.995728 0.176638 0.066880
0.999527 0.173419 0.071733
1.000000 0.173358 0.075029
0.135027 0.226322 0.136172
0.137591 0.226322 0.136095
0.143984 0.226276 0.136095
0.152361 0.226230 0.136095
0.165759 0.226062 0.136034
0.183337 0.225895 0.136248
0.202548 0.225635 0.136477
0.223682 0.225101 0.136919
0.245579 0.224674 0.137377
0.269551 0.224704 0.137667
0.295110 0.225452 0.137591
0.322744 0.226825 0.137957
0.354971 0.229358 0.138094
0.390936 0.231952 0.137148
0.430335 0.235172 0.135744
0.476463 0.239567 0.132189
0.528100 0.244877 0.127031
0.584161 0.249500 0.120241
0.644648 0.253773 0.111879
0.705364 0.255863 0.101473
0.762020 0.257450 0.089067
0.813214 0.256001 0.076860
0.856092 0.252461 0.064378
0.888167 0.247379 0.054261
0.915129 0.241947 0.041230
0.937514 0.236606 0.033494
0.955718 0.230228 0.039689
0.970794 0.225223 0.045823
0.984039 0.220127 0.053773
0.994492 0.215656 0.061357
0.999359 0.212329 0.065354
1.000000 0.210407 0.070039
0.132189 0.248066 0.136843
0.136172 0.248096 0.136843
0.141939 0.248142 0.136996
0.150668 0.248173 0.137072
0.164920 0.248096 0.137224
0.181659 0.248096 0.137530
0.201556 0.248096 0.137804
0.222904 0.248096 0.138170
0.245853 0.247791 0.138445
0.269337 0.247578 0.139010
0.295964 0.248859 0.138598
0.324285 0.250980 0.137957
0.355795 0.253712 0.137301
0.391959 0.258213 0.136095
0.432258 0.262623 0.133623
0.476478 0.268132 0.130465
0.529671 0.274754 0.124956
0.586374 0.282307 0.117556
0.646418 0.288335 0.108721
0.707546 0.293477 0.096895
0.763088 0.295079 0.084031
0.813199 0.295674 0.065354
0.856504 0.293813 0.042878
0.888518 0.289418 0.027756
0.914550 0.283223 0.020523
0.936812 0.276829 0.014862
0.955398 0.270634 0.023850
0.970260 0.264042 0.032685
0.983307 0.258442 0.040864
0.993927 0.253300 0.048829
0.999786 0.249226 0.053269
0.999970 0.245853 0.064652
0.132189 0.272236 0.137224
0.135821 0.272236 0.137148
0.139574 0.272343 0.137148
0.148928 0.272343 0.137072
0.162646 0.272450 0.137072
0.180835 0.272511 0.137072
0.200977 0.272648 0.136919
0.222995 0.272801 0.136843
0.246449 0.273045 0.136690
0.270802 0.273106 0.136553
0.295903 0.273320 0.136324
0.325628 0.276173 0.135882
0.357458 0.279896 0.135103
0.393378 0.284779 0.134371
0.434272 0.291432 0.133028
0.479789 0.297932 0.129748
0.530709 0.306203 0.124712
0.588968 0.314656 0.116060
0.648707 0.324086 0.103777
0.709545 0.331212 0.088746
0.764630 0.335485 0.065080
0.813123 0.336080 0.037919
0.855634 0.334402 0.013291
0.888686 0.329671 0.008789
0.914397 0.322972 0.006653
0.936019 0.315999 0.011246
0.954589 0.308843 0.012909
0.969726 0.302754 0.020142
0.982635 0.296040 0.015061
0.992645 0.290456 0.023850
0.999573 0.284611 0.043610
1.000000 0.279927 0.058656
0.131670 0.299245 0.136477
0.134814 0.299306 0.136477
0.138232 0.299397 0.136553
0.147601 0.299519 0.136324
0.161090 0.299702 0.136477
0.179370 0.300008 0.136553
0.200641 0.300282 0.136614
0.223590 0.300740 0.136767
0.247623 0.301167 0.136996
0.273045 0.301625 0.137148
0.299306 0.302205 0.137148
0.326711 0.303029 0.137148
0.359823 0.307118 0.135454
0.395300 0.312932 0.132876
0.436484 0.320302 0.129992
0.482582 0.329671 0.125612
0.533501 0.338949 0.118685
0.590356 0.350317 0.108537
0.650614 0.360189 0.094041
0.710750 0.369635 0.075517
0.766384 0.374548 0.049683
0.814267 0.375662 0.026978
0.854963 0.373388 0.007233
0.889159 0.368902 0.003708
0.914168 0.362600 0.002548
0.935271 0.355322 0.002350
0.953430 0.348455 0.003906
0.969131 0.341100 0.001175
0.981857 0.333333 0.002930
0.992432 0.325399 0.014862
0.998795 0.318898 0.035920
0.999878 0.313069 0.053269
0.120241 0.329748 0.136248
0.126482 0.329885 0.135958
0.133852 0.330022 0.135744
0.144320 0.330221 0.135668
0.157656 0.330510 0.135607
0.178073 0.330861 0.135317
0.200107 0.331350 0.135027
0.223850 0.331991 0.134737
0.250019 0.332677 0.134142
0.275837 0.333440 0.133700
0.303517 0.334203 0.133028
0.331914 0.335393 0.132418
0.361761 0.336782 0.131518
0.398276 0.342763 0.128496
0.438315 0.350958 0.124056
0.485496 0.361425 0.119188
0.537240 0.373358 0.112581
0.593362 0.385290 0.102647
0.653483 0.397375 0.087297
0.712215 0.406165 0.068421
0.768444 0.413733 0.034302
0.815656 0.415549 0.011246
0.854887 0.413779 0.004883
0.887602 0.409476 0.000397
0.914138 0.402899 0.000000
0.934463 0.394858 0.000000
0.952422 0.385733 0.001175
0.968032 0.377340 0.002930
0.981064 0.368475 0.005859
0.991394 0.360754 0.021500
0.998367 0.353063 0.017594
1.000000 0.347295 0.026383
0.115526 0.364370 0.132036
0.118776 0.364492 0.132036
0.124880 0.364584 0.131960
0.136034 0.364813 0.131823
0.154650 0.365179 0.131594
0.175143 0.365683 0.131365
0.199420 0.366430 0.130831
0.225315 0.367269 0.130617
0.251820 0.368231 0.130312
0.280461 0.369360 0.129824
0.308446 0.370550 0.129351
0.338582 0.371771 0.128725
0.369406 0.373556 0.127733
0.402670 0.376288 0.126238
0.442969 0.383642 0.121691
0.487984 0.394644 0.114473
0.541161 0.408194 0.104051
0.597406 0.422355 0.089830
0.656779 0.435859 0.067872
0.714534 0.446311 0.036316
0.768307 0.453025 0.009583
0.817975 0.456992 0.000000
0.855131 0.454246 0.000000
0.886778 0.448600 0.000000
0.913130 0.441291 0.000580
0.933974 0.432059 0.000977
0.951415 0.422934 0.002930
0.966781 0.413657 0.001953
0.980163 0.405127 0.002152
0.991028 0.396292 0.000397
0.996979 0.388113 0.003326
1.000000 0.381323 0.007630
0.111620 0.403769 0.127886
0.116808 0.403937 0.127810
0.122515 0.404074 0.127657
0.130312 0.404349 0.127565
0.147601 0.404761 0.127184
0.171298 0.405402 0.126635
0.197223 0.406302 0.126085
0.225055 0.407370 0.125292
0.254948 0.408576 0.124147
0.283650 0.410010 0.123003
0.315465 0.411505 0.121614
0.345876 0.413230 0.120470
0.378973 0.414908 0.118853
0.412680 0.417609 0.116564
0.449180 0.421408 0.113039
0.493248 0.430518 0.105196
0.544625 0.444709 0.091463
0.601740 0.460258 0.068986
0.660288 0.474968 0.043427
0.718425 0.486870 0.014862
0.770123 0.493126 0.004105
0.816831 0.495674 0.000000
0.856230 0.493996 0.000000
0.886275 0.487968 0.000000
0.911818 0.480049 0.000198
0.933257 0.471199 0.000198
0.950378 0.460914 0.000000
0.965362 0.450996 0.000000
0.978790 0.440818 0.000000
0.990112 0.431098 0.000778
0.997360 0.421210 0.008988
1.000000 0.414847 0.020325
0.072648 0.448295 0.119753
0.086961 0.448539 0.119509
0.101381 0.448768 0.119188
0.119097 0.449180 0.118776
0.139635 0.449729 0.118074
0.163012 0.450523 0.117479
0.195407 0.451515 0.116472
0.225986 0.452766 0.114992
0.256825 0.454292 0.113466
0.290333 0.456031 0.111345
0.322377 0.457878 0.109087
0.356420 0.459999 0.106432
0.390051 0.462104 0.103670
0.425635 0.464591 0.100694
0.462165 0.467994 0.096895
0.502815 0.473350 0.090700
0.549828 0.483040 0.077470
0.606333 0.499764 0.042512
0.664134 0.514809 0.015061
0.721370 0.527672 0.000397
0.773022 0.534936 0.000000
0.817289 0.536477 0.000000
0.855818 0.534493 0.000198
0.885908 0.527779 0.000198
0.910521 0.519020 0.000198
0.931762 0.509010 0.000198
0.949508 0.498268 0.000000
0.964172 0.486824 0.000000
0.977203 0.475959 0.003128
0.988937 0.465248 0.001953
0.996811 0.455177 0.004303
0.999802 0.448341 0.000000
0.050828 0.499107 0.104143
0.056001 0.499275 0.103960
0.061646 0.499413 0.103777
0.079057 0.499748 0.102937
0.117052 0.500588 0.101869
0.152880 0.501625 0.100694
0.187823 0.502815 0.099413
0.224628 0.504326 0.097307
0.259770 0.506111 0.095109
0.293950 0.508171 0.092485
0.331151 0.510338 0.087968
0.365911 0.512795 0.084031
0.403037 0.515419 0.076493
0.439963 0.518227 0.070954
0.478615 0.521233 0.065080
0.518380 0.525307 0.057862
0.562417 0.531289 0.034104
0.610712 0.540612 0.011246
0.668452 0.556298 0.001373
0.723461 0.568399 0.000000
0.775433 0.576623 0.000000
0.818906 0.578012 0.000000
0.855177 0.574548 0.000000
0.886122 0.567819 0.000000
0.909560 0.557519 0.000000
0.930144 0.546670 0.000000
0.948135 0.535256 0.000000
0.962982 0.523232 0.000198
0.975738 0.511360 0.000198
0.987045 0.499870 0.000198
0.996628 0.488716 0.000198
0.999420 0.481086 0.000000
0.053269 0.557351 0.079789
0.060929 0.557519 0.079301
0.071992 0.557733 0.078691
0.087510 0.558068 0.078080
0.104891 0.558587 0.077104
0.134661 0.559381 0.075883
0.179263 0.560647 0.072786
0.220340 0.562158 0.069123
0.259220 0.563958 0.064378
0.299397 0.565866 0.061067
0.337728 0.568109 0.052781
0.376944 0.570504 0.044358
0.415778 0.573159 0.031876
0.455268 0.575998 0.027375
0.495537 0.578943 0.021897
0.536339 0.582101 0.017197
0.578668 0.586099 0.007233
0.624384 0.592172 0.002152
0.672343 0.599329 0.000000
0.726268 0.610834 0.000198
0.775998 0.617823 0.000000
0.820966 0.620340 0.000198
0.855467 0.614908 0.000000
0.884749 0.606882 0.000000
0.909545 0.596521 0.000198
0.928817 0.584329 0.000000
0.946197 0.571771 0.000000
0.961639 0.559258 0.000000
0.974289 0.546609 0.000000
0.985596 0.534264 0.000000
0.994827 0.522545 0.004501
0.998825 0.512978 0.006455
0.035309 0.618677 0.002731
0.057862 0.618906 0.002548
0.077836 0.619150 0.002350
0.100588 0.619532 0.001953
0.124636 0.620111 0.002930
0.149813 0.620829 0.004105
0.175296 0.621759 0.005478
0.217090 0.623072 0.005859
0.260563 0.624674 0.007431
0.302297 0.626520 0.008988
0.344686 0.628336 0.007630
0.385077 0.630579 0.003326
0.426642 0.632776 0.000580
0.467765 0.635218 0.000198
0.509499 0.637766 0.000000
0.551751 0.640330 0.000198
0.594522 0.643137 0.000397
0.638224 0.646387 0.000000
0.684276 0.650843 0.000000
0.730465 0.655360 0.000198
0.777676 0.659770 0.000198
0.820447 0.660700 0.000000
0.855879 0.656031 0.000000
0.883742 0.646204 0.000000
0.907713 0.635096 0.000198
0.927962 0.622339 0.000000
0.944518 0.608972 0.000198
0.959548 0.595254 0.000000
0.972747 0.581674 0.000198
0.983917 0.568093 0.000000
0.993271 0.555200 0.000198
0.999588 0.543526 0.000000
0.000000 0.681544 0.000198
0.000000 0.681621 0.000198
0.000000 0.681743 0.000198
0.011673 0.682017 0.000397
0.072786 0.682551 0.000198
0.119509 0.683299 0.000000
0.164324 0.684108 0.000000
0.207874 0.684993 0.000198
0.252873 0.685969 0.000000
0.300954 0.686946 0.000000
0.345419 0.688182 0.000000
0.389700 0.689281 0.000000
0.433143 0.690776 0.000000
0.475898 0.692302 0.000000
0.519280 0.693706 0.000198
0.561868 0.695415 0.000000
0.605219 0.696880 0.000000
0.648295 0.698665 0.000000
0.691890 0.700328 0.000000
0.736462 0.702831 0.000198
0.780758 0.704830 0.000000
0.819593 0.702159 0.000198
0.855146 0.696712 0.000000
0.882979 0.686412 0.000000
0.906127 0.673014 0.000000
0.926253 0.659556 0.000198
0.943236 0.644678 0.000000
0.957733 0.630304 0.000000
0.970840 0.615793 0.000000
0.982223 0.601968 0.000000
0.991867 0.588052 0.000000
0.998169 0.578119 0.000000
0.006256 0.737911 0.000000
0.007431 0.738033 0.000000
0.008988 0.738125 0.000000
0.010834 0.738338 0.000000
0.013886 0.738613 0.000000
0.021698 0.738964 0.000000
0.119265 0.739620 0.000000
0.188922 0.740322 0.000000
0.246021 0.741009 0.000000
0.297810 0.741543 0.000198
0.345495 0.742046 0.000000
0.391135 0.742565 0.000000
0.435813 0.742992 0.000000
0.479744 0.743587 0.000198
0.523018 0.744213 0.000198
0.565972 0.744564 0.000000
0.608988 0.745174 0.000000
0.651682 0.745464 0.000000
0.694682 0.746044 0.000198
0.737362 0.746426 0.000000
0.780346 0.746639 0.000397
0.821881 0.745907 0.000198
0.853605 0.736858 0.000000
0.882246 0.726009 0.000000
0.904814 0.712001 0.000000
0.924239 0.696620 0.000000
0.941466 0.681697 0.000000
0.956024 0.665843 0.000000
0.968765 0.651087 0.000000
0.980407 0.635844 0.000000
0.990295 0.621347 0.000198
0.996735 0.610925 0.000000
0.002930 0.787015 0.000000
0.007431 0.787106 0.000000
0.016037 0.787167 0.000000
0.026978 0.787350 0.000000
0.065492 0.787549 0.000000
0.099123 0.787793 0.000000
0.129748 0.788113 0.000000
0.164385 0.788525 0.000000
0.232044 0.788861 0.000000
0.286931 0.789242 0.000000
0.336980 0.789380 0.000000
0.385275 0.789090 0.000000
0.431403 0.788708 0.000000
0.476051 0.788205 0.000000
0.520348 0.787533 0.000198
0.563302 0.786954 0.000000
0.606134 0.786069 0.000000
0.648417 0.785473 0.000000
0.690227 0.784421 0.000000
0.732158 0.783749 0.000000
0.773282 0.782651 0.000198
0.813336 0.780591 0.000000
0.852110 0.777524 0.000000
0.879622 0.765713 0.000000
0.903441 0.751003 0.000000
0.922362 0.734737 0.000198
0.939208 0.717723 0.000198
0.954284 0.701442 0.000198
0.966781 0.684611 0.000000
0.978180 0.668971 0.000000
0.988510 0.653254 0.000000
0.994675 0.643000 0.000000
0.000000 0.826856 0.000000
0.000000 0.826902 0.000000
0.000000 0.826932 0.000000
0.016037 0.826963 0.000198
0.055528 0.827024 0.000000
0.103029 0.826978 0.000000
0.147860 0.826856 0.000000
0.187411 0.826764 0.000000
0.227039 0.826642 0.000198
0.276661 0.826520 0.000000
0.328832 0.826261 0.000000
0.377813 0.825879 0.000000
0.424048 0.824994 0.000198
0.469261 0.823789 0.000198
0.513130 0.822492 0.000198
0.555703 0.821088 0.000000
0.598230 0.819608 0.000000
0.639338 0.817945 0.000000
0.680903 0.816312 0.000000
0.721004 0.814481 0.000198
0.761746 0.812711 0.000198
0.801099 0.810620 0.000000
0.839368 0.807126 0.000000
0.875303 0.802441 0.000000
0.900588 0.789075 0.000198
0.920714 0.772061 0.000000
0.937057 0.754299 0.000000
0.951843 0.736507 0.000000
0.964889 0.719448 0.000000
0.975998 0.702342 0.000000
0.985901 0.686702 0.000198
0.994293 0.672068 0.000000
0.000580 0.857725 0.000000
0.000198 0.857694 0.000000
0.000000 0.857679 0.000000
0.000198 0.857603 0.000000
0.000000 0.857542 0.000000
0.000198 0.857450 0.000000
0.068711 0.857237 0.000000
0.139574 0.856855 0.000198
0.209094 0.856352 0.000000
0.265965 0.855787 0.000000
0.317464 0.855192 0.000000
0.367010 0.854368 0.000000
0.413245 0.853483 0.000000
0.457878 0.852308 0.000000
0.501701 0.850584 0.000000
0.543999 0.848798 0.000198
0.585794 0.846784 0.000198
0.626734 0.844770 0.000198
0.666865 0.842496 0.000198
0.706890 0.840299 0.000198
0.745968 0.837827 0.000198
0.784955 0.835355 0.000000
0.823026 0.832609 0.000000
0.859114 0.828321 0.000000
0.893355 0.822675 0.000198
0.917281 0.809186 0.000198
0.934722 0.790509 0.000000
0.949294 0.771985 0.000000
0.962448 0.753521 0.000000
0.973938 0.735744 0.000000
0.983825 0.718303 0.000000
0.991043 0.705409 0.000000
0.000198 0.882689 0.000198
0.000198 0.882628 0.000000
0.000198 0.882551 0.000000
0.011673 0.882399 0.000000
0.033692 0.882155 0.000000
0.059129 0.881834 0.000000
0.084367 0.881422 0.000000
0.119509 0.880964 0.000000
0.185672 0.880324 0.000000
0.248707 0.879545 0.000000
0.304189 0.878554 0.000000
0.353414 0.877516 0.000000
0.400137 0.876310 0.000000
0.444953 0.874983 0.000198
0.487923 0.873503 0.000198
0.530175 0.871489 0.000000
0.571649 0.869307 0.000000
0.611536 0.867002 0.000000
0.651667 0.864546 0.000000
0.690318 0.861997 0.000000
0.729137 0.859281 0.000000
0.766705 0.856474 0.000000
0.804334 0.853483 0.000198
0.840818 0.850385 0.000198
0.875715 0.845716 0.000000
0.907256 0.838880 0.000198
0.930785 0.825834 0.000000
0.946395 0.806760 0.000000
0.959701 0.787717 0.000000
0.971481 0.768841 0.000198
0.981598 0.750561 0.000000
0.987945 0.738399 0.000000
0.000000 0.902678 0.000000
0.000000 0.902632 0.000198
0.000000 0.902602 0.000000
0.013687 0.902403 0.000000
0.033082 0.902098 0.000000
0.063096 0.901701 0.000000
0.109361 0.901198 0.000000
0.157656 0.900481 0.000000
0.199374 0.899672 0.000000
0.239765 0.898756 0.000000
0.295399 0.897673 0.000000
0.343755 0.896468 0.000000
0.389426 0.895125 0.000198
0.433906 0.893614 0.000198
0.475776 0.892012 0.000198
0.516777 0.890288 0.000000
0.557107 0.888121 0.000198
0.596597 0.885725 0.000000
0.635142 0.883207 0.000000
0.673350 0.880568 0.000000
0.710903 0.877760 0.000000
0.747845 0.874830 0.000000
0.784329 0.871748 0.000000
0.820279 0.868574 0.000000
0.855741 0.865187 0.000198
0.889036 0.860243 0.000000
0.919066 0.852979 0.000000
0.942397 0.840650 0.000000
0.956481 0.821195 0.000000
0.968566 0.801770 0.000000
0.978973 0.782986 0.000000
0.986099 0.768475 0.000000
0.000000 0.919005 0.000198
0.000000 0.918929 0.000000
0.000198 0.918837 0.000198
0.000977 0.918685 0.000198
0.001953 0.918502 0.000198
0.003906 0.918242 0.000198
0.061936 0.917739 0.000000
0.123079 0.917037 0.000000
0.175189 0.916182 0.000000
0.227512 0.915175 0.000000
0.280247 0.914076 0.000000
0.329122 0.912810 0.000000
0.375204 0.911391 0.000000
0.418479 0.909819 0.000000
0.460136 0.908156 0.000000
0.501167 0.906279 0.000000
0.540551 0.904295 0.000000
0.579446 0.902022 0.000000
0.617914 0.899443 0.000000
0.655146 0.896742 0.000000
0.692485 0.893874 0.000000
0.728634 0.890868 0.000000
0.764462 0.887755 0.000000
0.799588 0.884520 0.000000
0.834196 0.881132 0.000000
0.868147 0.877653 0.000198
0.900435 0.872770 0.000000
0.928847 0.865232 0.000198
0.952438 0.854032 0.000000
0.965072 0.834363 0.000198
0.975891 0.815107 0.000198
0.984405 0.798016 0.000198
0.001755 0.932952 0.000000
0.001755 0.932860 0.000000
0.003128 0.932738 0.000000
0.004303 0.932570 0.000198
0.010208 0.932372 0.000198
0.047959 0.931914 0.000000
0.081590 0.931411 0.000000
0.109911 0.930800 0.000198
0.155230 0.930007 0.000000
0.217487 0.928985 0.000000
0.271107 0.927825 0.000000
0.319356 0.926528 0.000000
0.364706 0.925078 0.000000
0.407752 0.923461 0.000000
0.448524 0.921721 0.000000
0.488273 0.919814 0.000198
0.527230 0.917800 0.000198
0.564981 0.915663 0.000198
0.602182 0.913314 0.000000
0.638743 0.910613 0.000198
0.674632 0.907820 0.000198
0.709896 0.904860 0.000198
0.744762 0.901793 0.000198
0.778836 0.898604 0.000000
0.812802 0.895247 0.000000
0.845853 0.891798 0.000000
0.878859 0.888197 0.000198
0.909987 0.883619 0.000198
0.937545 0.875990 0.000198
0.961349 0.865827 0.000000
0.972686 0.845914 0.000198
0.980270 0.831373 0.000198
0.000000 0.945037 0.000000
0.000000 0.945022 0.000000
0.011872 0.944854 0.000000
0.031678 0.944595 0.000000
0.056001 0.944274 0.000000
0.079057 0.943862 0.000000
0.101274 0.943343 0.000000
0.128801 0.942702 0.000000
0.171817 0.941848 0.000000
0.212558 0.940871 0.000000
0.260563 0.939727 0.000000
0.309163 0.938430 0.000198
0.352865 0.937011 0.000000
0.393988 0.935470 0.000000
0.434730 0.933730 0.000000
0.473732 0.931838 0.000000
0.511162 0.929839 0.000000
0.548653 0.927688 0.000000
