content/luts/atmosphere/atmosphere_07.cube
#Created by: inPixio
#Copyright: (C) Copyright 2022 inPixio
TITLE "Atmosphere 7"
#LUT size
LUT_3D_SIZE 32
#data domain
DOMAIN_MIN 0.0 0.0 0.0
DOMAIN_MAX 1.0 1.0 1.0
#LUT data points
0.000000 0.000000 0.000000
0.005859 0.000000 0.000397
0.013687 0.000000 0.000778
0.031876 0.000000 0.001953
0.052949 0.000580 0.002548
0.067735 0.002152 0.002731
0.080766 0.005859 0.002548
0.095109 0.013092 0.003128
0.115343 0.014267 0.003128
0.140749 0.011246 0.002152
0.172442 0.005280 0.001373
0.210910 0.000198 0.000580
0.259068 0.000000 0.000198
0.314656 0.000198 0.000397
0.370184 0.000000 0.000397
0.425635 0.000000 0.000198
0.484672 0.000000 0.000198
0.544854 0.000000 0.000000
0.609903 0.000000 0.000000
0.674830 0.000000 0.000000
0.728801 0.000198 0.000000
0.781552 0.000000 0.000000
0.832654 0.000000 0.000000
0.878325 0.000000 0.000198
0.924025 0.001953 0.000000
0.950835 0.008408 0.000198
0.978622 0.053605 0.000198
0.995972 0.136477 0.000198
1.000000 0.216388 0.000000
1.000000 0.267781 0.000000
1.000000 0.315847 0.000000
1.000000 0.342306 0.000198
0.003326 0.000000 0.001556
0.006653 0.000198 0.001373
0.016815 0.000000 0.001755
0.032288 0.000397 0.002350
0.053117 0.001953 0.002731
0.067872 0.005280 0.002731
0.080766 0.010010 0.003128
0.095003 0.017014 0.003128
0.114824 0.019745 0.003128
0.140444 0.014664 0.002731
0.172625 0.006836 0.001373
0.211933 0.001373 0.000397
0.259480 0.000198 0.000000
0.313314 0.000000 0.000397
0.367910 0.000000 0.000397
0.423667 0.000000 0.000198
0.484855 0.000000 0.000198
0.544762 0.000000 0.000000
0.609857 0.000000 0.000000
0.671000 0.000000 0.000000
0.725322 0.000000 0.000000
0.779995 0.000000 0.000000
0.831998 0.000000 0.000000
0.878035 0.000198 0.000000
0.922469 0.005478 0.000198
0.948730 0.008789 0.000000
0.977203 0.053117 0.000198
0.995926 0.141878 0.000198
1.000000 0.218662 0.000000
1.000000 0.275837 0.000198
1.000000 0.315847 0.000000
1.000000 0.341573 0.000000
0.004501 0.002350 0.003906
0.008988 0.001556 0.003906
0.017395 0.000977 0.002930
0.032685 0.002930 0.002731
0.053773 0.007233 0.002930
0.068284 0.012299 0.002731
0.080888 0.017990 0.002930
0.095796 0.023270 0.003326
0.114641 0.026001 0.003326
0.141100 0.022675 0.001953
0.174044 0.012299 0.000977
0.213230 0.002152 0.000397
0.259251 0.000397 0.000000
0.311055 0.000000 0.000198
0.365759 0.000000 0.000198
0.423941 0.000000 0.000198
0.485252 0.000000 0.000000
0.544656 0.000000 0.000000
0.607294 0.000000 0.000000
0.666896 0.000000 0.000000
0.721340 0.000000 0.000000
0.779431 0.000000 0.000000
0.831037 0.000000 0.000000
0.876432 0.001373 0.000198
0.920317 0.008789 0.000198
0.946349 0.009186 0.000000
0.977340 0.079301 0.000000
0.995621 0.156756 0.000000
1.000000 0.220295 0.000000
1.000000 0.286549 0.000198
1.000000 0.315908 0.000000
0.999985 0.340780 0.000198
0.009384 0.015641 0.007813
0.012085 0.014862 0.008408
0.019547 0.015641 0.007630
0.033890 0.018967 0.005661
0.050828 0.023651 0.004105
0.068147 0.027558 0.003708
0.081941 0.032685 0.002930
0.097719 0.037125 0.003128
0.117052 0.040070 0.002930
0.142992 0.035309 0.001373
0.175738 0.026200 0.000778
0.213977 0.010834 0.000198
0.258747 0.000000 0.000000
0.310674 0.000198 0.000198
0.367315 0.000000 0.000198
0.426093 0.000000 0.000397
0.484932 0.000000 0.000198
0.545617 0.000198 0.000000
0.604898 0.000000 0.000000
0.662287 0.000000 0.000000
0.724010 0.000000 0.000000
0.778836 0.000000 0.000000
0.827680 0.000198 0.000000
0.875395 0.007630 0.000000
0.917372 0.013489 0.000000
0.944183 0.018372 0.000000
0.977890 0.111086 0.000397
0.995102 0.175738 0.000000
1.000000 0.229068 0.000198
1.000000 0.299458 0.000198
1.000000 0.323674 0.000000
1.000000 0.350317 0.000000
0.013092 0.037324 0.012711
0.017395 0.036515 0.013291
0.022873 0.035508 0.013886
0.034501 0.037919 0.012711
0.051652 0.045274 0.008408
0.067872 0.050996 0.005081
0.082414 0.053269 0.003906
0.099519 0.055528 0.002930
0.119585 0.057389 0.002731
0.144457 0.056153 0.001953
0.177569 0.048829 0.001175
0.216785 0.035111 0.000198
0.262944 0.015839 0.000397
0.315297 0.003128 0.000198
0.370947 0.001556 0.000397
0.429374 0.000000 0.000580
0.489113 0.000198 0.000000
0.547692 0.000000 0.000000
0.607416 0.000000 0.000000
0.668040 0.000000 0.000000
0.728481 0.000000 0.000000
0.777249 0.000000 0.000198
0.841749 0.010208 0.000000
0.884855 0.015442 0.000000
0.913619 0.019547 0.000000
0.951370 0.092485 0.000198
0.978576 0.143633 0.000198
0.994278 0.199466 0.000000
1.000000 0.258106 0.000198
1.000000 0.315709 0.000198
1.000000 0.337209 0.000000
1.000000 0.363897 0.000000
0.018174 0.058656 0.018570
0.020920 0.058335 0.019165
0.026200 0.057862 0.019944
0.036316 0.057862 0.021698
0.050172 0.060929 0.020722
0.065904 0.066606 0.012909
0.082521 0.071595 0.006836
0.099809 0.074403 0.004883
0.122515 0.076738 0.002731
0.149279 0.077714 0.001373
0.183185 0.074403 0.000198
0.224064 0.068147 0.000198
0.270741 0.054749 0.000397
0.325322 0.028153 0.000580
0.382239 0.011872 0.000397
0.438331 0.006455 0.000198
0.494896 0.000198 0.000000
0.557824 0.001373 0.000000
0.619120 0.000198 0.000000
0.677821 0.000000 0.000000
0.734463 0.001175 0.000000
0.792813 0.003128 0.000000
0.852949 0.017792 0.000000
0.896193 0.035309 0.000000
0.921096 0.091356 0.000000
0.960098 0.147540 0.000198
0.985321 0.190509 0.000000
0.994797 0.241352 0.000397
1.000000 0.290578 0.000198
1.000000 0.334035 0.000198
1.000000 0.353780 0.000000
1.000000 0.380880 0.000000
0.023453 0.076616 0.027558
0.025605 0.076249 0.027558
0.029511 0.076005 0.027756
0.039490 0.075639 0.029129
0.051652 0.076127 0.030686
0.064942 0.078691 0.029129
0.082063 0.087739 0.017197
0.101274 0.095995 0.006058
0.125124 0.099809 0.002731
0.156008 0.102937 0.001373
0.190768 0.103304 0.000198
0.237690 0.100191 0.000580
0.287907 0.092790 0.000397
0.342382 0.078691 0.000000
0.395239 0.055833 0.000000
0.452888 0.033494 0.000000
0.512154 0.021698 0.000000
0.575296 0.004501 0.000000
0.633936 0.007233 0.000000
0.692226 0.003708 0.000000
0.748440 0.005081 0.000000
0.805417 0.005661 0.000000
0.857054 0.057557 0.000000
0.901259 0.093614 0.000000
0.928634 0.140902 0.000000
0.966964 0.201022 0.000000
0.989364 0.239246 0.000397
0.997803 0.281697 0.000198
1.000000 0.320470 0.000000
1.000000 0.345754 0.000000
1.000000 0.374167 0.000198
1.000000 0.401633 0.000000
0.024826 0.096391 0.035706
0.027176 0.096284 0.035706
0.033295 0.095598 0.036912
0.042695 0.094362 0.038712
0.053925 0.094575 0.040467
0.064378 0.097826 0.038712
0.076127 0.103212 0.033494
0.098634 0.114733 0.017990
0.123003 0.126558 0.002548
0.157198 0.131289 0.000977
0.196323 0.135241 0.000198
0.242145 0.134371 0.000198
0.295232 0.130694 0.000397
0.350515 0.123171 0.000198
0.407279 0.110552 0.000198
0.468162 0.092287 0.000000
0.529824 0.078691 0.000198
0.591363 0.066056 0.000000
0.648615 0.030686 0.000000
0.703212 0.028351 0.000000
0.751904 0.049348 0.000000
0.802228 0.084138 0.000000
0.850019 0.116564 0.000000
0.893370 0.149554 0.000000
0.933684 0.197162 0.000198
0.969207 0.248859 0.000198
0.993317 0.284199 0.000000
1.000000 0.311666 0.000000
1.000000 0.336156 0.000198
1.000000 0.362326 0.000000
1.000000 0.397757 0.000198
1.000000 0.424994 0.000000
0.019944 0.120150 0.044358
0.023850 0.119753 0.044907
0.030304 0.119097 0.046006
0.039689 0.118257 0.047623
0.052461 0.116884 0.051316
0.064378 0.117815 0.052949
0.075517 0.123812 0.049516
0.089387 0.133242 0.040665
0.117647 0.146853 0.019165
0.148928 0.161715 0.000397
0.193240 0.167620 0.000000
0.243519 0.173129 0.000000
0.298360 0.172625 0.000198
0.360617 0.170260 0.000000
0.422538 0.163928 0.000000
0.486992 0.153216 0.000000
0.547204 0.145296 0.000000
0.603678 0.135821 0.000000
0.657801 0.122606 0.000198
0.704921 0.127260 0.000198
0.750530 0.132265 0.000000
0.802945 0.154315 0.000000
0.857252 0.191028 0.000198
0.900740 0.225589 0.000198
0.939284 0.261067 0.000000
0.969268 0.288685 0.000000
0.990799 0.315114 0.000000
0.999939 0.334752 0.000000
1.000000 0.360174 0.000000
1.000000 0.393668 0.000198
1.000000 0.430045 0.000000
1.000000 0.454292 0.000000
0.014267 0.149889 0.052293
0.016815 0.149477 0.052461
0.019547 0.149203 0.052628
0.027756 0.148592 0.054261
0.043061 0.147463 0.058183
0.059907 0.145235 0.063096
0.074281 0.146166 0.064805
0.089494 0.157336 0.054749
0.108263 0.172168 0.039490
0.146990 0.188190 0.019745
0.189380 0.205661 0.001556
0.245197 0.212879 0.000000
0.303822 0.218753 0.000000
0.366964 0.218753 0.000198
0.432486 0.217060 0.000000
0.497108 0.211154 0.000198
0.564401 0.203861 0.000000
0.616602 0.200244 0.000000
0.670710 0.200732 0.000198
0.721172 0.203372 0.000000
0.772564 0.216831 0.000198
0.822477 0.236317 0.000000
0.868910 0.259724 0.000000
0.907439 0.284062 0.000198
0.938308 0.305104 0.000000
0.964691 0.325078 0.000000
0.987427 0.347921 0.000000
0.999786 0.375464 0.000198
1.000000 0.404852 0.000198
1.000000 0.435721 0.000000
1.000000 0.462623 0.000000
1.000000 0.480156 0.000000
0.008011 0.185351 0.060777
0.010834 0.185138 0.060777
0.013886 0.184970 0.060929
0.019745 0.184054 0.061646
0.029908 0.182742 0.063951
0.050340 0.180957 0.068711
0.070039 0.179049 0.074037
0.087968 0.181064 0.075761
0.108995 0.196124 0.063233
0.135958 0.216068 0.040864
0.183673 0.234134 0.018174
0.239735 0.253483 0.002731
0.306386 0.264729 0.000198
0.376547 0.273289 0.000000
0.448341 0.276661 0.000000
0.515404 0.276036 0.000000
0.582940 0.273732 0.000000
0.639521 0.267948 0.000000
0.692195 0.269093 0.000000
0.744946 0.274373 0.000000
0.794904 0.288289 0.000198
0.834150 0.299580 0.000198
0.875029 0.317464 0.000000
0.907851 0.331762 0.000000
0.943175 0.357519 0.000000
0.969711 0.380331 0.000198
0.991074 0.404303 0.000198
0.999405 0.425849 0.000000
1.000000 0.449302 0.000000
1.000000 0.469413 0.000000
1.000000 0.490272 0.000000
1.000000 0.506447 0.000000
0.000000 0.225940 0.068284
0.003906 0.225406 0.068421
0.008606 0.224888 0.068849
0.016419 0.224109 0.070039
0.026001 0.223117 0.071870
0.042329 0.220920 0.076005
0.064515 0.219410 0.080888
0.085618 0.219806 0.085161
0.106615 0.223255 0.087404
0.136919 0.243168 0.067445
0.175403 0.267323 0.034501
0.241520 0.294041 0.016220
0.328496 0.330053 0.003326
0.405814 0.343557 0.000198
0.476188 0.346563 0.000000
0.540398 0.345602 0.000000
0.601495 0.344213 0.000000
0.658808 0.341207 0.000000
0.716197 0.344884 0.000000
0.769299 0.351309 0.000198
0.813520 0.355795 0.000000
0.851560 0.366232 0.000000
0.888960 0.381582 0.000198
0.925078 0.400504 0.000000
0.959686 0.424170 0.000000
0.980057 0.438712 0.000000
0.993317 0.452949 0.000198
1.000000 0.469123 0.000198
1.000000 0.488273 0.000000
1.000000 0.505715 0.000000
1.000000 0.522408 0.000000
1.000000 0.539513 0.000000
0.000198 0.272068 0.075029
0.000397 0.271748 0.074907
0.000198 0.271244 0.075029
0.004501 0.270314 0.076127
0.019165 0.268711 0.079667
0.036515 0.266926 0.083909
0.061067 0.264836 0.090486
0.085283 0.264881 0.096284
0.108904 0.267887 0.099809
0.137667 0.279301 0.099031
0.177173 0.301930 0.076738
0.234485 0.332296 0.039689
0.309361 0.362005 0.011246
0.395697 0.387503 0.002731
0.471977 0.399374 0.000198
0.544701 0.403571 0.000000
0.600610 0.399222 0.000198
0.657328 0.398718 0.000198
0.710674 0.399435 0.000198
0.765805 0.407309 0.000000
0.813550 0.415381 0.000198
0.862791 0.428473 0.000000
0.899626 0.442802 0.000198
0.931594 0.454887 0.000000
0.960296 0.469490 0.000198
0.982132 0.481453 0.000198
0.995438 0.494331 0.000000
0.999741 0.506066 0.000000
1.000000 0.519692 0.000198
1.000000 0.537820 0.000198
1.000000 0.555077 0.000000
1.000000 0.570199 0.000000
0.000000 0.319326 0.088746
0.000000 0.318868 0.088853
0.000000 0.318242 0.088960
0.000000 0.317495 0.089067
0.000000 0.316259 0.089937
0.016815 0.314427 0.094148
0.049683 0.312184 0.101274
0.081239 0.309545 0.109270
0.113115 0.309789 0.115435
0.142153 0.319417 0.114733
0.174624 0.332387 0.108354
0.227756 0.358633 0.084138
0.288594 0.386191 0.041047
0.366629 0.413199 0.011673
0.451728 0.437293 0.002548
0.523613 0.446449 0.000000
0.584360 0.444434 0.000198
0.649683 0.451774 0.000000
0.709758 0.458793 0.000198
0.766156 0.467659 0.000198
0.815015 0.476539 0.000198
0.860716 0.486748 0.000000
0.897795 0.493507 0.000198
0.926421 0.498329 0.000000
0.952667 0.503807 0.000000
0.974334 0.511009 0.000000
0.993393 0.524559 0.000397
0.998123 0.537560 0.000198
1.000000 0.554254 0.000198
1.000000 0.573205 0.000198
1.000000 0.587488 0.000000
1.000000 0.597971 0.000198
0.000000 0.369711 0.102449
0.000000 0.369360 0.102831
0.000000 0.368933 0.103304
0.000000 0.368399 0.103868
0.000000 0.367727 0.104799
0.000198 0.366156 0.106981
0.025406 0.363836 0.113710
0.076127 0.361975 0.122103
0.115343 0.360174 0.131823
0.152743 0.359503 0.141390
0.185779 0.372427 0.136690
0.230442 0.395346 0.122927
0.287617 0.422690 0.096193
0.360800 0.452766 0.052293
0.441093 0.480903 0.010208
0.524987 0.502022 0.003326
0.600488 0.516014 0.000000
0.661067 0.518334 0.000000
0.714153 0.519432 0.000000
0.761318 0.520684 0.000000
0.806561 0.525414 0.000000
0.844556 0.526818 0.000000
0.879912 0.529992 0.000198
0.913268 0.534142 0.000000
0.946777 0.546593 0.000000
0.974685 0.558969 0.000198
0.995209 0.574655 0.000198
0.999115 0.587610 0.000000
1.000000 0.602029 0.000198
1.000000 0.611658 0.000000
1.000000 0.621088 0.000000
1.000000 0.627222 0.000000
0.000198 0.435309 0.116564
0.000000 0.435248 0.116228
0.000397 0.435081 0.115618
0.002350 0.434196 0.115084
0.016617 0.432334 0.119417
0.033692 0.430045 0.124712
0.053437 0.427329 0.130755
0.082994 0.424247 0.138521
0.126864 0.421408 0.148730
0.165454 0.418494 0.159945
0.202396 0.415488 0.171237
0.246021 0.435386 0.160388
0.291264 0.457496 0.141451
0.354116 0.484352 0.112322
0.422202 0.507576 0.065904
0.497505 0.530053 0.018570
0.569024 0.543526 0.005478
0.637232 0.555352 0.000000
0.696651 0.560693 0.000000
0.754269 0.570565 0.000000
0.804761 0.579034 0.000000
0.848035 0.586633 0.000198
0.887739 0.595102 0.000198
0.927016 0.606622 0.000000
0.959716 0.618051 0.000000
0.983200 0.622919 0.000000
0.997589 0.627390 0.000000
1.000000 0.632471 0.000000
1.000000 0.638209 0.000000
1.000000 0.645228 0.000000
1.000000 0.653101 0.000000
1.000000 0.659144 0.000198
0.000000 0.487022 0.139010
0.000000 0.486671 0.138521
0.000000 0.486137 0.138232
0.000000 0.485451 0.138232
0.000000 0.484550 0.138170
0.012711 0.485496 0.141390
0.061219 0.483742 0.148867
0.099702 0.481880 0.157275
0.136996 0.479789 0.166903
0.183230 0.476600 0.177676
0.221607 0.475319 0.188922
0.260090 0.476341 0.196475
0.305226 0.494774 0.183719
0.358877 0.520653 0.159579
0.420356 0.545296 0.126482
0.492638 0.569345 0.081483
0.565011 0.590906 0.018570
0.635111 0.607401 0.008209
0.702525 0.622950 0.000000
0.760708 0.633188 0.000000
0.813993 0.642771 0.000000
0.857389 0.649287 0.000198
0.893813 0.653971 0.000198
0.927077 0.658976 0.000000
0.956420 0.662852 0.000000
0.979400 0.665812 0.000000
0.994431 0.669581 0.000000
1.000000 0.673503 0.000000
1.000000 0.677470 0.000000
1.000000 0.682490 0.000000
1.000000 0.688533 0.001953
1.000000 0.694392 0.004501
0.002731 0.545419 0.158404
0.004883 0.546609 0.159701
0.007630 0.547921 0.161334
0.011048 0.549844 0.163561
0.015641 0.552377 0.166247
0.021500 0.555474 0.169680
0.028534 0.558999 0.173877
0.101762 0.555520 0.181216
0.160647 0.550271 0.190356
0.207782 0.544396 0.200046
0.249424 0.540230 0.209705
0.286671 0.539345 0.215610
0.324331 0.541177 0.219898
0.372717 0.557809 0.205234
0.426276 0.580942 0.179263
0.487495 0.603464 0.146777
0.557183 0.625818 0.097826
0.625269 0.646967 0.018174
0.692592 0.665126 0.004883
0.754665 0.680354 0.000198
0.807370 0.689418 0.000000
0.856062 0.697734 0.000000
0.893294 0.701717 0.000198
0.926421 0.706004 0.000000
0.955932 0.709712 0.000000
0.981781 0.712947 0.000000
0.993484 0.715450 0.000000
1.000000 0.716548 0.000198
1.000000 0.716747 0.000000
1.000000 0.718090 0.000000
1.000000 0.720394 0.008789
1.000000 0.723049 0.018372
0.000198 0.604669 0.184924
0.000397 0.605371 0.184863
0.000198 0.606195 0.184802
0.001373 0.607553 0.185351
0.032486 0.606195 0.187198
0.070039 0.603830 0.189426
0.104707 0.601007 0.193713
0.137453 0.597818 0.200000
0.173480 0.592996 0.207004
0.218479 0.587808 0.216159
0.260060 0.581979 0.226368
0.299336 0.577050 0.237171
0.337102 0.580285 0.238468
0.376364 0.587076 0.235859
0.423880 0.603922 0.220569
0.479881 0.625727 0.192416
0.540093 0.648982 0.157458
0.607340 0.670710 0.105196
0.673823 0.693965 0.006653
0.735454 0.710338 0.002548
0.796109 0.727550 0.000000
0.846052 0.737743 0.000000
0.892714 0.745968 0.000000
0.924529 0.747860 0.000000
0.952972 0.748974 0.000000
0.977508 0.749538 0.000198
0.996109 0.749935 0.000000
1.000000 0.750668 0.000000
1.000000 0.750683 0.000000
1.000000 0.750439 0.000000
1.000000 0.750958 0.017197
1.000000 0.752102 0.040269
0.000198 0.643443 0.199756
0.000580 0.643427 0.199664
0.000580 0.643427 0.199512
0.000778 0.643443 0.199313
0.000778 0.643458 0.199023
0.005081 0.643900 0.199374
0.077104 0.639811 0.204013
0.134142 0.633143 0.209323
0.179049 0.625971 0.215427
0.221469 0.620020 0.223301
0.266102 0.617289 0.234928
0.307240 0.614756 0.247501
0.347097 0.611093 0.260380
0.389075 0.620752 0.259358
0.431678 0.633967 0.255283
0.481499 0.653239 0.238712
0.540475 0.677546 0.213886
0.597238 0.698741 0.181491
0.663401 0.721676 0.135958
0.722637 0.740536 0.051164
0.780209 0.755856 0.017014
0.832944 0.768612 0.001175
0.878096 0.776043 0.000000
0.918959 0.781079 0.000000
0.949249 0.783032 0.000198
0.974670 0.783185 0.000000
0.994095 0.783536 0.000000
0.999802 0.782361 0.000000
1.000000 0.781628 0.000000
1.000000 0.780819 0.008408
1.000000 0.781430 0.051652
1.000000 0.781231 0.097612
0.002548 0.701366 0.234608
0.010834 0.701244 0.234440
0.027558 0.700755 0.233967
0.050660 0.700160 0.233463
0.083330 0.700114 0.235126
0.113542 0.700145 0.237324
0.142718 0.700160 0.239887
0.172671 0.699474 0.243244
0.220569 0.695811 0.251103
0.266346 0.692454 0.260594
0.308537 0.687923 0.270359
0.348638 0.683146 0.281285
0.386709 0.677913 0.292943
0.423514 0.672221 0.304646
0.461311 0.678508 0.301045
0.503136 0.693233 0.288228
0.545968 0.708858 0.267247
0.599939 0.727932 0.239567
0.650813 0.745174 0.205997
0.709239 0.762615 0.156893
0.765301 0.780118 0.090913
0.818387 0.793805 0.061067
0.870665 0.807904 0.012299
0.911803 0.813901 0.000198
0.949371 0.817578 0.000397
0.975204 0.817166 0.000000
0.992401 0.816358 0.000000
1.000000 0.815015 0.000580
1.000000 0.814191 0.018967
1.000000 0.813489 0.072648
1.000000 0.812436 0.119585
1.000000 0.809751 0.151446
0.024826 0.755703 0.262333
0.024826 0.755871 0.261860
0.025223 0.756039 0.261433
0.042695 0.756130 0.261616
0.076982 0.756085 0.262913
0.121294 0.754086 0.264729
0.165942 0.750500 0.266972
0.206195 0.746319 0.269596
0.247700 0.742107 0.274067
0.291463 0.738750 0.282643
0.336156 0.737392 0.294514
0.379278 0.735805 0.307240
0.417762 0.730846 0.318273
0.450752 0.724300 0.327215
0.484260 0.718441 0.336736
0.521248 0.725536 0.332494
0.561151 0.740246 0.316060
0.605142 0.757656 0.296132
0.657832 0.775921 0.270527
0.708492 0.792401 0.243198
0.765942 0.810788 0.208011
0.816465 0.824369 0.164797
0.866728 0.837202 0.124392
0.910460 0.845792 0.048310
0.945998 0.848783 0.005280
0.976028 0.848264 0.010636
0.992798 0.846220 0.000198
0.999619 0.843626 0.014466
1.000000 0.841016 0.035508
1.000000 0.838010 0.067308
1.000000 0.835294 0.126085
1.000000 0.832761 0.183825
0.141527 0.806424 0.299489
0.147936 0.806271 0.299306
0.155093 0.806180 0.299153
0.164569 0.805921 0.298863
0.176349 0.805615 0.298528
0.190356 0.805264 0.298055
0.218296 0.802854 0.299611
0.255314 0.799863 0.303883
0.296849 0.796948 0.311177
0.337240 0.793668 0.319249
0.377264 0.790463 0.328496
0.415747 0.787106 0.339559
0.453224 0.782773 0.351141
0.490211 0.777890 0.363150
0.522759 0.775815 0.371160
0.555535 0.774441 0.378561
0.590799 0.780652 0.376318
0.632075 0.796552 0.358648
0.672313 0.811261 0.339193
0.720821 0.825406 0.315557
0.765957 0.837430 0.289601
0.813962 0.848920 0.257816
0.857694 0.857893 0.220432
0.899809 0.865339 0.179751
0.938140 0.870802 0.106981
0.967529 0.871061 0.050996
0.992676 0.869078 0.040269
0.999100 0.866102 0.023270
1.000000 0.862944 0.071077
1.000000 0.859617 0.114900
1.000000 0.856626 0.172671
1.000000 0.854460 0.215656
0.217487 0.849439 0.343526
0.221561 0.849256 0.343374
0.226062 0.849058 0.343236
0.235615 0.848570 0.343130
0.249577 0.847807 0.342977
0.265889 0.846830 0.342733
0.284947 0.845594 0.342687
0.309392 0.843687 0.343710
0.342214 0.840604 0.348928
0.379278 0.837644 0.357061
0.417289 0.834623 0.366400
0.453574 0.830488 0.375494
0.487175 0.825467 0.385290
0.518608 0.819593 0.395087
0.550332 0.813809 0.405905
0.581293 0.813565 0.412192
0.612238 0.814908 0.416297
0.644129 0.820218 0.412131
0.683406 0.833707 0.395316
0.722271 0.845640 0.377173
0.766033 0.856870 0.355734
0.807660 0.866301 0.332296
0.850416 0.874952 0.304158
0.889281 0.881346 0.270558
0.927108 0.886839 0.232700
0.959625 0.889464 0.186557
0.983291 0.889403 0.145022
0.996689 0.886503 0.110811
1.000000 0.883314 0.121126
1.000000 0.879881 0.169451
1.000000 0.876417 0.214878
1.000000 0.874205 0.244877
0.281865 0.885191 0.382742
0.282597 0.885206 0.382452
0.283482 0.885237 0.382071
0.291585 0.884718 0.381872
0.302480 0.883970 0.381628
0.316854 0.882841 0.381643
0.338338 0.881071 0.383383
0.365332 0.878645 0.386694
0.393988 0.875853 0.390539
0.424308 0.872770 0.395239
0.457984 0.869352 0.403479
0.490639 0.865965 0.412848
0.523888 0.862272 0.422797
0.555657 0.857588 0.433021
0.583978 0.853437 0.444709
0.612818 0.849027 0.457008
0.640299 0.848524 0.460349
0.667826 0.851576 0.456962
0.696544 0.856077 0.452430
0.732921 0.865690 0.436362
0.768795 0.875029 0.420096
0.806882 0.882765 0.400732
0.844465 0.889906 0.380255
0.881163 0.895613 0.355291
0.916533 0.900588 0.327352
0.949523 0.903899 0.294392
0.977646 0.905699 0.259220
0.995224 0.905196 0.228397
0.999176 0.901930 0.210773
1.000000 0.898146 0.214557
1.000000 0.894240 0.248814
1.000000 0.891310 0.278279
0.352545 0.910811 0.425315
0.353933 0.910628 0.424567
0.355612 0.910399 0.423713
0.359121 0.910079 0.423041
0.364874 0.909636 0.422675
0.372000 0.909072 0.422156
0.388006 0.907469 0.423514
0.410971 0.904891 0.426413
0.436927 0.902174 0.430915
0.466484 0.899489 0.438071
0.497200 0.896559 0.446326
0.527977 0.893095 0.455238
0.556985 0.889250 0.464271
0.585184 0.885390 0.473991
0.613367 0.881254 0.484688
0.637919 0.876753 0.495018
0.661753 0.872114 0.505653
0.687770 0.871748 0.511620
0.716625 0.877470 0.509377
0.744534 0.883711 0.502907
0.779584 0.892409 0.491249
0.812467 0.899458 0.476997
0.846357 0.905592 0.460929
0.879423 0.910536 0.441260
0.911452 0.914717 0.418830
0.942016 0.917708 0.389929
0.970703 0.919829 0.358724
0.988083 0.919783 0.321767
0.999893 0.918624 0.291554
1.000000 0.914687 0.281727
1.000000 0.910658 0.286290
1.000000 0.907042 0.319905
0.407355 0.928344 0.465339
0.409476 0.928115 0.465141
0.411887 0.927901 0.464942
0.415320 0.927565 0.464607
0.420691 0.927123 0.464439
0.432136 0.926543 0.465644
0.445747 0.925826 0.467170
0.461235 0.925002 0.468940
0.482048 0.923384 0.472740
0.508553 0.920684 0.479439
0.537560 0.918776 0.489540
0.568872 0.917403 0.502571
0.600534 0.915557 0.515847
0.627375 0.912398 0.526757
0.655192 0.910567 0.541695
0.683970 0.908553 0.557519
0.707500 0.905913 0.570840
0.731212 0.904189 0.585885
0.755001 0.903975 0.594842
0.778409 0.908507 0.585428
0.801755 0.913085 0.575799
0.828244 0.917372 0.562081
0.855345 0.921569 0.547265
0.881880 0.924743 0.530480
0.909773 0.927672 0.511101
0.935836 0.929854 0.489220
0.962860 0.931685 0.463508
0.986221 0.932799 0.436362
0.995880 0.932494 0.408621
1.000000 0.931212 0.383475
1.000000 0.926299 0.371649
1.000000 0.922728 0.364584
0.475441 0.947082 0.523674
0.476021 0.947097 0.523598
0.479927 0.946929 0.524224
0.485939 0.946624 0.525109
0.494026 0.946258 0.526421
0.504067 0.945769 0.528069
0.515999 0.945190 0.530098
0.530312 0.944411 0.532784
0.549020 0.943069 0.538308
0.570123 0.941436 0.545235
0.596033 0.939956 0.555779
0.625300 0.938491 0.568902
0.648127 0.936233 0.579171
0.670314 0.933455 0.588434
0.695811 0.930999 0.601785
0.717311 0.928389 0.614160
0.739544 0.925902 0.628534
0.760357 0.923552 0.641398
