content/luts/atmosphere/atmosphere_09.cube
#Created by: inPixio
#Copyright: (C) Copyright 2022 inPixio
TITLE "Atmosphere 9"
#LUT size
LUT_3D_SIZE 8
#data domain
#LUT data points
DOMAIN_MIN 0.000000 0.000000 0.000000
DOMAIN_MAX 0.903226 0.903226 0.903226
0.000000 0.000000 0.000000
0.181735 0.000000 0.000000
0.316716 0.000000 0.000000
0.430076 0.000000 0.000000
0.548425 0.010452 0.005921
0.663630 0.023270 0.025040
0.764340 0.044007 0.049149
0.851621 0.110079 0.060456
0.000000 0.177157 0.000000
0.172686 0.173892 0.000000
0.313252 0.147250 0.000000
0.428824 0.137865 0.009461
0.547265 0.136935 0.022080
0.662089 0.136492 0.039612
0.762295 0.140093 0.059266
0.850141 0.174395 0.066621
0.000000 0.295308 0.017350
0.133303 0.294209 0.018921
0.288075 0.289921 0.022278
0.421546 0.268345 0.043626
0.543206 0.261753 0.052674
0.658137 0.256565 0.062364
0.757534 0.255345 0.074159
0.845701 0.276997 0.074540
0.000000 0.409247 0.060166
0.120577 0.408972 0.060304
0.258366 0.407782 0.060166
0.401724 0.404364 0.060304
0.533059 0.388937 0.073136
0.648280 0.378927 0.081941
0.748119 0.378561 0.084138
0.837491 0.394049 0.076280
0.000000 0.522835 0.078859
0.097826 0.522606 0.078859
0.237110 0.521859 0.078492
0.374212 0.519814 0.077516
0.512291 0.515694 0.076417
0.633875 0.501717 0.086519
0.734783 0.497520 0.088502
0.825834 0.513405 0.065217
0.000000 0.623240 0.094362
0.060609 0.623011 0.094255
0.213245 0.622385 0.093843
0.341680 0.621149 0.093004
0.477180 0.618204 0.091417
0.609445 0.613779 0.089601
0.723095 0.607157 0.089708
0.818586 0.614420 0.070665
0.000000 0.717769 0.104830
0.000000 0.717632 0.104830
0.181781 0.717342 0.104265
0.315526 0.716640 0.102632
0.442619 0.715328 0.100801
0.574533 0.712657 0.097826
0.703456 0.709026 0.093431
0.818051 0.707424 0.082887
0.000000 0.823560 0.084260
0.000000 0.823758 0.083345
0.110704 0.824323 0.080537
0.279835 0.825193 0.075410
0.413809 0.826612 0.067170
0.549615 0.827878 0.051850
0.686717 0.829221 0.024247
0.822095 0.829206 0.000000
0.008484 0.000000 0.177096
0.181674 0.000000 0.177600
0.313024 0.017151 0.158587
0.424674 0.068254 0.153155
0.542565 0.105104 0.163531
0.659922 0.105394 0.161212
0.761456 0.108263 0.160952
0.850462 0.143053 0.157961
0.014389 0.173312 0.173602
0.172915 0.172915 0.172915
0.298711 0.173541 0.170947
0.417731 0.173022 0.168673
0.541039 0.172519 0.165591
0.658167 0.169848 0.163653
0.759686 0.168795 0.163592
0.849683 0.192172 0.159716
0.081590 0.291737 0.171191
0.164920 0.291203 0.170901
0.288472 0.289052 0.169436
0.415152 0.277043 0.170321
0.537850 0.274006 0.167910
0.653544 0.271031 0.166308
0.754559 0.269673 0.165774
0.845518 0.285451 0.159594
0.061494 0.407538 0.168856
0.149874 0.407370 0.168383
0.265522 0.406821 0.167376
0.402441 0.403861 0.165286
0.530983 0.391119 0.167559
0.645350 0.384299 0.167727
0.745327 0.384741 0.165042
0.837034 0.398489 0.156313
0.005127 0.521935 0.165469
0.123110 0.521767 0.165103
0.246464 0.521157 0.164385
0.376761 0.519356 0.163043
0.512764 0.515389 0.161151
0.632715 0.502449 0.164447
0.733196 0.499886 0.162188
0.824674 0.516106 0.148135
0.000000 0.622629 0.167086
0.092592 0.622400 0.166903
0.223301 0.621820 0.166430
0.347067 0.620676 0.165652
0.478874 0.617868 0.164080
0.609888 0.613550 0.162066
0.722332 0.607431 0.161334
0.818128 0.615167 0.147936
0.000000 0.717281 0.171069
0.035096 0.717174 0.170901
0.195407 0.716915 0.170260
0.322347 0.716228 0.169268
0.445197 0.715053 0.167498
0.575662 0.712444 0.164859
0.703822 0.708888 0.161212
0.818204 0.707942 0.153292
0.000000 0.823545 0.155428
0.000000 0.823758 0.154910
0.130739 0.824338 0.153353
0.286687 0.825269 0.150469
0.417884 0.826703 0.145892
0.551186 0.828092 0.138094
0.687602 0.829450 0.126467
0.822873 0.829618 0.110338
0.029175 0.001770 0.295903
0.164447 0.008286 0.295781
0.300404 0.040208 0.294713
0.418097 0.078859 0.284001
0.538491 0.096925 0.275059
0.654994 0.105287 0.264912
0.750057 0.172046 0.276738
0.844755 0.187976 0.270939
0.083223 0.168322 0.290883
0.178546 0.173312 0.290776
0.294682 0.175814 0.290944
0.412512 0.178332 0.284733
0.535409 0.177661 0.275990
0.649226 0.192172 0.273243
0.749020 0.213382 0.276799
0.843732 0.225879 0.271077
0.107439 0.289113 0.289174
0.182971 0.288823 0.288914
0.288441 0.288441 0.288441
0.407157 0.289143 0.286366
0.528924 0.289021 0.283803
0.643763 0.290562 0.280461
0.746136 0.291829 0.276997
0.841215 0.300343 0.271244
0.104921 0.405707 0.282490
0.175189 0.405432 0.283223
0.278325 0.405051 0.283253
0.402853 0.403296 0.281666
0.527031 0.395056 0.280964
0.638727 0.393698 0.278279
0.739056 0.395712 0.274281
0.833585 0.406119 0.267018
0.089265 0.520043 0.278492
0.160342 0.519829 0.278416
0.263844 0.519387 0.277852
0.381018 0.518273 0.276631
0.513375 0.514824 0.274647
0.629618 0.504372 0.274968
0.728847 0.505150 0.270649
0.822736 0.518593 0.260380
0.082063 0.620920 0.277073
0.149737 0.620737 0.276768
0.249912 0.620249 0.276326
0.361044 0.619242 0.275410
0.483101 0.616968 0.273869
0.610544 0.613047 0.271840
0.720089 0.608133 0.269429
0.816617 0.616526 0.258732
0.048447 0.715953 0.276051
0.127565 0.715847 0.275776
0.230366 0.715602 0.275242
0.340276 0.715084 0.274250
0.453101 0.714183 0.272633
0.579019 0.711818 0.270207
0.704540 0.708522 0.267018
0.817670 0.708553 0.260014
0.000000 0.823392 0.260823
0.000000 0.823621 0.260349
0.172335 0.824277 0.259251
0.304082 0.825437 0.257267
0.428168 0.826948 0.253880
0.555245 0.828611 0.248997
0.689784 0.830030 0.241917
0.824643 0.830610 0.232364
0.066621 0.019318 0.410132
0.168505 0.034699 0.409934
0.293111 0.063951 0.409369
0.416297 0.088838 0.408866
0.532799 0.106050 0.402869
0.649622 0.112474 0.391257
0.752255 0.125841 0.375509
0.846952 0.147463 0.362905
0.116976 0.173770 0.406195
0.187442 0.175311 0.406302
0.295750 0.177722 0.406577
0.413275 0.180041 0.406943
0.530404 0.181125 0.402030
0.647166 0.180972 0.390539
0.749676 0.189075 0.376364
0.844495 0.204425 0.365957
0.126162 0.287038 0.403632
0.189380 0.287144 0.403693
0.292470 0.287953 0.404135
0.408988 0.286976 0.404852
0.527169 0.285802 0.399878
0.641718 0.285908 0.389777
0.742519 0.291707 0.380423
0.831449 0.328008 0.391913
0.121080 0.403708 0.403815
0.184909 0.403632 0.403693
0.287343 0.403296 0.403342
0.402808 0.402808 0.402808
0.520241 0.404028 0.400794
0.629633 0.405829 0.398550
0.729748 0.409155 0.395651
0.827359 0.414008 0.390799
0.122469 0.518532 0.395270
0.185336 0.518196 0.395453
0.286656 0.517281 0.397162
0.394461 0.516213 0.398749
0.513603 0.514031 0.397482
0.623865 0.507897 0.396552
0.721492 0.512520 0.392233
0.818433 0.520958 0.385016
0.172107 0.618265 0.394568
0.218692 0.617823 0.396735
0.292973 0.617380 0.396963
0.385885 0.616709 0.396414
0.490929 0.615412 0.395178
0.611063 0.612223 0.393240
0.716030 0.609079 0.390066
0.813413 0.618051 0.380804
0.177661 0.713405 0.393072
0.213382 0.713298 0.393118
0.283345 0.713130 0.393195
0.372244 0.712810 0.392233
0.472084 0.712245 0.390646
0.585260 0.710658 0.388312
0.705348 0.707881 0.385122
0.816175 0.709041 0.377905
0.060746 0.823163 0.377539
0.132036 0.823423 0.377539
0.228977 0.824048 0.376547
0.335012 0.825223 0.374762
0.445991 0.826902 0.371984
0.562127 0.828946 0.367895
0.693156 0.830518 0.361807
0.827192 0.831861 0.353765
0.106508 0.052674 0.523751
0.182712 0.063798 0.523568
0.293706 0.082643 0.523110
0.413703 0.100801 0.522744
0.531777 0.112474 0.522561
0.642634 0.122301 0.514839
0.745815 0.136049 0.498146
0.842512 0.153613 0.481071
0.140169 0.176654 0.520638
0.199588 0.177768 0.520760
0.298497 0.180255 0.520913
0.413199 0.182269 0.521065
0.529870 0.183413 0.521202
0.640314 0.186969 0.513741
0.743359 0.195865 0.497780
0.840513 0.207645 0.482200
0.142641 0.284230 0.517922
0.205097 0.287663 0.517754
0.298314 0.287694 0.518090
0.410208 0.287465 0.518547
0.525963 0.287175 0.518898
0.635050 0.289494 0.511437
0.737331 0.294804 0.497719
0.835554 0.301000 0.485710
0.148470 0.399329 0.515618
0.202655 0.399558 0.515496
0.295964 0.400549 0.515206
0.406714 0.402564 0.515419
0.520134 0.402350 0.515953
0.626795 0.403479 0.509255
0.728054 0.405707 0.499947
0.827176 0.407965 0.492226
0.155291 0.514748 0.514900
0.207462 0.514626 0.514763
0.298802 0.514382 0.514427
0.405585 0.513954 0.514000
0.513405 0.513451 0.513420
0.616526 0.514748 0.511620
0.715343 0.516701 0.509133
0.814832 0.519692 0.505333
0.194003 0.616815 0.503624
0.235493 0.616449 0.504006
0.313924 0.615641 0.504952
0.410514 0.614313 0.507515
0.506081 0.613245 0.509789
0.611078 0.611460 0.508385
0.711406 0.610346 0.505959
0.809934 0.619272 0.499352
0.230411 0.711513 0.498131
0.262486 0.711269 0.499474
0.328893 0.710597 0.503029
0.409491 0.710048 0.505516
0.495567 0.709865 0.504662
0.592950 0.709285 0.502953
0.705943 0.707210 0.500298
0.814893 0.709407 0.494194
0.167254 0.822736 0.489723
0.204761 0.822934 0.489830
0.277302 0.823438 0.490181
0.369619 0.824476 0.490852
0.468193 0.826169 0.488808
0.574807 0.828519 0.485420
0.697169 0.830686 0.480598
0.829664 0.832807 0.474113
0.141665 0.084031 0.624018
0.199237 0.090776 0.623941
0.295125 0.103685 0.623621
0.406043 0.117403 0.623255
0.520928 0.127413 0.622843
0.633295 0.134875 0.622492
0.738811 0.147585 0.614862
0.836179 0.165286 0.598871
0.165408 0.181399 0.621897
0.213565 0.182757 0.621912
0.301091 0.185336 0.621897
0.407141 0.188449 0.621820
0.520058 0.190982 0.621698
0.631800 0.194659 0.621424
0.736462 0.203952 0.613855
0.834501 0.215930 0.598932
0.181781 0.287861 0.618936
0.224720 0.288045 0.618982
0.306004 0.288792 0.619135
0.407858 0.289754 0.619257
0.518257 0.291127 0.619287
0.628336 0.293706 0.619150
0.730755 0.299886 0.611673
0.830121 0.306127 0.599313
0.188083 0.395026 0.615961
0.230945 0.396063 0.615930
0.312612 0.399603 0.615717
0.411872 0.403052 0.615686
0.516716 0.404028 0.615900
0.622919 0.405509 0.615930
0.722164 0.408881 0.609522
0.823072 0.410468 0.600427
0.209613 0.505562 0.613657
0.247929 0.506188 0.613459
0.322820 0.507729 0.613047
0.416968 0.510308 0.612421
0.516793 0.513298 0.612451
0.616678 0.513283 0.612863
0.714290 0.513436 0.608377
0.817182 0.511727 0.601938
0.230945 0.612238 0.612451
0.264958 0.612162 0.612345
0.333349 0.611994 0.612116
0.421378 0.611734 0.611795
0.515648 0.611383 0.611399
0.610956 0.610956 0.610956
0.708553 0.612131 0.609186
0.811566 0.613855 0.606348
0.253056 0.709987 0.603815
0.281666 0.709789 0.604028
0.341390 0.709377 0.604425
0.421439 0.708858 0.604898
0.511238 0.708278 0.605707
0.602991 0.707881 0.606500
0.706355 0.706767 0.604868
0.816358 0.709377 0.600946
0.192065 0.822797 0.595544
0.226185 0.822995 0.595712
0.294362 0.823514 0.595911
0.381994 0.824445 0.596170
0.478096 0.826078 0.595132
0.583154 0.828321 0.593881
0.697765 0.831235 0.590433
0.831754 0.833433 0.585412
0.172107 0.109163 0.718166
0.217136 0.113527 0.718120
0.299947 0.122545 0.717998
0.401511 0.133089 0.717830
0.510094 0.142214 0.717678
0.621225 0.150134 0.717418
0.729198 0.160525 0.717006
0.830518 0.176928 0.710155
0.189334 0.187976 0.716823
0.229099 0.189120 0.716838
0.306188 0.191913 0.716869
0.403739 0.195407 0.716854
0.510536 0.199634 0.716823
0.620859 0.204624 0.716625
0.728115 0.212512 0.716228
0.829007 0.224933 0.709667
0.208591 0.289342 0.714534
0.243961 0.289921 0.714565
0.315145 0.291035 0.714656
0.408225 0.292973 0.714733
0.511955 0.295689 0.714794
0.619974 0.299016 0.714687
0.725338 0.304189 0.714397
0.825025 0.311894 0.708476
0.227878 0.396399 0.711666
0.270314 0.402152 0.711269
0.332830 0.402915 0.711360
0.418204 0.404227 0.711528
0.515648 0.405905 0.711696
0.618860 0.407858 0.711818
0.720943 0.410529 0.711772
0.818814 0.413886 0.706905
0.248997 0.502571 0.708736
0.279454 0.503624 0.708675
0.343252 0.506127 0.708553
0.427451 0.509865 0.708446
0.520928 0.513344 0.708537
0.617670 0.513664 0.708949
0.716045 0.513756 0.709285
0.813886 0.513497 0.706493
0.271412 0.606180 0.707851
0.298253 0.606577 0.707698
0.355459 0.607569 0.707378
0.433173 0.608942 0.706890
0.520256 0.609888 0.706584
0.613916 0.610590 0.707012
0.711467 0.609781 0.707652
0.814954 0.607416 0.706600
0.281392 0.707408 0.707698
0.305562 0.707393 0.707668
0.358358 0.707286 0.707530
0.432075 0.707210 0.707363
0.517311 0.707042 0.707118
0.608896 0.706813 0.706813
0.706447 0.706462 0.706462
0.822126 0.707439 0.704173
0.214893 0.822141 0.709682
0.244312 0.822370 0.709667
0.305196 0.822995 0.709545
0.386603 0.824216 0.708965
0.478248 0.826368 0.707073
0.577401 0.829511 0.702266
0.692531 0.832700 0.697429
0.833799 0.834409 0.694133
0.199680 0.125841 0.823667
0.237232 0.128267 0.823697
0.311101 0.133913 0.823819
0.406119 0.140887 0.824064
0.511055 0.147585 0.824537
0.620523 0.153613 0.825101
0.731395 0.159899 0.825666
0.839475 0.167788 0.825605
0.210727 0.192172 0.823056
0.245487 0.193133 0.823163
0.316045 0.195514 0.823392
0.408667 0.198505 0.823743
0.512184 0.202213 0.824262
0.620951 0.206516 0.824857
0.731457 0.211048 0.825544
0.839124 0.216556 0.825559
0.227375 0.290486 0.822278
0.259327 0.290913 0.822385
0.325383 0.292088 0.822644
0.414557 0.294057 0.823117
0.515450 0.296346 0.823743
0.622400 0.299107 0.824491
0.731716 0.301549 0.825299
0.838392 0.304082 0.825528
0.254444 0.402197 0.821561
0.282185 0.402441 0.821698
0.341863 0.403128 0.822004
0.425101 0.404318 0.822568
0.521431 0.405585 0.823331
0.624979 0.406653 0.824308
0.732326 0.406729 0.825345
0.837614 0.406226 0.826047
0.260380 0.505257 0.821790
0.288335 0.505989 0.821912
0.347814 0.507683 0.822232
0.434211 0.512535 0.822461
0.525567 0.512459 0.823423
0.625605 0.511696 0.824598
0.731258 0.509651 0.826001
0.837125 0.506706 0.827298
0.266972 0.611551 0.822980
0.292760 0.611734 0.822965
0.348455 0.612039 0.822980
0.425101 0.611719 0.823423
0.513146 0.609155 0.824735
0.617334 0.609140 0.826108
0.726146 0.606409 0.827863
0.837308 0.602350 0.829557
0.250568 0.718898 0.827924
0.276829 0.718853 0.827909
0.333211 0.718639 0.827878
0.410803 0.718013 0.827894
0.500359 0.716381 0.828000
0.597040 0.711864 0.828840
0.709545 0.705181 0.831235
0.838193 0.700847 0.833188
0.170077 0.833555 0.834150
0.206287 0.833616 0.834165
0.276661 0.833738 0.834241
0.365621 0.833997 0.834394
0.463401 0.834318 0.834608
0.567086 0.834745 0.834897
0.684337 0.835111 0.835142
0.834852 0.834928 0.834882
