content/luts/atmosphere/atmosphere_11.cube
#Created by: inPixio
#Copyright: (C) Copyright 2022 inPixio
TITLE "Atmosphere 8"
#LUT size
LUT_3D_SIZE 32
#data domain
DOMAIN_MIN 0.0 0.0 0.0
DOMAIN_MAX 1.0 1.0 1.0
#LUT data points
0.000000 0.000000 0.000000
0.034501 0.032074 0.031479
0.070954 0.064088 0.063371
0.109270 0.081941 0.080644
0.158587 0.092393 0.090364
0.209552 0.095995 0.094469
0.262882 0.097826 0.097093
0.316991 0.107805 0.104997
0.378759 0.117144 0.118166
0.444724 0.130312 0.131441
0.511955 0.143633 0.146365
0.583108 0.154574 0.162585
0.650324 0.172046 0.179751
0.713359 0.188251 0.200885
0.766720 0.209140 0.224796
0.811582 0.237003 0.251408
0.858915 0.263996 0.284657
0.895552 0.294637 0.315236
0.926650 0.328222 0.351186
0.952880 0.359075 0.386832
0.964859 0.386893 0.414511
0.980240 0.416220 0.449470
0.993118 0.449058 0.485267
0.998413 0.481987 0.520424
1.000000 0.517678 0.561547
1.000000 0.540658 0.585382
1.000000 0.569406 0.617426
1.000000 0.600015 0.650599
1.000000 0.629908 0.680644
1.000000 0.663798 0.716564
1.000000 0.691081 0.743191
1.000000 0.708202 0.760174
0.041596 0.043427 0.040864
0.051164 0.050507 0.047959
0.073671 0.066194 0.063233
0.106157 0.086061 0.081590
0.153674 0.098634 0.091463
0.203372 0.105486 0.095598
0.255390 0.109819 0.099123
0.311635 0.116640 0.105577
0.373220 0.128344 0.117815
0.438087 0.139498 0.131670
0.507393 0.151583 0.146166
0.578744 0.166064 0.161837
0.649622 0.176349 0.178988
0.706249 0.196918 0.200732
0.758984 0.217060 0.224537
0.807248 0.239612 0.251362
0.856291 0.270970 0.283574
0.894514 0.296284 0.314336
0.925292 0.329351 0.349981
0.947540 0.359304 0.382025
0.962112 0.384787 0.410620
0.978515 0.416571 0.446754
0.992538 0.448875 0.483787
0.998200 0.482094 0.519554
0.999939 0.517754 0.559289
1.000000 0.538415 0.582284
1.000000 0.567575 0.614878
1.000000 0.599954 0.649867
1.000000 0.629816 0.680095
1.000000 0.666423 0.718319
1.000000 0.689769 0.741634
1.000000 0.706569 0.758389
0.064088 0.070161 0.063371
0.069780 0.073045 0.066468
0.080034 0.077226 0.070817
0.106981 0.090364 0.081239
0.149752 0.108263 0.092897
0.198245 0.116808 0.096483
0.248737 0.123659 0.099901
0.303975 0.131365 0.106981
0.364416 0.141878 0.118608
0.431663 0.155291 0.131823
0.502617 0.166491 0.145831
0.574640 0.177279 0.161212
0.638560 0.192721 0.179751
0.695689 0.208209 0.200732
0.749538 0.227085 0.224445
0.803632 0.248295 0.250935
0.853483 0.278584 0.282506
0.890990 0.302022 0.313054
0.919692 0.331563 0.345785
0.941527 0.359777 0.376761
0.959091 0.382376 0.406394
0.976867 0.418524 0.444343
0.990982 0.450156 0.481392
0.997925 0.481514 0.517250
0.999847 0.517556 0.556451
1.000000 0.535851 0.578805
1.000000 0.569390 0.615030
1.000000 0.601724 0.649958
1.000000 0.629221 0.678981
1.000000 0.670344 0.721111
1.000000 0.688289 0.739864
1.000000 0.704753 0.756375
0.082872 0.103029 0.080766
0.087068 0.103395 0.081132
0.096895 0.106432 0.083803
0.114382 0.110811 0.086961
0.147128 0.120470 0.092088
0.190982 0.133776 0.097414
0.240162 0.143145 0.101564
0.296315 0.153079 0.108354
0.357260 0.164920 0.119265
0.424033 0.176349 0.132189
0.490623 0.188602 0.146777
0.556115 0.200885 0.163256
0.620493 0.214832 0.181659
0.680369 0.227970 0.201953
0.741604 0.245472 0.224674
0.797055 0.266545 0.251286
0.848035 0.287846 0.280552
0.883681 0.314366 0.311772
0.911711 0.337087 0.341466
0.933547 0.361212 0.370626
0.956725 0.391180 0.406256
0.974624 0.421332 0.441077
0.987778 0.450431 0.476112
0.997833 0.483330 0.515145
0.999695 0.517311 0.552575
1.000000 0.535622 0.575647
1.000000 0.572732 0.615793
1.000000 0.604196 0.650065
1.000000 0.630915 0.679500
1.000000 0.674632 0.723949
1.000000 0.690150 0.740612
1.000000 0.707225 0.757565
0.094148 0.141878 0.090257
0.101961 0.142153 0.090486
0.111162 0.142229 0.090700
0.127810 0.144884 0.091981
0.153933 0.147997 0.093004
0.188708 0.154513 0.095506
0.233127 0.165026 0.100298
0.284657 0.176700 0.110002
0.341024 0.189075 0.121691
0.401419 0.201709 0.135882
0.466346 0.215061 0.150927
0.533990 0.228321 0.166491
0.603296 0.241321 0.183719
0.668742 0.254978 0.202747
0.729900 0.270741 0.226032
0.787594 0.289387 0.252644
0.837980 0.310369 0.281895
0.873625 0.330648 0.311193
0.902800 0.352132 0.340734
0.930556 0.374960 0.371984
0.953811 0.403677 0.406836
0.970153 0.425986 0.436591
0.989303 0.471687 0.491310
0.998550 0.499611 0.525811
0.999512 0.517037 0.547585
1.000000 0.549142 0.584436
1.000000 0.577112 0.616892
1.000000 0.608133 0.651118
1.000000 0.641291 0.687114
1.000000 0.680262 0.727581
1.000000 0.693706 0.742184
1.000000 0.711116 0.759609
0.103304 0.182147 0.094469
0.108904 0.182086 0.094575
0.119188 0.181704 0.094575
0.137453 0.180301 0.094682
0.159640 0.180789 0.095109
0.188968 0.182040 0.095995
0.224155 0.186816 0.099901
0.271168 0.198581 0.110811
0.325017 0.213138 0.124804
0.385657 0.227634 0.138872
0.449699 0.242069 0.154574
0.516976 0.256931 0.170321
0.584924 0.271214 0.187671
0.658259 0.287251 0.207691
0.724712 0.304524 0.232776
0.778821 0.320272 0.258473
0.824750 0.336294 0.284947
0.867338 0.355566 0.314733
0.899901 0.374487 0.344045
0.926207 0.396017 0.375509
0.949798 0.419638 0.409491
0.971161 0.449577 0.448982
0.988678 0.491615 0.503136
0.999069 0.518990 0.538140
0.999252 0.532235 0.555779
1.000000 0.565667 0.595575
1.000000 0.592325 0.627329
1.000000 0.621332 0.660319
1.000000 0.653620 0.695903
1.000000 0.685802 0.730510
1.000000 0.695567 0.740856
1.000000 0.715297 0.761074
0.114992 0.219989 0.099901
0.120241 0.219760 0.099992
0.127886 0.219318 0.100099
0.145434 0.218158 0.100298
0.169101 0.217014 0.100298
0.196429 0.216068 0.100694
0.228946 0.219150 0.103395
0.267384 0.224704 0.109178
0.318044 0.239200 0.124956
0.375235 0.254948 0.142077
0.437766 0.270634 0.157900
0.507469 0.288853 0.176928
0.579294 0.306142 0.196368
0.651667 0.323919 0.218036
0.715175 0.338064 0.240559
0.772961 0.353216 0.265171
0.820234 0.368277 0.292210
0.863310 0.386023 0.322438
0.894789 0.401511 0.349767
0.923522 0.421332 0.382773
0.947601 0.444572 0.418204
0.969131 0.472633 0.459525
0.984634 0.504585 0.502785
0.997910 0.531869 0.541024
0.998825 0.548760 0.563684
1.000000 0.581964 0.605356
1.000000 0.605219 0.634012
1.000000 0.634577 0.668421
1.000000 0.662638 0.700435
1.000000 0.678981 0.718273
1.000000 0.699153 0.740902
1.000000 0.720653 0.763088
0.128496 0.261646 0.109361
0.133852 0.261646 0.109453
0.145510 0.260807 0.109361
0.160067 0.259770 0.109361
0.181704 0.258961 0.109545
0.208576 0.256291 0.110002
0.237171 0.254459 0.111254
0.271382 0.257054 0.115526
0.309010 0.261570 0.121859
0.365301 0.277913 0.139849
0.425681 0.296101 0.158770
0.491096 0.313283 0.178500
0.559503 0.332921 0.201312
0.631830 0.351659 0.223209
0.699260 0.369162 0.246952
0.760647 0.385382 0.272023
0.810803 0.399420 0.297963
0.853605 0.414069 0.325628
0.887358 0.427756 0.353414
0.915297 0.445533 0.386145
0.939162 0.461280 0.415518
0.958816 0.483040 0.451026
0.976608 0.507301 0.488945
0.990417 0.533700 0.527382
0.998612 0.562829 0.568200
1.000000 0.592798 0.607004
1.000000 0.618601 0.640482
1.000000 0.638254 0.664622
1.000000 0.655833 0.686641
1.000000 0.674998 0.708919
1.000000 0.703410 0.740673
1.000000 0.725643 0.764218
0.144045 0.298299 0.123491
0.151064 0.297505 0.123659
0.161212 0.296452 0.123812
0.174960 0.295110 0.124147
0.194476 0.293858 0.124712
0.218784 0.290654 0.125521
0.244495 0.288289 0.126558
0.272694 0.285573 0.128039
0.307057 0.289052 0.132265
0.344503 0.293187 0.137530
0.407660 0.315526 0.156390
0.477256 0.339132 0.178286
0.548333 0.361029 0.200732
0.618936 0.381766 0.227298
0.688411 0.400382 0.250904
0.748714 0.415992 0.276295
0.796094 0.427924 0.301350
0.838224 0.439246 0.326482
0.872404 0.450874 0.353582
0.900618 0.462486 0.380575
0.924834 0.475853 0.408164
0.949523 0.497795 0.447074
0.972168 0.525216 0.490669
0.987549 0.551553 0.532204
0.995758 0.579110 0.572335
1.000000 0.599817 0.603464
1.000000 0.619959 0.630869
1.000000 0.634714 0.652171
1.000000 0.654795 0.677791
1.000000 0.682750 0.710994
1.000000 0.714122 0.746502
1.000000 0.735454 0.769680
0.168032 0.337743 0.139788
0.173190 0.337560 0.139849
0.178561 0.337514 0.139788
0.191241 0.337453 0.139925
0.210773 0.336324 0.140154
0.235737 0.334661 0.140383
0.262089 0.333471 0.140963
0.291463 0.331884 0.141741
0.322774 0.330999 0.142718
0.365728 0.339086 0.147540
0.413245 0.349340 0.153338
0.477958 0.369543 0.174685
0.544579 0.390936 0.198047
0.609445 0.408896 0.224628
0.670497 0.425879 0.252171
0.726925 0.439750 0.277104
0.777325 0.453254 0.305135
0.818692 0.463844 0.328969
0.859602 0.476783 0.357290
0.893553 0.489525 0.385412
0.923796 0.507103 0.421332
0.948287 0.527367 0.459251
0.968872 0.548623 0.498619
0.982605 0.569650 0.535546
0.993210 0.587533 0.567086
0.998047 0.604105 0.593988
1.000000 0.622934 0.622904
1.000000 0.645625 0.654200
1.000000 0.671977 0.688228
1.000000 0.699855 0.722042
1.000000 0.724712 0.751644
1.000000 0.740383 0.769696
0.193607 0.384985 0.156069
0.197757 0.384711 0.156130
0.202304 0.384466 0.156252
0.213840 0.383932 0.156634
0.231327 0.383108 0.157137
0.255177 0.381186 0.157839
0.281361 0.379645 0.158709
0.311223 0.378348 0.160266
0.341283 0.376989 0.161776
0.373953 0.375921 0.163867
0.415656 0.382376 0.169451
0.460884 0.389700 0.176532
0.527489 0.412345 0.197025
0.599298 0.436637 0.222385
0.666194 0.457649 0.250904
0.722484 0.472572 0.280613
0.776104 0.487495 0.309392
0.816098 0.496941 0.337957
0.854826 0.508843 0.366003
0.891157 0.522255 0.398261
0.920653 0.538567 0.435111
0.942290 0.551598 0.467292
0.960983 0.568795 0.502586
0.975067 0.582483 0.532174
0.988846 0.604425 0.570092
0.997406 0.624949 0.604700
1.000000 0.646052 0.636957
1.000000 0.665980 0.666667
1.000000 0.689036 0.697917
1.000000 0.709270 0.725078
1.000000 0.729564 0.750088
1.000000 0.745022 0.769040
0.211200 0.432822 0.176410
0.217853 0.432883 0.176471
0.226032 0.432868 0.176700
0.238468 0.432883 0.176928
0.254505 0.432883 0.177340
0.277989 0.432059 0.177569
0.304585 0.431724 0.178241
0.334691 0.431159 0.179156
0.366522 0.429954 0.179645
0.399863 0.429816 0.181003
0.434760 0.429145 0.182086
0.487160 0.441642 0.190311
0.556298 0.466362 0.204303
0.621073 0.485924 0.227726
0.681209 0.501549 0.254002
0.730739 0.512261 0.283360
0.776989 0.522759 0.314992
0.817166 0.531838 0.345190
0.854322 0.545037 0.384024
0.889662 0.558831 0.418174
0.915084 0.568246 0.448585
0.937606 0.579873 0.478874
0.957504 0.594980 0.514138
0.974014 0.612345 0.549325
0.988632 0.634028 0.589792
0.995346 0.648920 0.617807
1.000000 0.664210 0.645686
1.000000 0.680781 0.672419
1.000000 0.701366 0.702724
1.000000 0.719905 0.728084
1.000000 0.737957 0.751919
1.000000 0.755306 0.773282
0.245350 0.496346 0.198871
0.248295 0.495934 0.198825
0.253742 0.495293 0.198627
0.264408 0.494575 0.198535
0.283681 0.493889 0.198825
0.305730 0.493233 0.199222
0.332601 0.491188 0.199374
0.361883 0.488670 0.199954
0.392340 0.486946 0.200977
0.428397 0.486870 0.203281
0.462104 0.485741 0.205097
0.501671 0.487099 0.208347
0.552438 0.497749 0.216693
0.601495 0.505425 0.227085
0.658198 0.520028 0.247105
0.717556 0.536294 0.278187
0.761196 0.544167 0.304433
0.803616 0.553613 0.336873
0.840452 0.563455 0.369879
0.876570 0.577005 0.408743
0.904555 0.588937 0.444389
0.932158 0.604151 0.483803
0.951888 0.618845 0.520729
0.968429 0.632181 0.554376
0.981231 0.647257 0.587411
0.991226 0.660929 0.616815
0.997269 0.675471 0.644053
0.999741 0.689387 0.669535
1.000000 0.704875 0.694087
1.000000 0.725490 0.724468
1.000000 0.745251 0.750958
1.000000 0.762921 0.774167
0.281315 0.548714 0.222263
0.285069 0.547829 0.222004
0.289448 0.546792 0.221653
0.295430 0.545419 0.221256
0.307622 0.543862 0.220874
0.327276 0.541741 0.220523
0.352880 0.538171 0.220157
0.380469 0.534844 0.219715
0.410544 0.532784 0.219760
0.445029 0.531838 0.220920
0.477256 0.529320 0.221653
0.514962 0.529183 0.224018
0.550210 0.527947 0.225711
0.594369 0.532265 0.232578
0.641856 0.540536 0.242695
0.687861 0.547417 0.260273
0.735454 0.556817 0.285359
0.785473 0.571771 0.321523
0.830991 0.586084 0.359197
0.868513 0.599191 0.400626
0.897566 0.611139 0.441947
0.923110 0.623941 0.481590
0.941482 0.634531 0.517357
0.957076 0.642878 0.544381
0.970932 0.651484 0.570413
0.981842 0.661280 0.595163
0.993256 0.676173 0.626856
0.997543 0.691966 0.656245
1.000000 0.711940 0.690181
1.000000 0.735164 0.725124
1.000000 0.754284 0.752972
1.000000 0.767712 0.771435
0.294667 0.588464 0.241550
0.301076 0.588144 0.241642
0.308232 0.587701 0.241642
0.318044 0.587137 0.241672
0.330571 0.586526 0.241749
0.347051 0.583856 0.241108
0.371267 0.581552 0.240757
0.398703 0.580499 0.241199
0.428916 0.579263 0.241871
0.462394 0.578454 0.243198
0.495949 0.578103 0.244572
0.533974 0.579049 0.247349
0.571878 0.580179 0.250095
0.609827 0.579828 0.253376
0.653056 0.583993 0.260517
0.696727 0.588891 0.272374
0.743313 0.597360 0.291936
0.786542 0.605371 0.323507
0.824674 0.612467 0.354086
0.856840 0.618418 0.388327
0.885924 0.626505 0.424704
0.908064 0.631785 0.456809
0.926955 0.638773 0.489754
0.944472 0.647028 0.521782
0.961700 0.661891 0.560815
0.977188 0.677226 0.597040
0.989563 0.695811 0.635844
0.996887 0.713924 0.670573
1.000000 0.733349 0.704356
1.000000 0.748714 0.730861
1.000000 0.763806 0.754223
1.000000 0.773724 0.769314
0.335607 0.650706 0.273014
0.336782 0.650599 0.273014
0.338384 0.650370 0.272938
0.345342 0.649577 0.272648
0.361852 0.647425 0.272236
0.381399 0.644785 0.271687
0.403601 0.641535 0.271016
0.428489 0.638575 0.270634
0.457908 0.636301 0.271443
0.489311 0.633860 0.272541
0.521065 0.631540 0.273777
0.556451 0.630320 0.276127
0.588830 0.626673 0.276799
0.623560 0.623774 0.278492
0.653437 0.617456 0.277623
0.688411 0.614694 0.281590
0.723583 0.614130 0.288258
0.762249 0.617456 0.304860
0.805020 0.627253 0.335897
0.843809 0.637125 0.373953
0.878691 0.647639 0.413382
0.905470 0.656001 0.453315
0.927672 0.666209 0.494545
0.948211 0.679210 0.538827
0.963333 0.694957 0.583963
0.975692 0.706142 0.617365
0.986404 0.717617 0.647410
0.994064 0.730266 0.676494
0.998840 0.743420 0.703273
1.000000 0.757565 0.729168
1.000000 0.772595 0.754543
1.000000 0.783948 0.772061
0.367559 0.683894 0.298940
0.370260 0.683513 0.298741
0.373907 0.683009 0.298589
0.379278 0.682338 0.298405
0.386252 0.681453 0.298146
0.402106 0.682490 0.300008
0.424613 0.681376 0.300557
0.449805 0.680217 0.301320
0.477791 0.678874 0.302236
0.507439 0.677150 0.303029
0.539834 0.676555 0.305104
0.572488 0.674769 0.306325
0.604822 0.672114 0.307057
0.638605 0.669734 0.308232
0.670344 0.665568 0.307958
0.702113 0.661112 0.307652
0.735225 0.658030 0.309041
0.772244 0.659922 0.320363
0.810101 0.663752 0.337942
0.846372 0.671138 0.375830
0.879149 0.678096 0.414633
0.905882 0.685039 0.456092
0.927260 0.691447 0.496269
0.944747 0.699565 0.535744
0.959304 0.707897 0.573510
0.970642 0.717952 0.608667
0.981292 0.729885 0.643992
0.991257 0.743038 0.676188
0.997421 0.756909 0.706539
0.999710 0.771405 0.734081
1.000000 0.786297 0.760403
1.000000 0.799146 0.781125
0.389365 0.730251 0.326741
0.396246 0.731350 0.328145
0.404059 0.732586 0.329748
0.414893 0.734356 0.332052
0.428748 0.736584 0.335103
0.445640 0.739269 0.338903
0.465095 0.742199 0.343389
0.487022 0.739467 0.343221
0.511437 0.735256 0.342260
0.537408 0.730541 0.341207
0.564813 0.726757 0.341100
0.593866 0.721996 0.340765
0.623621 0.717922 0.340963
0.653361 0.712734 0.340703
0.683101 0.707546 0.340444
0.712261 0.701885 0.339986
0.741360 0.696391 0.339757
0.771176 0.691936 0.341436
0.807126 0.695033 0.355535
0.840909 0.696880 0.372808
0.872343 0.702602 0.409720
0.899779 0.706783 0.448692
0.922698 0.712612 0.487862
0.941756 0.718807 0.529229
0.957183 0.726848 0.567910
0.970199 0.735500 0.606195
0.979889 0.746731 0.642756
0.988525 0.757794 0.676844
0.995468 0.769970 0.707561
0.999374 0.783368 0.736935
1.000000 0.796902 0.762509
1.000000 0.809506 0.784955
0.424933 0.762875 0.365789
0.426627 0.763348 0.366476
0.428595 0.763928 0.367392
0.433509 0.764935 0.368811
0.445411 0.763943 0.368902
0.459602 0.762158 0.368444
0.476860 0.760205 0.367987
0.496925 0.758114 0.367483
0.518212 0.755001 0.366033
0.542413 0.752194 0.365133
0.568566 0.748806 0.364248
0.596033 0.746075 0.364233
0.624506 0.742809 0.363638
0.653605 0.738933 0.362982
0.682780 0.735485 0.362676
0.711605 0.730739 0.361425
0.741207 0.727428 0.361502
0.770001 0.722896 0.360830
0.800229 0.720623 0.362707
0.833707 0.722881 0.377585
0.866911 0.725628 0.394141
0.894011 0.730282 0.436667
0.919112 0.733944 0.478172
0.937041 0.738155 0.519112
0.953140 0.742550 0.558648
0.965515 0.749188 0.595972
0.976318 0.756649 0.632837
0.985107 0.767605 0.668071
0.992615 0.778729 0.701824
0.998169 0.791699 0.731945
0.999985 0.805859 0.762036
1.000000 0.816541 0.781567
0.449928 0.785840 0.383291
0.452598 0.785809 0.383520
0.455619 0.785763 0.383749
0.459922 0.785718 0.384146
0.465522 0.785687 0.384649
0.473472 0.785901 0.385748
0.488273 0.783093 0.384161
0.504402 0.778546 0.380835
0.522499 0.773709 0.377432
0.543587 0.769787 0.375540
0.569772 0.768795 0.377371
0.597894 0.768017 0.379858
0.625895 0.766430 0.381720
0.655360 0.764965 0.384009
0.685588 0.763272 0.387015
0.713619 0.760327 0.388525
0.743511 0.757824 0.391165
0.770443 0.754025 0.392035
0.799329 0.751156 0.394583
0.825391 0.746822 0.395148
0.855695 0.747890 0.409720
0.882582 0.746853 0.426200
0.907805 0.750927 0.464424
0.929931 0.753994 0.505638
0.947616 0.759365 0.546365
0.962066 0.763775 0.585626
0.973846 0.771252 0.623133
0.983475 0.778012 0.657786
0.991135 0.788312 0.690852
0.997757 0.799207 0.724102
0.999481 0.815412 0.759243
1.000000 0.825849 0.781766
0.476173 0.815457 0.423194
0.479118 0.815351 0.423407
0.482902 0.814984 0.423362
0.488258 0.814588 0.423392
0.497078 0.814496 0.424445
0.508141 0.814466 0.425834
0.521309 0.814420 0.427573
0.536553 0.813825 0.428992
0.555169 0.811856 0.428794
0.576181 0.810193 0.429404
0.598276 0.807874 0.429206
0.621729 0.805615 0.429450
0.646540 0.803006 0.429648
0.671794 0.799939 0.429511
0.696422 0.796201 0.428122
0.722637 0.792401 0.427466
0.746578 0.787717 0.424628
0.772534 0.783246 0.423438
0.797177 0.778988 0.421317
0.823072 0.774640 0.420310
0.848951 0.771740 0.421164
0.875990 0.771725 0.436729
0.903349 0.773343 0.456977
0.925399 0.776700 0.496880
0.945724 0.780346 0.540353
0.960021 0.784299 0.580896
0.972274 0.789319 0.621775
0.982055 0.796277 0.659663
0.990250 0.805859 0.697627
0.996643 0.817731 0.732631
0.999878 0.829923 0.766033
1.000000 0.837064 0.782818
0.510414 0.843046 0.461570
0.511406 0.843092 0.461799
0.512596 0.843137 0.462074
0.516579 0.843153 0.462654
0.524727 0.843076 0.463600
0.534249 0.841947 0.463050
0.545327 0.839918 0.461280
0.557946 0.837552 0.459236
0.572763 0.835203 0.457679
0.591531 0.833433 0.457984
0.613779 0.832975 0.461189
0.637354 0.832425 0.464622
0.659281 0.829892 0.464515
0.680934 0.825681 0.462043
0.703731 0.821653 0.460304
0.726803 0.818219 0.459403
0.750561 0.813764 0.457435
0.774670 0.811154 0.458290
0.800168 0.807645 0.458305
0.824857 0.805615 0.461296
0.851499 0.803815 0.465202
0.875868 0.802289 0.469581
0.901473 0.803174 0.486671
0.923354 0.802472 0.508400
0.942184 0.804212 0.543221
0.957916 0.805478 0.582956
0.970214 0.809186 0.621180
0.980545 0.813520 0.658625
0.989014 0.820478 0.693919
0.995636 0.828092 0.726299
0.998825 0.837446 0.755673
0.999924 0.846662 0.781689
0.551690 0.866972 0.502586
0.553368 0.866835 0.502663
0.555383 0.866713 0.502785
0.558145 0.866484 0.502892
0.561837 0.866239 0.503090
0.566461 0.865889 0.503334
0.575662 0.864439 0.502525
0.588037 0.862776 0.501869
0.602136 0.861311 0.501762
0.617716 0.859617 0.501671
0.635386 0.857954 0.502159
0.654948 0.856413 0.503319
0.674998 0.854246 0.503792
0.695781 0.851957 0.504036
0.717144 0.849393 0.503792
0.739315 0.846510 0.503594
0.761364 0.844007 0.503716
0.784436 0.841016 0.503975
0.806699 0.838575 0.504463
0.830259 0.835569 0.505409
0.852613 0.832929 0.506600
0.875670 0.830091 0.508370
0.897383 0.827665 0.510094
0.918517 0.825895 0.523385
0.937713 0.824308 0.542184
0.953155 0.823652 0.572198
0.967147 0.824903 0.611048
0.977768 0.827878 0.648173
0.986954 0.832593 0.684962
0.994156 0.839292 0.719188
0.998276 0.848219 0.752285
1.000000 0.855909 0.776349
0.582727 0.886152 0.542062
0.584161 0.886046 0.542092
0.585840 0.885863 0.542153
0.588937 0.885557 0.542107
0.593469 0.885084 0.541970
0.599084 0.884474 0.541772
0.605982 0.883696 0.541543
0.614511 0.882567 0.540993
0.626825 0.880934 0.540398
0.640940 0.879545 0.540581
0.656275 0.878172 0.541085
0.671855 0.876127 0.540444
0.689174 0.873625 0.539437
0.706157 0.870680 0.537362
0.724300 0.867796 0.535805
0.744289 0.865538 0.535760
0.765026 0.863066 0.535683
0.785123 0.860426 0.535226
0.806714 0.858106 0.535836
0.828046 0.855924 0.537240
0.850065 0.853727 0.538537
0.871428 0.851820 0.540734
0.893019 0.849714 0.542535
0.913298 0.847532 0.544167
0.932616 0.845624 0.555734
0.948913 0.843061 0.574868
0.963195 0.842557 0.603098
0.974884 0.843427 0.641077
0.984649 0.847028 0.678325
0.992691 0.852491 0.715129
0.998062 0.860227 0.749371
0.999817 0.866468 0.771603
0.612299 0.903761 0.578210
0.612772 0.903761 0.578286
0.613321 0.903761 0.578378
0.616342 0.903471 0.578256
0.620508 0.903075 0.578149
0.625925 0.902434 0.577859
0.632853 0.901549 0.577188
0.640940 0.900359 0.576059
0.650202 0.899031 0.574762
0.660777 0.897551 0.573495
0.674983 0.896071 0.573312
0.689113 0.894545 0.572885
0.704173 0.892882 0.572458
0.720455 0.890715 0.571389
0.737102 0.888502 0.570932
0.754467 0.886107 0.570535
0.772030 0.883360 0.569085
0.790250 0.880415 0.567514
0.808774 0.877760 0.567285
0.828702 0.875197 0.568368
0.848539 0.873030 0.570352
0.868483 0.870787 0.572458
0.888258 0.868971 0.575372
0.907637 0.866713 0.577478
0.926635 0.865064 0.580499
0.944030 0.862852 0.590127
0.959152 0.861448 0.610391
0.972046 0.861128 0.638102
0.982498 0.863233 0.675593
0.990967 0.866880 0.711559
0.997559 0.872831 0.745632
0.999725 0.878843 0.771328
0.642161 0.916686 0.609979
0.642893 0.916533 0.609812
0.643717 0.916365 0.609598
0.645136 0.916121 0.609415
0.647288 0.915816 0.609262
0.649928 0.915435 0.609064
0.655177 0.914565 0.608377
0.662684 0.913268 0.607218
0.671367 0.911925 0.606317
0.681285 0.910765 0.606088
0.692317 0.909423 0.605982
0.705150 0.907774 0.605737
0.718380 0.905913 0.604776
0.731762 0.903944 0.603739
0.746227 0.901793 0.602853
0.761227 0.899306 0.601038
0.776242 0.896635 0.598856
0.792996 0.894591 0.598672
0.811765 0.893187 0.600961
0.829892 0.891676 0.603006
0.849622 0.890745 0.607019
0.868452 0.889525 0.610285
0.887251 0.888609 0.614008
0.905592 0.887373 0.617029
0.923552 0.886290 0.620050
0.940810 0.884672 0.621653
0.956985 0.883146 0.629130
0.969711 0.880781 0.646479
0.981170 0.879957 0.670146
0.989761 0.882490 0.708003
0.996124 0.886732 0.743328
0.999435 0.893050 0.775006
0.661173 0.926650 0.632425
0.661982 0.926528 0.632334
0.662913 0.926406 0.632197
0.664271 0.926223 0.632013
0.666346 0.925979 0.631876
0.670527 0.925765 0.632181
0.675670 0.925444 0.632624
0.681682 0.925109 0.633143
0.689235 0.924468 0.633265
0.698604 0.923384 0.632868
0.710018 0.922789 0.634562
0.723262 0.922667 0.638010
0.737224 0.922286 0.641032
0.750576 0.920943 0.641260
0.765255 0.920409 0.644144
0.780636 0.919829 0.647242
0.795819 0.918441 0.648158
0.811368 0.917418 0.650492
0.827054 0.916106 0.652308
0.842542 0.914260 0.652659
0.858137 0.912383 0.653544
0.874128 0.910658 0.655314
0.890288 0.908888 0.657145
0.906066 0.907378 0.659663
0.922118 0.905745 0.661845
0.937530 0.904295 0.664668
0.953109 0.902815 0.667186
0.967346 0.901640 0.675044
0.978744 0.900771 0.695049
0.988678 0.900847 0.719265
0.995316 0.903868 0.750988
0.999085 0.906401 0.774258
0.689571 0.939864 0.667948
0.689952 0.939864 0.668086
0.691600 0.939803 0.668391
0.694087 0.939666 0.668833
0.697505 0.939513 0.669490
0.701778 0.939330 0.670344
0.707012 0.939101 0.671397
0.713008 0.938811 0.672480
0.719738 0.938323 0.673304
0.727260 0.937758 0.674250
0.738033 0.937438 0.677012
0.751202 0.937255 0.681025
0.760800 0.936370 0.681697
0.770306 0.935012 0.681025
0.783566 0.934051 0.683055
0.795163 0.932830 0.683650
0.807843 0.931685 0.685222
0.821317 0.930266 0.686229
