content/luts/atmosphere/atmosphere_08.cube
#Created by: inPixio
#Copyright: (C) Copyright 2022 inPixio
TITLE "Atmosphere 8"
#LUT size
LUT_3D_SIZE 32
#data domain
DOMAIN_MIN 0.0 0.0 0.0
DOMAIN_MAX 1.0 1.0 1.0
#LUT data points
0.142855 0.133700 0.164614
0.144945 0.134371 0.165393
0.147936 0.135103 0.166430
0.153338 0.137148 0.168628
0.161898 0.139437 0.171649
0.172168 0.141939 0.174960
0.184649 0.144671 0.178668
0.199664 0.147936 0.182742
0.219104 0.151446 0.187930
0.242222 0.155871 0.193652
0.269245 0.160967 0.200351
0.299672 0.166613 0.208164
0.334691 0.174228 0.217136
0.373861 0.182315 0.228016
0.413611 0.191898 0.240086
0.454688 0.203372 0.252949
0.499306 0.214832 0.267704
0.543877 0.229511 0.282399
0.591394 0.247272 0.300557
0.639475 0.267460 0.321294
0.682582 0.292210 0.343023
0.723415 0.318563 0.367605
0.761318 0.349538 0.393011
0.793988 0.384100 0.419989
0.825834 0.422538 0.450874
0.845792 0.454627 0.474434
0.866667 0.491478 0.502617
0.885405 0.530282 0.532128
0.900008 0.569589 0.561166
0.911620 0.614206 0.597040
0.918669 0.651881 0.627543
0.922362 0.676265 0.647944
0.144396 0.135668 0.165942
0.145632 0.135882 0.166125
0.148791 0.136690 0.167147
0.153872 0.138094 0.168795
0.162280 0.140444 0.171649
0.172732 0.142992 0.174960
0.185306 0.145769 0.178775
0.200244 0.148928 0.182696
0.219455 0.152621 0.187564
0.242451 0.156893 0.193500
0.269596 0.162097 0.200107
0.300435 0.168322 0.207691
0.334966 0.174914 0.216739
0.373175 0.184100 0.227802
0.412497 0.193652 0.239887
0.453574 0.204105 0.252918
0.499352 0.217227 0.267002
0.543755 0.230182 0.281972
0.591348 0.248219 0.300313
0.637156 0.269062 0.320211
0.680354 0.291798 0.341955
0.722423 0.319387 0.366476
0.760861 0.349600 0.392310
0.793790 0.384344 0.419516
0.824811 0.422843 0.449622
0.844511 0.453010 0.472801
0.865660 0.490105 0.501228
0.885267 0.530266 0.531640
0.899916 0.569574 0.560861
0.911940 0.616312 0.598123
0.918486 0.650736 0.626368
0.922164 0.674662 0.646433
0.145510 0.138521 0.167498
0.146990 0.138659 0.167849
0.149477 0.139010 0.168216
0.154971 0.140444 0.169741
0.163256 0.142580 0.171939
0.174105 0.145235 0.174853
0.186816 0.147860 0.178561
0.201801 0.150927 0.182742
0.220127 0.154452 0.187411
0.243671 0.159274 0.193088
0.270939 0.164324 0.199710
0.301473 0.170031 0.207370
0.335317 0.178073 0.216617
0.372122 0.186511 0.227634
0.411475 0.195956 0.239735
0.453788 0.206775 0.252430
0.499565 0.219944 0.266239
0.543587 0.232578 0.281315
0.589792 0.250752 0.299458
0.634714 0.270939 0.319051
0.677867 0.291386 0.340780
0.721996 0.321202 0.365225
0.760128 0.351110 0.391165
0.792798 0.384253 0.418387
0.823468 0.422980 0.448081
0.843046 0.451103 0.470970
0.865934 0.491478 0.501061
0.885451 0.531609 0.531472
0.899641 0.569101 0.560174
0.912490 0.619410 0.599878
0.918273 0.649424 0.625040
0.921965 0.672908 0.644755
0.148516 0.143984 0.170657
0.149477 0.144045 0.170840
0.152041 0.144534 0.171298
0.156634 0.145296 0.171939
0.164614 0.146990 0.173358
0.175403 0.149416 0.175525
0.189120 0.152422 0.178607
0.204898 0.155428 0.182467
0.223468 0.159030 0.186984
0.246250 0.163012 0.192721
0.273152 0.168795 0.199420
0.302876 0.175403 0.207416
0.336019 0.182910 0.216693
0.372641 0.191135 0.227634
0.412680 0.201312 0.239048
0.455406 0.212329 0.251637
0.499275 0.223514 0.265354
0.544244 0.238636 0.280827
0.588510 0.255100 0.298619
0.632105 0.273869 0.317922
0.679423 0.297505 0.340368
0.721584 0.323842 0.363546
0.757839 0.352468 0.388922
0.792096 0.385916 0.417075
0.821576 0.423240 0.445960
0.841672 0.451209 0.469154
0.866575 0.494011 0.501152
0.885710 0.533532 0.531258
0.899687 0.570443 0.560571
0.912993 0.622736 0.601495
0.918441 0.650782 0.625361
0.922164 0.674815 0.645625
0.152102 0.151843 0.174685
0.153536 0.152041 0.174914
0.155352 0.152300 0.175189
0.159335 0.153018 0.175738
0.166369 0.154131 0.176471
0.176532 0.156191 0.177859
0.190616 0.159091 0.179812
0.208301 0.162829 0.182742
0.227512 0.166552 0.187244
0.249760 0.170947 0.192523
0.276371 0.176181 0.199710
0.306111 0.182910 0.207599
0.339452 0.191028 0.216526
0.375921 0.199817 0.226658
0.415396 0.209278 0.238392
0.457740 0.220523 0.251103
0.501991 0.233249 0.265171
0.545739 0.247227 0.280781
0.590234 0.263752 0.298650
0.635752 0.282933 0.318105
0.682063 0.306142 0.340093
0.720516 0.328222 0.361608
0.766339 0.367193 0.395087
0.797589 0.397559 0.421317
0.819196 0.423652 0.443320
0.846037 0.461494 0.472984
0.867475 0.497353 0.501305
0.885939 0.536675 0.531624
0.901473 0.578790 0.564996
0.913680 0.627039 0.603632
0.918730 0.653407 0.626123
0.922499 0.677836 0.647150
0.156695 0.162463 0.179599
0.157717 0.162585 0.179812
0.159762 0.162951 0.180133
0.163684 0.163317 0.180682
0.169207 0.164218 0.181491
0.178668 0.165759 0.182361
0.191287 0.168154 0.183825
0.209751 0.172396 0.185885
0.231785 0.177569 0.188968
0.255207 0.182422 0.193713
0.283101 0.188296 0.199374
0.312779 0.194720 0.207507
0.345525 0.202243 0.216571
0.382696 0.212207 0.226703
0.422858 0.222690 0.238560
0.463783 0.233585 0.251637
0.505867 0.245350 0.265644
0.551995 0.260411 0.281086
0.597559 0.277348 0.299092
0.642100 0.296284 0.318990
0.685741 0.317845 0.340810
0.730251 0.344213 0.365499
0.772976 0.381491 0.399756
0.804166 0.411597 0.426246
0.823667 0.435523 0.446571
0.851377 0.474296 0.478004
0.871687 0.509300 0.506127
0.888533 0.547189 0.536675
0.903532 0.588556 0.569772
0.914229 0.631220 0.605203
0.918898 0.654383 0.624781
0.922728 0.680537 0.647685
0.162829 0.175845 0.185992
0.163928 0.175952 0.186145
0.165454 0.176120 0.186404
0.168978 0.176638 0.186923
0.175403 0.177630 0.187884
0.183398 0.178882 0.188815
0.195544 0.181384 0.190158
0.210910 0.184756 0.191852
0.233967 0.190570 0.194019
0.261250 0.197757 0.197070
0.289311 0.203952 0.201953
0.323568 0.211978 0.208057
0.357610 0.219989 0.217670
0.394400 0.229068 0.228321
0.431464 0.238926 0.239124
0.473030 0.250431 0.251820
0.516457 0.263279 0.266270
0.562707 0.278019 0.282643
0.606775 0.294484 0.300313
0.651225 0.313741 0.320821
0.694438 0.335424 0.343267
0.737957 0.360678 0.369162
0.775189 0.392035 0.398276
0.807004 0.422202 0.426551
0.828016 0.448661 0.449546
0.855757 0.487297 0.482277
0.874510 0.519661 0.508995
0.891127 0.557717 0.540490
0.904860 0.595514 0.571725
0.912459 0.624857 0.596429
0.919173 0.656703 0.624323
0.923018 0.683940 0.648432
0.169451 0.192371 0.193195
0.170489 0.192569 0.193301
0.173129 0.192828 0.193713
0.176532 0.193195 0.194171
0.181979 0.194064 0.194965
0.190829 0.195254 0.195956
0.201068 0.197070 0.197116
0.215427 0.199954 0.198978
0.232578 0.203662 0.201129
0.261540 0.212253 0.203815
0.292851 0.221607 0.207095
0.326345 0.229511 0.212329
0.364752 0.239078 0.218036
0.401419 0.248249 0.228092
0.439811 0.257954 0.238956
0.482826 0.270420 0.251972
0.527489 0.284199 0.266621
0.572702 0.299062 0.282765
0.616007 0.314366 0.300740
0.658091 0.332189 0.321370
0.696193 0.349569 0.341100
0.735058 0.371832 0.364660
0.770520 0.397101 0.390921
0.801709 0.426886 0.419348
0.831067 0.460517 0.450675
0.857252 0.496742 0.481910
0.877028 0.530556 0.511620
0.890990 0.560632 0.537102
0.902419 0.589456 0.562173
0.911055 0.620691 0.589303
0.919371 0.659449 0.623468
0.923400 0.687846 0.649393
0.177112 0.211429 0.201846
0.178561 0.211566 0.202106
0.180789 0.211887 0.202441
0.184482 0.212329 0.203037
0.190875 0.213230 0.204105
0.198779 0.214389 0.205188
0.209659 0.216297 0.206638
0.222522 0.218616 0.208118
0.239078 0.222004 0.210117
0.257557 0.226200 0.212558
0.290272 0.236805 0.215702
0.326253 0.248966 0.219364
0.365057 0.259068 0.224064
0.409964 0.271794 0.229114
0.450675 0.282597 0.239521
0.494408 0.294194 0.250584
0.538582 0.307805 0.266209
0.580591 0.321202 0.282399
0.621653 0.335485 0.300069
0.658686 0.349279 0.318410
0.694774 0.364828 0.337484
0.734585 0.386801 0.362203
0.774289 0.413672 0.389944
0.805997 0.442680 0.420142
0.834272 0.475090 0.451286
0.857023 0.503334 0.478660
0.874846 0.532616 0.505013
0.888350 0.557717 0.528573
0.900588 0.588495 0.555810
0.911681 0.626429 0.589929
0.920516 0.667628 0.626764
0.924086 0.695216 0.652628
0.187457 0.234928 0.212467
0.188968 0.235096 0.212650
0.190570 0.235294 0.212833
0.194415 0.235950 0.213428
0.200397 0.236881 0.214344
0.209613 0.237919 0.215610
0.220386 0.239689 0.217060
0.233677 0.242222 0.218387
0.249195 0.245350 0.219898
0.268849 0.249836 0.222126
0.290364 0.255024 0.224674
0.326314 0.267216 0.228733
0.365408 0.281422 0.233509
0.410224 0.294637 0.238712
0.459083 0.309926 0.244373
0.502937 0.321981 0.255528
0.550881 0.335424 0.266682
0.589838 0.347067 0.282567
0.629938 0.360220 0.300069
0.668437 0.374411 0.317983
0.708309 0.391806 0.340307
0.746136 0.412467 0.364859
0.780881 0.434714 0.391760
0.809552 0.459709 0.420035
0.833463 0.483955 0.447074
0.853864 0.508904 0.472404
0.872786 0.536019 0.499428
0.889891 0.567193 0.528206
0.903121 0.602701 0.561669
0.914092 0.640360 0.596124
0.921309 0.675456 0.629404
0.924605 0.699565 0.652934
0.199909 0.262776 0.224674
0.201129 0.262944 0.224918
0.202640 0.263172 0.225177
0.206821 0.263600 0.225711
0.213047 0.264317 0.226703
0.221912 0.265568 0.228092
0.233219 0.267063 0.229770
0.246830 0.269307 0.231739
0.262379 0.272511 0.233509
0.280385 0.276234 0.235538
0.302083 0.281254 0.238270
0.326513 0.287388 0.241474
0.366430 0.302541 0.246754
0.412192 0.321294 0.252918
0.463844 0.339513 0.259068
0.515053 0.356039 0.265019
0.563043 0.370001 0.275105
0.606699 0.379995 0.282796
0.645060 0.391608 0.299916
0.683192 0.404624 0.320104
0.722072 0.421668 0.343389
0.752941 0.436423 0.366796
0.783993 0.455909 0.392401
0.809354 0.473747 0.416983
0.836332 0.500923 0.446952
0.858778 0.527749 0.476631
0.878630 0.556405 0.505379
0.894682 0.584314 0.533639
0.906279 0.617136 0.565957
0.914870 0.647761 0.596979
0.921050 0.678538 0.627192
0.924926 0.703624 0.652689
0.211475 0.293629 0.239078
0.213840 0.293858 0.239414
0.216648 0.294194 0.239765
0.220966 0.294759 0.240314
0.226780 0.295522 0.241108
0.236240 0.296544 0.242298
0.247700 0.298085 0.243870
0.261280 0.300465 0.245777
0.277653 0.303456 0.248096
0.295811 0.307469 0.249943
0.317083 0.312520 0.252354
0.345571 0.322225 0.257008
0.382696 0.338170 0.264454
0.428306 0.356817 0.270970
0.476661 0.376196 0.276768
0.525353 0.392035 0.282704
0.573449 0.406516 0.289342
0.617151 0.417395 0.297994
0.662791 0.429816 0.308782
0.701534 0.442527 0.327581
0.733883 0.452506 0.347204
0.763653 0.465660 0.368948
0.792462 0.482094 0.395392
0.820188 0.502663 0.422721
0.847471 0.528176 0.454704
0.865919 0.550454 0.481437
0.882109 0.573159 0.508782
0.896239 0.598322 0.535912
0.907591 0.627817 0.567681
0.915724 0.656809 0.597665
0.921492 0.684932 0.627771
0.925628 0.711070 0.654643
0.228733 0.329809 0.255283
0.229847 0.329824 0.255390
0.231998 0.329915 0.255528
0.235996 0.330266 0.255970
0.243397 0.331106 0.256901
0.252308 0.332189 0.258061
0.264805 0.334295 0.259937
0.279637 0.337026 0.262333
0.295781 0.340398 0.264881
0.316915 0.346593 0.268681
0.338201 0.352209 0.271519
0.365957 0.361532 0.276005
0.397665 0.373007 0.281453
0.432319 0.384482 0.286900
0.474998 0.400427 0.292561
0.525643 0.420722 0.299184
0.567956 0.432181 0.303334
0.613016 0.444892 0.309865
0.655543 0.455650 0.318151
0.699855 0.468696 0.329351
0.735744 0.480156 0.347250
0.771084 0.493523 0.369238
0.799634 0.508919 0.395316
0.824537 0.524834 0.423102
0.847639 0.544747 0.451667
0.866529 0.564233 0.479301
0.882643 0.585855 0.505989
0.896178 0.607279 0.532677
0.907057 0.631922 0.560266
0.916136 0.661677 0.593881
0.921965 0.690868 0.625834
0.925856 0.715679 0.653437
0.249607 0.368505 0.273564
0.251103 0.368566 0.273671
0.252918 0.368551 0.273808
0.255390 0.368643 0.274006
0.261097 0.369284 0.274647
0.270634 0.370672 0.275929
0.283162 0.372686 0.277714
0.297719 0.375158 0.279896
0.314962 0.378622 0.282536
0.334890 0.384146 0.285695
0.356497 0.389365 0.288487
0.382590 0.397726 0.292409
0.409720 0.405310 0.295811
0.441733 0.415503 0.300465
0.476173 0.426673 0.305852
0.513970 0.438178 0.310231
0.555886 0.451820 0.314473
0.603433 0.468772 0.323110
0.650691 0.484642 0.332494
0.696315 0.499153 0.344320
0.736019 0.510674 0.357519
0.770855 0.522179 0.375708
0.799603 0.531655 0.394781
0.822370 0.542168 0.415885
0.842832 0.554635 0.440391
0.861082 0.569925 0.464805
0.879545 0.590158 0.493935
0.893690 0.612635 0.523079
0.907057 0.639200 0.556207
0.916640 0.670649 0.593027
0.922408 0.698131 0.626154
0.925521 0.717571 0.648631
0.265858 0.410544 0.291966
0.268742 0.411063 0.292302
0.271962 0.411536 0.292744
0.276707 0.412345 0.293355
0.282704 0.413428 0.294163
0.291005 0.414511 0.295171
0.304189 0.416449 0.296956
0.319356 0.419516 0.299336
0.336614 0.423407 0.302266
0.357610 0.428077 0.305882
0.379233 0.434043 0.308843
0.405432 0.442145 0.312688
0.432960 0.450782 0.316564
0.463356 0.459571 0.320897
0.496391 0.469917 0.326040
0.530282 0.479072 0.331945
0.568002 0.490593 0.338201
0.609567 0.503594 0.344381
0.648936 0.514656 0.350698
0.688808 0.525170 0.358404
0.726589 0.535592 0.369024
0.758511 0.541985 0.378897
0.787335 0.549050 0.392920
0.814511 0.556283 0.407584
0.840696 0.571771 0.434257
0.863096 0.589303 0.464439
0.883406 0.611185 0.496819
0.897795 0.633997 0.530037
0.909834 0.659693 0.563989
0.917907 0.683131 0.595438
0.923049 0.706584 0.625574
0.925902 0.722347 0.645823
0.294133 0.466590 0.316106
0.294728 0.466651 0.316198
0.295522 0.466697 0.316259
0.299397 0.466941 0.316594
0.308049 0.467781 0.317556
0.318593 0.468849 0.318761
0.330938 0.470131 0.320211
0.345754 0.471824 0.322179
0.363882 0.474907 0.325093
0.383688 0.478569 0.328527
0.405356 0.482322 0.332158
0.430167 0.488991 0.335714
0.454551 0.494118 0.338384
0.482063 0.500511 0.341817
0.508019 0.504402 0.343877
0.537118 0.509941 0.347433
0.564736 0.513741 0.350851
0.597543 0.521370 0.356420
0.637583 0.534478 0.363455
0.679591 0.549355 0.373770
0.721080 0.563241 0.385214
0.756878 0.574105 0.398123
0.789944 0.584482 0.413413
0.822095 0.596689 0.432639
0.850172 0.610208 0.454978
0.871183 0.621836 0.477012
0.887709 0.635645 0.503471
0.900755 0.651759 0.531045
0.910414 0.670756 0.561456
0.917922 0.692103 0.592706
0.923583 0.714534 0.624353
0.926360 0.730724 0.646693
0.322484 0.511971 0.338705
0.324010 0.511986 0.338842
0.325963 0.512062 0.338979
0.329061 0.512169 0.339239
0.332952 0.512383 0.339620
0.342290 0.514748 0.341604
0.355795 0.516594 0.343526
0.371237 0.518914 0.345907
0.388708 0.521660 0.348745
0.408377 0.524544 0.351858
0.430167 0.528924 0.355795
0.452903 0.532952 0.359518
0.476906 0.537606 0.362371
0.502602 0.542977 0.365469
0.528283 0.547204 0.367941
0.555230 0.551507 0.370520
0.582666 0.555779 0.373434
0.612665 0.561715 0.379065
0.645228 0.569802 0.386145
0.685161 0.583841 0.396460
0.722942 0.596719 0.407981
0.759121 0.607904 0.421210
0.790433 0.617426 0.435157
0.819425 0.626505 0.450691
0.845716 0.635386 0.467231
0.867323 0.643916 0.484291
0.886198 0.655116 0.506188
0.901045 0.669322 0.533379
0.911727 0.685466 0.561837
0.919020 0.705562 0.594568
0.924468 0.726482 0.626719
0.927245 0.744289 0.653224
0.345541 0.557336 0.360479
0.349600 0.558740 0.361563
0.354162 0.560342 0.362753
0.360601 0.562646 0.364508
0.369039 0.565576 0.366842
0.379446 0.569192 0.369696
0.391562 0.573419 0.373129
0.405814 0.574380 0.375113
0.421927 0.574929 0.377157
0.439429 0.575555 0.379416
0.458717 0.577157 0.382361
0.479377 0.579065 0.385229
0.501259 0.581674 0.388525
0.524392 0.584573 0.391211
0.548333 0.587884 0.393744
0.572885 0.590997 0.396368
0.598718 0.594522 0.399176
0.625177 0.598413 0.402731
0.655589 0.605631 0.410025
0.686000 0.612604 0.417517
0.720989 0.623804 0.428107
0.754620 0.634623 0.440391
0.786389 0.643992 0.453025
0.816037 0.654124 0.468132
0.842466 0.663111 0.484123
0.866117 0.672252 0.501366
0.884489 0.681575 0.520897
0.900145 0.691402 0.542031
0.911421 0.703792 0.567834
0.919692 0.718639 0.595895
0.924636 0.737209 0.627894
0.927871 0.754467 0.656535
0.381354 0.601556 0.389944
0.382452 0.602106 0.390402
0.383642 0.602792 0.390921
0.386648 0.604044 0.391898
0.394080 0.604654 0.392905
0.403220 0.605005 0.393942
0.414344 0.605600 0.395346
0.427436 0.606424 0.397025
0.441489 0.606729 0.398550
0.458030 0.607675 0.400610
0.476158 0.608759 0.403082
0.495567 0.610620 0.406256
0.516365 0.612909 0.408896
0.537972 0.615412 0.411643
0.560571 0.618677 0.414237
0.583810 0.621439 0.416342
0.608240 0.625376 0.419287
0.633509 0.628763 0.422080
0.659983 0.633661 0.426307
0.688685 0.639841 0.433387
0.717571 0.646693 0.441444
0.750713 0.658229 0.455634
0.782513 0.669154 0.470222
0.811292 0.678187 0.484474
0.837644 0.687083 0.499458
0.860334 0.694804 0.515801
0.879850 0.702770 0.533700
0.895277 0.711925 0.554208
0.908278 0.721584 0.576104
0.917510 0.733715 0.601343
0.924468 0.747204 0.627863
0.927474 0.760800 0.651881
0.410849 0.632929 0.409110
0.412558 0.633188 0.409461
0.414450 0.633494 0.409796
0.417166 0.633967 0.410330
0.420783 0.634546 0.411017
0.425971 0.635645 0.412223
0.435340 0.635294 0.412894
0.445579 0.633784 0.412955
0.457359 0.632395 0.413245
0.471672 0.632075 0.414618
0.490089 0.634699 0.418402
0.510140 0.637934 0.422797
0.530556 0.640696 0.427146
0.552651 0.644709 0.431251
0.575799 0.649241 0.435782
0.598016 0.652827 0.439567
0.622675 0.657481 0.443824
0.645289 0.660761 0.447517
0.671000 0.665385 0.452277
0.694392 0.668483 0.456077
0.720852 0.673732 0.463218
0.745754 0.678096 0.470512
0.775418 0.687877 0.483818
0.804761 0.698192 0.498909
0.831830 0.707866 0.514260
0.855299 0.716487 0.530449
0.875456 0.724498 0.548196
0.891341 0.731746 0.566537
0.903746 0.740536 0.587427
0.914656 0.749905 0.609628
0.922087 0.762921 0.636957
0.926421 0.771588 0.655406
0.445243 0.672282 0.438834
0.447150 0.672526 0.439200
0.449622 0.672664 0.439551
0.453162 0.672969 0.440101
0.459113 0.673915 0.441459
0.466545 0.675181 0.443214
0.475486 0.676707 0.445335
0.485817 0.678111 0.447578
0.498665 0.678904 0.449577
0.513359 0.680324 0.452339
0.528908 0.681315 0.454978
0.545724 0.682536 0.457984
0.563729 0.683848 0.461265
0.582208 0.685039 0.464607
0.600519 0.686275 0.466804
0.620279 0.688212 0.469337
0.638590 0.689265 0.470695
0.659617 0.691173 0.472984
0.679454 0.692973 0.475120
0.701854 0.695232 0.477882
0.724269 0.698589 0.481849
0.748882 0.703487 0.489281
0.774258 0.709789 0.498543
0.802075 0.719905 0.514183
0.829938 0.730724 0.531670
0.852674 0.739254 0.549020
0.872618 0.747540 0.567834
0.889235 0.755093 0.587335
0.901762 0.763699 0.609628
0.911910 0.773312 0.632822
0.919814 0.783017 0.656306
0.923400 0.788525 0.670054
0.485344 0.707973 0.468330
0.486015 0.708110 0.468574
0.486809 0.708293 0.468818
0.489433 0.708736 0.469474
0.494881 0.709560 0.470710
0.501183 0.709697 0.471504
0.508400 0.709300 0.472023
0.516823 0.708858 0.472648
0.526879 0.708705 0.473762
0.539910 0.709560 0.476158
0.555779 0.711940 0.480232
0.572900 0.714473 0.484657
0.588663 0.715328 0.487633
0.604135 0.715114 0.489555
0.620737 0.715328 0.492073
0.637934 0.716625 0.494606
0.655741 0.717723 0.496300
0.674464 0.720302 0.499718
0.695049 0.722713 0.502754
0.715602 0.726299 0.507683
0.738735 0.730556 0.513100
0.760159 0.734829 0.519051
0.783887 0.740627 0.527901
0.806073 0.745968 0.537835
0.829404 0.753842 0.552895
0.852186 0.762020 0.570337
0.870329 0.769009 0.588190
0.886259 0.775540 0.606287
0.899001 0.782284 0.625681
0.908537 0.788846 0.645274
0.915740 0.796277 0.665476
0.921126 0.803647 0.684855
0.530465 0.741009 0.499733
0.531640 0.741070 0.499977
0.532967 0.741207 0.500252
0.534844 0.741344 0.500664
0.537392 0.741543 0.501183
0.540566 0.741772 0.501854
0.546685 0.741680 0.502586
0.555016 0.741772 0.503822
0.564782 0.742229 0.505547
0.575662 0.742748 0.507576
0.588174 0.743618 0.510124
0.602258 0.744900 0.513359
0.616709 0.745892 0.516518
0.631830 0.746868 0.519814
0.647425 0.747936 0.522850
0.663752 0.749111 0.526116
0.680232 0.750790 0.529381
0.697765 0.752743 0.532372
0.714900 0.754971 0.535760
0.734020 0.757351 0.539544
0.752209 0.759823 0.543679
0.771847 0.762585 0.548226
0.790265 0.765347 0.552865
0.810147 0.769055 0.560449
0.829084 0.772992 0.569696
0.847684 0.778195 0.583612
0.866987 0.785107 0.601709
0.881880 0.790951 0.619745
0.895140 0.796872 0.638102
0.905303 0.802945 0.657466
0.912642 0.809964 0.678828
0.917510 0.815869 0.695567
0.568643 0.769360 0.529915
0.569650 0.769390 0.530098
0.570764 0.769467 0.530343
0.572915 0.769543 0.530709
0.576013 0.769650 0.531273
0.579950 0.769802 0.531975
0.584756 0.769925 0.532815
0.590677 0.769986 0.533806
0.599115 0.770092 0.535180
0.609064 0.770672 0.537255
0.620081 0.771466 0.539834
0.631159 0.771801 0.541985
0.643427 0.772091 0.544274
0.655604 0.772015 0.546319
0.668711 0.772213 0.548821
0.683314 0.773327 0.552117
0.698512 0.774563 0.555474
0.713253 0.775769 0.558541
0.729656 0.777813 0.562066
0.745831 0.779965 0.566064
0.763241 0.782330 0.570214
0.780163 0.784878 0.574991
0.797803 0.787381 0.579706
0.814267 0.789670 0.584421
0.831708 0.792737 0.591898
0.847669 0.795728 0.601297
0.863523 0.800046 0.614954
0.878996 0.805463 0.633219
0.891447 0.810895 0.652094
0.902251 0.816541 0.671382
0.909926 0.822751 0.692210
0.914214 0.827390 0.706828
0.606516 0.794736 0.559930
0.606821 0.794766 0.560021
0.607202 0.794842 0.560143
0.609308 0.794904 0.560525
0.612192 0.795010 0.561074
0.615992 0.795041 0.561700
0.620737 0.795041 0.562478
0.626337 0.794949 0.563348
0.632776 0.794873 0.564309
0.640253 0.794858 0.565576
0.650187 0.795316 0.567727
0.660212 0.795743 0.570016
0.671016 0.796231 0.572580
0.682612 0.796506 0.575036
0.694499 0.797055 0.578073
0.707088 0.797604 0.581338
0.719463 0.797986 0.583886
0.732204 0.798444 0.586221
0.745312 0.799359 0.589319
0.760052 0.800870 0.593027
0.774746 0.802670 0.597253
0.789960 0.804547 0.601755
0.805066 0.806653 0.606806
0.820127 0.808484 0.611536
0.834882 0.810605 0.616831
0.849653 0.812787 0.623621
0.863600 0.815717 0.633631
0.876829 0.819394 0.647486
0.889174 0.824155 0.666392
0.898955 0.828870 0.685741
0.907149 0.834028 0.704860
0.911940 0.838453 0.720546
0.643946 0.815091 0.589166
0.644450 0.815015 0.589197
0.644984 0.814984 0.589273
0.645975 0.814954 0.589441
0.647440 0.814954 0.589761
0.649317 0.814923 0.590158
0.652888 0.814786 0.590753
0.658030 0.814542 0.591516
0.664012 0.814405 0.592645
0.670909 0.814542 0.594369
0.678523 0.814725 0.596323
0.687511 0.814908 0.598520
0.696757 0.815015 0.600656
0.706096 0.815152 0.602915
0.716304 0.815290 0.605478
0.726726 0.815412 0.607813
0.737209 0.815457 0.610132
0.748837 0.816114 0.613367
0.761761 0.817578 0.617502
0.774182 0.818921 0.621500
0.788388 0.821057 0.626642
0.801679 0.822828 0.631540
0.815213 0.824811 0.636744
0.828321 0.826505 0.641672
0.841230 0.828275 0.646693
0.853483 0.829633 0.650996
0.865797 0.831357 0.656947
0.876844 0.833188 0.665980
0.887419 0.835843 0.678477
0.896773 0.839994 0.698497
0.904295 0.844282 0.717845
0.910094 0.848875 0.735760
0.672725 0.830030 0.613459
0.673289 0.829999 0.613581
0.673915 0.829999 0.613687
0.674830 0.829953 0.613840
0.676265 0.829969 0.614176
0.679072 0.830152 0.615076
0.682521 0.830381 0.616175
0.686580 0.830655 0.617487
0.691783 0.830869 0.618936
0.698192 0.830930 0.620447
0.706004 0.831571 0.623270
0.715114 0.832685 0.627222
0.724804 0.833738 0.631220
0.733990 0.834119 0.634012
0.744106 0.835157 0.638285
0.754788 0.836332 0.642878
0.765118 0.837034 0.646479
0.775753 0.838087 0.650813
0.786389 0.839002 0.654856
0.796338 0.839536 0.657847
0.806439 0.840116 0.661158
0.816938 0.840894 0.664988
0.827588 0.841718 0.668895
0.837888 0.842619 0.673182
0.848570 0.843534 0.677424
0.858564 0.844495 0.681849
0.868849 0.845533 0.686305
0.878569 0.846876 0.692577
0.887846 0.848920 0.703334
0.896300 0.851423 0.716487
0.902861 0.854643 0.733822
0.907225 0.856992 0.746548
0.706203 0.845686 0.644373
0.706462 0.845716 0.644495
0.707546 0.845792 0.644923
0.709224 0.845930 0.645533
0.711467 0.846128 0.646433
0.714336 0.846342 0.647532
0.717845 0.846632 0.648875
0.721920 0.846906 0.650492
0.726360 0.847105 0.652247
0.731411 0.847318 0.654246
0.738750 0.848020 0.657481
0.747692 0.849073 0.661631
0.754070 0.849348 0.664073
0.760372 0.849363 0.665950
0.769360 0.849928 0.669581
0.777020 0.850172 0.672602
0.785290 0.850553 0.676280
0.794125 0.850980 0.679728
