content/luts/atmosphere/atmosphere_03.cube
#Created by: inPixio
#Copyright: (C) Copyright 2022 inPixio
TITLE "Atmosphere 3"
#LUT size
LUT_3D_SIZE 5
#data domain
#LUT data points
DOMAIN_MIN 0.000000 0.000000 0.000000
DOMAIN_MAX 0.903226 0.903226 0.903226
0.085725 0.106340 0.119417
0.143069 0.112673 0.129824
0.396826 0.160571 0.156512
0.750317 0.236072 0.235218
0.931472 0.391455 0.392493
0.092897 0.173312 0.128725
0.164736 0.188190 0.129351
0.422126 0.258854 0.152102
0.758770 0.314153 0.231663
0.934402 0.425483 0.394858
0.164859 0.460182 0.176928
0.248066 0.470344 0.176303
0.489387 0.508812 0.189380
0.786831 0.505974 0.233173
0.944900 0.533852 0.402441
0.323354 0.734875 0.309361
0.374945 0.736034 0.310430
0.559045 0.736126 0.320851
0.793729 0.730816 0.359915
0.951354 0.704707 0.455818
0.597025 0.874022 0.508415
0.615778 0.873884 0.509590
0.689632 0.873747 0.516060
0.804471 0.873014 0.536507
0.954253 0.867552 0.576379
0.063096 0.119509 0.175357
0.136248 0.118257 0.187625
0.403586 0.168917 0.248371
0.744457 0.265568 0.321340
0.924010 0.431281 0.455497
0.083101 0.181659 0.186511
0.181445 0.206058 0.210208
0.437522 0.269307 0.249729
0.754513 0.333761 0.321233
0.926101 0.456779 0.454475
0.165209 0.476463 0.247990
0.261723 0.488335 0.263935
0.501762 0.511940 0.276127
0.785992 0.508873 0.321065
0.938125 0.553582 0.457755
0.348699 0.737942 0.386206
0.406119 0.739742 0.391089
0.576928 0.738232 0.395667
0.796506 0.732799 0.421500
0.949966 0.711345 0.496040
0.621302 0.871031 0.540276
0.639384 0.870741 0.540887
0.706172 0.872084 0.548943
0.812009 0.872602 0.567346
0.955215 0.868849 0.604959
0.000397 0.158282 0.385916
0.059602 0.136095 0.393484
0.375158 0.190768 0.433356
0.720974 0.328039 0.515755
0.909606 0.515007 0.576104
0.000397 0.275105 0.419684
0.088075 0.239078 0.427970
0.424338 0.294514 0.464881
0.740963 0.403021 0.516930
0.913115 0.555947 0.583185
0.131960 0.488075 0.435706
0.260777 0.507576 0.455421
0.567422 0.543038 0.500572
0.782437 0.556649 0.523446
0.926329 0.622202 0.584146
0.379553 0.734585 0.494423
0.454841 0.738109 0.510018
0.646906 0.741878 0.546822
0.808377 0.742351 0.560571
0.946853 0.732296 0.599130
0.666178 0.867536 0.609857
0.694316 0.867277 0.624079
0.751278 0.869535 0.638590
0.834287 0.872679 0.648646
0.955444 0.871244 0.672740
0.000000 0.250507 0.622644
0.000198 0.203952 0.625010
0.341894 0.222171 0.627466
0.698344 0.331762 0.644846
0.884398 0.569070 0.700450
0.000580 0.354116 0.630930
0.003128 0.312184 0.632990
0.366232 0.308919 0.634607
0.718288 0.409186 0.651225
0.888502 0.598810 0.701106
0.073671 0.558251 0.638483
0.240391 0.557977 0.643748
0.501167 0.539773 0.657359
0.761975 0.593957 0.670161
0.907729 0.682124 0.707713
0.393378 0.735729 0.627604
0.479332 0.736645 0.635645
0.681636 0.742519 0.666896
0.827482 0.759915 0.700145
0.939773 0.767926 0.716426
0.688884 0.861845 0.678752
0.712551 0.862806 0.687251
0.785138 0.868162 0.715297
0.869825 0.874144 0.738079
0.957855 0.877363 0.750485
0.000198 0.361822 0.782849
0.000580 0.337026 0.783627
0.278798 0.339864 0.782162
0.631251 0.392294 0.775616
0.866377 0.541604 0.777081
0.001175 0.436408 0.781506
0.003326 0.414679 0.782406
0.312841 0.398215 0.781582
0.645975 0.442603 0.775006
0.873335 0.577691 0.778897
0.258930 0.599527 0.778134
0.341283 0.599420 0.778027
0.474556 0.567651 0.780240
0.698894 0.578683 0.777752
0.895445 0.674769 0.785123
0.449973 0.757702 0.775494
0.491096 0.755902 0.775845
0.640345 0.750759 0.779217
0.778149 0.745525 0.787762
0.929931 0.788724 0.799847
0.686351 0.873472 0.766278
0.707530 0.872648 0.768551
0.778927 0.873716 0.779980
0.885176 0.876646 0.801038
0.960784 0.888441 0.828122
