content/luts/atmosphere/atmosphere_08.cube
#Created by: inPixio
#Copyright: (C) Copyright 2022 inPixio
TITLE "Atmosphere 8"
#LUT size
LUT_3D_SIZE 8
#data domain
#LUT data points
DOMAIN_MIN 0.000000 0.000000 0.000000
DOMAIN_MAX 0.903226 0.903226 0.903226
0.142855 0.133700 0.164614
0.161898 0.139437 0.171649
0.219104 0.151446 0.187930
0.334691 0.174228 0.217136
0.499306 0.214832 0.267704
0.682582 0.292210 0.343023
0.825834 0.422538 0.450874
0.900008 0.569589 0.561166
0.152102 0.151843 0.174685
0.166369 0.154131 0.176471
0.227512 0.166552 0.187244
0.339452 0.191028 0.216526
0.501991 0.233249 0.265171
0.682063 0.306142 0.340093
0.819196 0.423652 0.443320
0.901473 0.578790 0.564996
0.177112 0.211429 0.201846
0.190875 0.213230 0.204105
0.239078 0.222004 0.210117
0.365057 0.259068 0.224064
0.538582 0.307805 0.266209
0.694774 0.364828 0.337484
0.834272 0.475090 0.451286
0.900588 0.588495 0.555810
0.228733 0.329809 0.255283
0.243397 0.331106 0.256901
0.295781 0.340398 0.264881
0.397665 0.373007 0.281453
0.567956 0.432181 0.303334
0.735744 0.480156 0.347250
0.847639 0.544747 0.451667
0.907057 0.631922 0.560266
0.322484 0.511971 0.338705
0.332952 0.512383 0.339620
0.388708 0.521660 0.348745
0.476906 0.537606 0.362371
0.582666 0.555779 0.373434
0.722942 0.596719 0.407981
0.845716 0.635386 0.467231
0.911727 0.685466 0.561837
0.445243 0.672282 0.438834
0.459113 0.673915 0.441459
0.498665 0.678904 0.449577
0.563729 0.683848 0.461265
0.638590 0.689265 0.470695
0.724269 0.698589 0.481849
0.829938 0.730724 0.531670
0.901762 0.763699 0.609628
0.606516 0.794736 0.559930
0.612192 0.795010 0.561074
0.632776 0.794873 0.564309
0.671016 0.796231 0.572580
0.719463 0.797986 0.583886
0.774746 0.802670 0.597253
0.834882 0.810605 0.616831
0.889174 0.824155 0.666392
0.748379 0.861006 0.682536
0.750256 0.860990 0.683055
0.760571 0.860960 0.686534
0.779156 0.860914 0.692958
0.804303 0.861204 0.703227
0.832395 0.862455 0.715999
0.861173 0.864179 0.729137
0.888380 0.866606 0.744671
0.147738 0.138659 0.183932
0.163684 0.140673 0.187671
0.221225 0.159640 0.209796
0.334340 0.190829 0.249867
0.499748 0.232120 0.301228
0.677607 0.309010 0.371649
0.810056 0.425315 0.461524
0.895048 0.577478 0.571817
0.154131 0.154254 0.188449
0.170657 0.159701 0.195163
0.230900 0.176593 0.215061
0.342519 0.204151 0.249577
0.502907 0.247105 0.298680
0.675181 0.318792 0.366934
0.810361 0.433768 0.459480
0.895338 0.581262 0.571481
0.182040 0.214969 0.219455
0.200595 0.222614 0.227390
0.249348 0.231495 0.233753
0.371191 0.265095 0.251560
0.536156 0.311864 0.296849
0.698680 0.379233 0.369284
0.821485 0.475746 0.462364
0.897856 0.599542 0.569940
0.235493 0.336339 0.276433
0.253254 0.340093 0.280491
0.304616 0.348211 0.287907
0.399222 0.374029 0.300984
0.562936 0.428550 0.321462
0.728481 0.480018 0.370016
0.840467 0.547372 0.467063
0.903075 0.634089 0.568124
0.329854 0.516045 0.356939
0.338811 0.516762 0.358114
0.391699 0.520928 0.364324
0.474403 0.532265 0.375494
0.577127 0.549722 0.386328
0.718105 0.593515 0.420859
0.842374 0.634546 0.477211
0.908766 0.687068 0.570123
0.450782 0.668818 0.448966
0.463310 0.670054 0.451148
0.497231 0.672328 0.455924
0.562280 0.678584 0.468223
0.640803 0.688838 0.482017
0.729534 0.703594 0.498421
0.830289 0.732876 0.543679
0.900633 0.763439 0.613870
0.607889 0.792126 0.565591
0.614374 0.792142 0.566598
0.633799 0.791974 0.569421
0.672252 0.794095 0.578576
0.720638 0.796597 0.590311
0.774395 0.801404 0.602548
0.833722 0.809522 0.620676
0.888686 0.823987 0.669917
0.747066 0.859724 0.683314
0.748684 0.859663 0.683711
0.760128 0.859815 0.687831
0.780087 0.860319 0.695979
0.805478 0.860945 0.706890
0.833753 0.862425 0.720211
0.861830 0.864164 0.732693
0.888182 0.866423 0.746349
0.157336 0.148867 0.242298
0.174228 0.150149 0.246754
0.231617 0.157275 0.259037
0.350515 0.190005 0.304372
0.512673 0.254002 0.368246
0.681102 0.373983 0.453391
0.809445 0.494453 0.532097
0.887877 0.621332 0.618479
0.168216 0.171756 0.254505
0.185458 0.174334 0.259190
0.242069 0.180728 0.270741
0.357290 0.215839 0.311803
0.517800 0.281788 0.376043
0.682368 0.382879 0.452140
0.807950 0.495079 0.527230
0.888579 0.624369 0.618372
0.187671 0.225895 0.268101
0.206104 0.232532 0.275517
0.271016 0.253483 0.298558
0.390509 0.290547 0.335210
0.552544 0.344961 0.388113
0.697902 0.419913 0.449073
0.816495 0.521019 0.525460
0.891844 0.639124 0.617578
0.242496 0.339773 0.322316
0.262379 0.348455 0.329854
0.332738 0.377905 0.354299
0.427054 0.400427 0.368353
0.589731 0.449775 0.393759
0.729702 0.500572 0.448310
0.831937 0.573022 0.524590
0.897810 0.667704 0.617517
0.333089 0.519753 0.401526
0.353765 0.525216 0.407279
0.423179 0.542779 0.426703
0.503456 0.554376 0.438865
0.598840 0.570077 0.448890
0.729549 0.608515 0.476799
0.843336 0.648478 0.525933
0.903578 0.707958 0.615274
0.473991 0.674586 0.488197
0.487129 0.676646 0.492531
0.529305 0.682994 0.504418
0.587243 0.688365 0.514504
0.657099 0.696361 0.525902
0.738155 0.710521 0.539849
0.832456 0.740215 0.580224
0.900053 0.771542 0.642710
0.622278 0.791501 0.589395
0.630274 0.792065 0.592294
0.654063 0.793484 0.600397
0.688472 0.795544 0.608011
0.732372 0.798520 0.618524
0.781750 0.803769 0.630243
0.836637 0.812131 0.646174
0.888945 0.827253 0.691035
0.755184 0.859205 0.698360
0.757565 0.859205 0.699428
0.769451 0.859327 0.704082
0.787839 0.859892 0.711208
0.811521 0.860899 0.721523
0.837552 0.862287 0.733227
0.863859 0.864485 0.745022
0.889128 0.867521 0.759030
0.178500 0.166964 0.353368
0.200198 0.169162 0.358312
0.269307 0.173816 0.371145
0.369192 0.185840 0.388022
0.534432 0.235294 0.440360
0.692622 0.358190 0.500572
0.808759 0.515084 0.577478
0.880598 0.661997 0.667125
0.191592 0.197849 0.368368
0.212421 0.199176 0.372000
0.279332 0.200931 0.381735
0.378439 0.211749 0.395743
0.543160 0.263493 0.446906
0.693782 0.382452 0.505455
0.808789 0.531380 0.582788
0.880736 0.670604 0.671428
0.214740 0.268711 0.383612
0.235294 0.273106 0.389944
0.306020 0.283940 0.406714
0.412329 0.296758 0.423179
0.568200 0.362280 0.469810
0.706172 0.469657 0.531182
0.814862 0.592325 0.607233
0.883162 0.688502 0.676432
0.252506 0.364294 0.401785
0.271885 0.370840 0.407721
0.346044 0.397055 0.430427
0.468345 0.439063 0.464607
0.603876 0.488899 0.501595
0.726223 0.549172 0.547921
0.824094 0.623179 0.604974
0.888609 0.705379 0.673991
0.350134 0.523858 0.463584
0.368689 0.528939 0.468086
0.439017 0.548959 0.486961
0.544183 0.581354 0.518883
0.627741 0.596231 0.528573
0.747967 0.632120 0.552316
0.842832 0.677653 0.603433
0.896269 0.736721 0.673747
0.483650 0.676936 0.533623
0.496162 0.679789 0.537377
0.550073 0.689143 0.553445
0.625086 0.703685 0.578943
0.683253 0.709606 0.587884
0.751049 0.721874 0.598276
0.838010 0.752056 0.630976
0.899184 0.781689 0.681071
0.632792 0.791180 0.619547
0.642069 0.792279 0.623468
0.671260 0.796094 0.635615
0.714748 0.802121 0.652979
0.751904 0.804822 0.661112
0.794888 0.809445 0.671107
0.841291 0.816449 0.682429
0.888670 0.831113 0.719310
0.761852 0.859388 0.716320
0.766674 0.859495 0.718853
0.779904 0.859815 0.726070
0.800946 0.860639 0.736462
0.820844 0.861509 0.743908
0.843610 0.862944 0.753445
0.866514 0.865126 0.762661
0.889509 0.868254 0.773724
0.228351 0.199619 0.493645
0.251713 0.201465 0.496544
0.324422 0.205661 0.504677
0.430152 0.211612 0.518334
0.557229 0.237644 0.535058
0.706416 0.339162 0.571008
0.818448 0.499107 0.620630
0.885466 0.653330 0.690211
0.243702 0.233021 0.503990
0.264271 0.234089 0.506783
0.334554 0.237049 0.513466
0.437018 0.239841 0.524025
0.563165 0.265812 0.539254
0.708400 0.365133 0.573922
0.819226 0.516060 0.624308
0.885710 0.665263 0.694987
0.273152 0.319585 0.522423
0.291295 0.321691 0.524773
0.361944 0.328039 0.532448
0.465019 0.336156 0.544183
0.585397 0.361166 0.554910
0.718395 0.449790 0.587320
0.821180 0.575723 0.640086
0.883619 0.694331 0.705608
0.309545 0.426673 0.531060
0.328862 0.431403 0.535103
0.407370 0.452033 0.550698
0.518517 0.481941 0.571618
0.625467 0.501808 0.583810
0.735576 0.565438 0.613459
0.824338 0.653300 0.664057
0.880613 0.736782 0.722988
0.367285 0.543038 0.544533
0.389853 0.547860 0.548226
0.456031 0.562982 0.560174
0.555657 0.590326 0.581415
0.655543 0.621531 0.605295
0.752117 0.661280 0.636362
0.833585 0.709194 0.677653
0.886488 0.764477 0.728191
0.500557 0.676478 0.588418
0.514077 0.679210 0.591653
0.558328 0.687755 0.602365
0.634119 0.704707 0.624369
0.708354 0.724315 0.648844
0.767666 0.737606 0.659693
0.846510 0.764294 0.683360
0.894957 0.795331 0.728450
0.635493 0.788098 0.654231
0.642542 0.789059 0.656428
0.672358 0.793225 0.666484
0.718883 0.801404 0.683894
0.767895 0.810101 0.703029
0.806714 0.814756 0.713039
0.847837 0.822675 0.723919
0.889525 0.836896 0.751476
0.762478 0.857328 0.733745
0.766232 0.857420 0.735439
0.778439 0.857939 0.741070
0.804044 0.859999 0.754437
0.829511 0.862287 0.767010
0.849119 0.863630 0.773953
0.869841 0.866026 0.782223
0.890288 0.869444 0.790875
0.310521 0.259144 0.629389
0.331045 0.260960 0.630793
0.393622 0.267918 0.634348
0.490150 0.280888 0.643900
0.603815 0.303090 0.655222
0.715511 0.354818 0.660121
0.824125 0.493401 0.685298
0.890105 0.643977 0.726101
0.324620 0.289479 0.631602
0.339452 0.290776 0.632273
0.400839 0.296162 0.636133
0.494682 0.307958 0.645029
0.605570 0.328664 0.655161
0.718257 0.378790 0.662226
0.825528 0.511162 0.688380
0.889769 0.655345 0.729137
0.368643 0.385122 0.646754
0.385611 0.387060 0.647807
0.439216 0.393454 0.651637
0.525231 0.405509 0.658503
0.624979 0.421500 0.665324
0.727825 0.458442 0.669856
0.827558 0.565576 0.695354
0.887739 0.683711 0.735470
0.421119 0.493919 0.655451
0.434150 0.497322 0.656764
0.498634 0.517174 0.664851
0.575494 0.533745 0.673182
0.657664 0.545022 0.680034
0.745129 0.567880 0.684199
0.832761 0.642771 0.709423
0.886107 0.730694 0.748730
0.465187 0.595209 0.657694
0.478065 0.598199 0.659327
0.531975 0.611109 0.666209
0.610910 0.632792 0.678111
0.688914 0.652934 0.690684
0.761273 0.665614 0.698390
0.837095 0.715785 0.725368
0.883513 0.779049 0.765225
0.521996 0.690440 0.663050
0.537896 0.693660 0.665751
0.578958 0.701122 0.672572
0.647227 0.715114 0.684962
0.717006 0.733059 0.700816
0.785443 0.755596 0.720882
0.846952 0.783490 0.746746
0.887038 0.816175 0.779599
0.648554 0.789517 0.701839
0.655436 0.790402 0.703502
0.679652 0.794034 0.709575
0.723156 0.801556 0.721752
0.772229 0.811063 0.737484
0.820020 0.822446 0.756725
0.853956 0.829450 0.765148
0.891707 0.842817 0.783291
0.764157 0.856275 0.758526
0.767926 0.856428 0.759670
0.780728 0.857084 0.764035
0.804059 0.858930 0.772854
0.830411 0.861860 0.784360
0.855467 0.865232 0.796201
0.873930 0.867659 0.803052
0.891951 0.871290 0.809659
0.423346 0.364904 0.746731
0.435660 0.367819 0.747005
0.483101 0.378302 0.749065
0.557427 0.397116 0.752331
0.644862 0.421622 0.756115
0.736294 0.454414 0.759289
0.824277 0.509300 0.761502
0.888273 0.641993 0.772854
0.437385 0.392248 0.746868
0.449394 0.394553 0.747341
0.493019 0.403418 0.749035
0.564035 0.419455 0.752239
0.648447 0.441108 0.755825
0.737865 0.470848 0.759243
0.824033 0.522927 0.761410
0.888029 0.648783 0.773541
0.485802 0.477165 0.751797
0.497017 0.478904 0.752194
0.532540 0.484779 0.753170
0.592218 0.495888 0.755718
0.666087 0.510887 0.758923
0.748364 0.532479 0.762707
0.827070 0.574289 0.764614
0.887297 0.679027 0.777813
0.541222 0.572961 0.756237
0.552148 0.576349 0.756909
0.588235 0.586328 0.758679
0.636408 0.595102 0.761303
0.696422 0.605478 0.764553
0.763989 0.618128 0.768628
0.833127 0.643763 0.770764
0.886641 0.723842 0.784741
0.579889 0.652583 0.757199
0.587717 0.654749 0.757748
0.622202 0.665171 0.760464
0.675425 0.681514 0.765606
0.727642 0.692561 0.770703
0.781491 0.699443 0.774945
0.839735 0.716518 0.778119
0.886503 0.772396 0.793042
0.621927 0.730526 0.758663
0.628290 0.731914 0.759228
0.659266 0.738613 0.762646
0.702434 0.748638 0.767971
0.752819 0.761502 0.775235
0.804395 0.775769 0.783887
0.849561 0.785260 0.788998
0.887312 0.819104 0.806073
0.673137 0.800107 0.764630
0.680385 0.801160 0.765576
0.698940 0.803815 0.768078
0.734295 0.808911 0.773266
0.778256 0.816068 0.780926
0.823896 0.826246 0.791287
0.861936 0.838560 0.803616
0.890654 0.852659 0.818311
0.766491 0.855940 0.788022
0.769284 0.856092 0.788617
0.781399 0.856855 0.791363
0.804135 0.858640 0.796964
0.831190 0.861601 0.804761
0.856931 0.865568 0.814023
0.878904 0.870710 0.824170
0.894423 0.874510 0.829435
0.578531 0.529641 0.828458
0.585992 0.532494 0.828473
0.610498 0.540078 0.828595
0.654444 0.554788 0.828656
0.709865 0.574289 0.828992
0.768795 0.596017 0.829480
0.830381 0.628321 0.829145
0.883925 0.665782 0.828046
0.591226 0.548730 0.828122
0.596155 0.550332 0.828153
0.619471 0.556268 0.827985
0.660716 0.569177 0.828183
0.713314 0.586069 0.828458
0.771160 0.606622 0.828977
0.831403 0.636088 0.828946
0.884001 0.671702 0.828168
0.625940 0.604227 0.827161
0.631617 0.605234 0.827131
0.649775 0.608896 0.827131
0.685512 0.618998 0.827482
0.730434 0.630564 0.827924
0.781552 0.646021 0.828733
0.835081 0.668071 0.829145
0.884169 0.699550 0.828534
0.672374 0.673228 0.826215
0.675776 0.673854 0.826246
0.690593 0.675990 0.826307
0.717876 0.682658 0.826993
0.753872 0.690288 0.827833
0.795789 0.699657 0.828870
0.841291 0.713008 0.829847
0.884825 0.738201 0.829664
0.699352 0.725063 0.825467
0.702831 0.726329 0.825559
0.721294 0.733257 0.826078
0.749477 0.742428 0.827161
0.778943 0.748180 0.828229
0.812055 0.754086 0.829419
0.849149 0.762661 0.831128
0.885847 0.780057 0.831663
0.727672 0.776272 0.825315
0.731090 0.777173 0.825422
0.745998 0.781308 0.825971
0.770871 0.788281 0.827176
0.802136 0.798077 0.829068
0.831891 0.805982 0.831312
0.860151 0.811734 0.833600
0.888548 0.822980 0.835401
0.760845 0.824094 0.825727
0.763943 0.824689 0.825910
0.776135 0.826749 0.826673
0.796201 0.830549 0.828107
0.821698 0.836149 0.830442
0.847929 0.843290 0.833738
0.872297 0.850492 0.837873
0.892592 0.855421 0.840742
0.797437 0.861311 0.828763
0.800214 0.861524 0.829023
0.807050 0.862211 0.829603
0.821866 0.863890 0.831190
0.840971 0.866117 0.833631
0.861921 0.869139 0.837278
0.881773 0.873671 0.842252
0.898329 0.879332 0.848386
