content/luts/atmosphere/atmosphere_06.cube
#Created by: inPixio
#Copyright: (C) Copyright 2022 inPixio
TITLE "Atmosphere 6"
#LUT size
LUT_3D_SIZE 32
#data domain
DOMAIN_MIN 0.0 0.0 0.0
DOMAIN_MAX 1.0 1.0 1.0
#LUT data points
0.000000 0.000000 0.000000
0.044160 0.000000 0.000000
0.083574 0.000000 0.000000
0.127260 0.000000 0.000000
0.171008 0.000000 0.000000
0.214023 0.000000 0.000000
0.256519 0.000000 0.000000
0.299397 0.000000 0.000000
0.342794 0.000000 0.000000
0.386145 0.000000 0.000000
0.429847 0.000000 0.000000
0.473655 0.000000 0.000000
0.517662 0.000000 0.000000
0.561837 0.000000 0.000000
0.606104 0.000000 0.000000
0.650507 0.000000 0.000000
0.694926 0.000000 0.000000
0.739498 0.000000 0.000000
0.784085 0.000000 0.000000
0.828779 0.000000 0.000000
0.873533 0.000000 0.000000
0.918288 0.000000 0.000000
0.963134 0.000000 0.000000
1.000000 0.000000 0.000000
1.000000 0.000000 0.000000
1.000000 0.000000 0.000000
1.000000 0.000000 0.000000
1.000000 0.000000 0.000000
1.000000 0.000000 0.000000
1.000000 0.000000 0.000000
1.000000 0.000000 0.000000
1.000000 0.000000 0.000000
0.000000 0.039689 0.000000
0.033494 0.035706 0.000000
0.077226 0.030884 0.000000
0.120470 0.024628 0.000000
0.163867 0.016220 0.000000
0.207050 0.005280 0.000000
0.250401 0.000000 0.000000
0.294041 0.000000 0.000000
0.337942 0.000000 0.000000
0.381796 0.000000 0.000000
0.425849 0.000000 0.000000
0.470054 0.000000 0.000000
0.514366 0.000000 0.000000
0.558785 0.000000 0.000000
0.603281 0.000000 0.000000
0.647837 0.000000 0.000000
0.692439 0.000000 0.000000
0.737102 0.000000 0.000000
0.781872 0.000000 0.000000
0.826673 0.000000 0.000000
0.871580 0.000000 0.000000
0.916426 0.000000 0.000000
0.961364 0.000000 0.000000
1.000000 0.000000 0.000000
1.000000 0.000000 0.000000
1.000000 0.000000 0.000000
1.000000 0.000000 0.000000
1.000000 0.000000 0.000000
1.000000 0.000000 0.000000
1.000000 0.000000 0.000000
1.000000 0.000000 0.000000
1.000000 0.000000 0.000000
0.000000 0.077104 0.000000
0.020722 0.074037 0.000000
0.068009 0.070695 0.000000
0.112856 0.066331 0.000000
0.157015 0.059754 0.000000
0.200931 0.050828 0.000000
0.244877 0.037919 0.000000
0.289052 0.020920 0.000000
0.333288 0.000977 0.000000
0.377493 0.000000 0.000000
0.421897 0.000000 0.000000
0.466362 0.000000 0.000000
0.510872 0.000000 0.000000
0.555535 0.000000 0.000000
0.600183 0.000000 0.000000
0.644923 0.000000 0.000000
0.689738 0.000000 0.000000
0.734585 0.000000 0.000000
0.779446 0.000000 0.000000
0.824384 0.000000 0.000000
0.869337 0.000000 0.000000
0.914336 0.000000 0.000000
0.959365 0.000000 0.000000
1.000000 0.000000 0.000000
1.000000 0.000000 0.000000
1.000000 0.000000 0.000000
1.000000 0.000000 0.000000
1.000000 0.000000 0.000000
1.000000 0.000000 0.000000
1.000000 0.000000 0.000000
1.000000 0.000000 0.000000
1.000000 0.000000 0.000000
0.000000 0.114824 0.000000
0.002152 0.112505 0.000000
0.052949 0.110094 0.000000
0.102541 0.106706 0.000000
0.148791 0.101961 0.000000
0.193545 0.096193 0.000000
0.238270 0.088411 0.000000
0.282765 0.078447 0.000000
0.327382 0.064942 0.000000
0.372030 0.046372 0.000000
0.416754 0.019547 0.000000
0.461494 0.000000 0.000000
0.506340 0.000000 0.000000
0.551156 0.000000 0.000000
0.596094 0.000000 0.000000
0.641032 0.000000 0.000000
0.686046 0.000000 0.000000
0.731045 0.000000 0.000000
0.776104 0.000000 0.000000
0.821225 0.000000 0.000000
0.866362 0.000000 0.000000
0.911482 0.000000 0.000000
0.956603 0.000000 0.000000
1.000000 0.000000 0.000000
1.000000 0.000000 0.000000
1.000000 0.000000 0.000000
1.000000 0.000000 0.000000
1.000000 0.000000 0.000000
1.000000 0.000000 0.000000
1.000000 0.000000 0.000000
1.000000 0.000000 0.000000
1.000000 0.000000 0.000000
0.000000 0.152880 0.000000
0.000000 0.151125 0.000000
0.028733 0.149203 0.000000
0.088411 0.146365 0.000000
0.137957 0.142794 0.000000
0.184649 0.138384 0.000000
0.230137 0.132799 0.000000
0.275380 0.125765 0.000000
0.320531 0.117144 0.000000
0.365667 0.106340 0.000000
0.410605 0.092699 0.000000
0.455634 0.074662 0.000000
0.500740 0.048997 0.000000
0.545922 0.010636 0.000000
0.591028 0.000000 0.000000
0.636225 0.000000 0.000000
0.681468 0.000000 0.000000
0.726696 0.000000 0.000000
0.771969 0.000000 0.000000
0.817258 0.000000 0.000000
0.862501 0.000000 0.000000
0.907805 0.000000 0.000000
0.953063 0.000000 0.000000
0.998306 0.000000 0.000000
1.000000 0.000000 0.000000
1.000000 0.000000 0.000000
1.000000 0.000000 0.000000
1.000000 0.000000 0.000000
1.000000 0.000000 0.000000
1.000000 0.000000 0.000000
1.000000 0.000000 0.000000
1.000000 0.000000 0.000000
0.000000 0.191241 0.000000
0.000000 0.189792 0.000000
0.000000 0.188144 0.000000
0.067033 0.185992 0.000000
0.123659 0.183017 0.000000
0.173312 0.179370 0.000000
0.220829 0.174792 0.000000
0.266865 0.169451 0.000000
0.312657 0.162951 0.000000
0.358084 0.155169 0.000000
0.403632 0.145632 0.000000
0.448905 0.134447 0.000000
0.494316 0.120394 0.000000
0.539773 0.102937 0.000000
0.585138 0.079789 0.000000
0.630579 0.045090 0.000000
0.676097 0.000000 0.000000
0.721492 0.000000 0.000000
0.767010 0.000000 0.000000
0.812436 0.000000 0.000000
0.857878 0.000000 0.000000
0.903319 0.000000 0.000000
0.948745 0.000000 0.000000
0.994110 0.000000 0.000000
1.000000 0.000000 0.000000
1.000000 0.000000 0.000000
1.000000 0.000000 0.000000
1.000000 0.000000 0.000000
1.000000 0.000000 0.000000
1.000000 0.000000 0.000000
1.000000 0.000000 0.000000
1.000000 0.000000 0.000000
0.000000 0.229892 0.000000
0.000000 0.228702 0.000000
0.000000 0.227298 0.000000
0.030686 0.225406 0.000000
0.104326 0.222858 0.000000
0.159457 0.219715 0.000000
0.209049 0.216068 0.000000
0.256748 0.211612 0.000000
0.303639 0.206302 0.000000
0.349828 0.200107 0.000000
0.395667 0.192889 0.000000
0.441505 0.184375 0.000000
0.487221 0.174456 0.000000
0.532921 0.162768 0.000000
0.578592 0.148653 0.000000
0.624292 0.131670 0.000000
0.670008 0.109911 0.000000
0.715648 0.080888 0.000000
0.761334 0.033890 0.000000
0.806989 0.000000 0.000000
0.852598 0.000000 0.000000
0.898192 0.000000 0.000000
0.943786 0.000000 0.000000
0.989288 0.000000 0.000000
1.000000 0.000000 0.000000
1.000000 0.000000 0.000000
1.000000 0.000000 0.000000
1.000000 0.000000 0.000000
1.000000 0.000000 0.000000
1.000000 0.000000 0.000000
1.000000 0.000000 0.000000
1.000000 0.000000 0.000000
0.000000 0.268635 0.000000
0.000000 0.267628 0.000000
0.000000 0.266484 0.000000
0.000000 0.264881 0.000000
0.076005 0.262669 0.000000
0.141253 0.260014 0.000000
0.195209 0.256779 0.000000
0.245075 0.252918 0.000000
0.293309 0.248478 0.000000
0.340398 0.243397 0.000000
0.387060 0.237400 0.000000
0.433280 0.230655 0.000000
0.479393 0.222858 0.000000
0.525490 0.213794 0.000000
0.571420 0.203525 0.000000
0.617395 0.191486 0.000000
0.663340 0.177340 0.000000
0.709194 0.160708 0.000000
0.755062 0.140230 0.000000
0.800855 0.114382 0.000000
0.846662 0.078202 0.000000
0.892424 0.015442 0.000000
0.938155 0.000000 0.000000
0.983795 0.000000 0.000000
1.000000 0.000000 0.000000
1.000000 0.000000 0.000000
1.000000 0.000000 0.000000
1.000000 0.000000 0.000000
1.000000 0.000000 0.000000
1.000000 0.000000 0.000000
1.000000 0.000000 0.000000
1.000000 0.000000 0.000000
0.000000 0.307713 0.000000
0.000000 0.306859 0.000000
0.000000 0.305913 0.000000
0.000000 0.304433 0.000000
0.026200 0.302541 0.000000
0.116808 0.300221 0.000000
0.178012 0.297383 0.000000
0.231327 0.294072 0.000000
0.281392 0.290227 0.000000
0.329915 0.285802 0.000000
0.377417 0.280781 0.000000
0.424369 0.274998 0.000000
0.470954 0.268574 0.000000
0.517388 0.261219 0.000000
0.563729 0.252873 0.000000
0.609918 0.243427 0.000000
0.656107 0.232700 0.000000
0.702190 0.220523 0.000000
0.748257 0.206394 0.000000
0.794247 0.189944 0.000000
0.840177 0.170550 0.000000
0.886107 0.146639 0.000000
0.931945 0.115877 0.000000
0.977691 0.071595 0.000000
1.000000 0.000000 0.000000
1.000000 0.000000 0.000000
1.000000 0.000000 0.000000
1.000000 0.000000 0.000000
1.000000 0.000000 0.000000
1.000000 0.000000 0.000000
1.000000 0.000000 0.000000
1.000000 0.000000 0.000000
0.000000 0.347067 0.000000
0.000000 0.346243 0.000000
0.000000 0.345388 0.000000
0.000000 0.344091 0.000000
0.000000 0.342443 0.000000
0.081483 0.340368 0.000000
0.156008 0.337911 0.000000
0.214832 0.334936 0.000000
0.267735 0.331518 0.000000
0.317983 0.327657 0.000000
0.366766 0.323217 0.000000
0.414511 0.318273 0.000000
0.461860 0.312688 0.000000
0.508721 0.306478 0.000000
0.555337 0.299489 0.000000
0.601984 0.291585 0.000000
0.648341 0.282933 0.000000
0.694652 0.273106 0.000000
0.740902 0.262150 0.000000
0.787091 0.249683 0.000000
0.833188 0.235615 0.000000
0.879271 0.219410 0.000000
0.925246 0.200443 0.000000
0.971130 0.178180 0.000000
1.000000 0.150744 0.000000
1.000000 0.114641 0.000000
1.000000 0.058030 0.000000
1.000000 0.000000 0.000000
1.000000 0.000000 0.000000
1.000000 0.000000 0.000000
1.000000 0.000000 0.000000
1.000000 0.000000 0.000000
0.000000 0.386557 0.000000
0.000000 0.385840 0.000000
0.000000 0.385061 0.000000
0.000000 0.383917 0.000000
0.000000 0.382422 0.000000
0.014267 0.380621 0.000000
0.126864 0.378348 0.000000
0.194415 0.375708 0.000000
0.251789 0.372641 0.000000
0.304341 0.369162 0.000000
0.354681 0.365301 0.000000
0.403647 0.360876 0.000000
0.451743 0.355917 0.000000
0.499291 0.350546 0.000000
0.546441 0.344427 0.000000
0.593317 0.337774 0.000000
0.640086 0.330358 0.000000
0.686671 0.322057 0.000000
0.733105 0.312993 0.000000
0.779431 0.302907 0.000000
0.825666 0.291646 0.000000
0.871901 0.279133 0.000000
0.918029 0.264912 0.000000
0.964035 0.248936 0.000000
1.000000 0.230701 0.000000
1.000000 0.209369 0.000000
1.000000 0.184100 0.000000
1.000000 0.152621 0.000000
1.000000 0.110094 0.000000
1.000000 0.035309 0.000000
1.000000 0.000000 0.000000
1.000000 0.000000 0.000000
0.000000 0.426215 0.000000
0.000000 0.425620 0.000000
0.000000 0.424888 0.000000
0.000000 0.423850 0.000000
0.000000 0.422522 0.000000
0.000000 0.420829 0.000000
0.082994 0.418814 0.000000
0.168628 0.416449 0.000000
0.232441 0.413626 0.000000
0.288655 0.410514 0.000000
0.341115 0.406973 0.000000
0.391562 0.402976 0.000000
0.440726 0.398611 0.000000
0.489021 0.393713 0.000000
0.536797 0.388373 0.000000
0.584100 0.382467 0.000000
0.631220 0.376013 0.000000
0.678096 0.368826 0.000000
0.724773 0.361029 0.000000
0.771344 0.352392 0.000000
0.817762 0.342947 0.000000
0.864073 0.332631 0.000000
0.910323 0.321157 0.000000
0.956436 0.308415 0.000000
1.000000 0.294255 0.000000
1.000000 0.278447 0.000000
1.000000 0.260639 0.000000
1.000000 0.240162 0.000000
1.000000 0.216434 0.000000
1.000000 0.187884 0.000000
1.000000 0.151965 0.000000
1.000000 0.101671 0.000000
0.000000 0.466011 0.000000
0.000000 0.465446 0.000000
0.000000 0.464820 0.000000
0.000000 0.463874 0.000000
0.000000 0.462654 0.000000
0.000000 0.461143 0.000000
0.000000 0.459281 0.000000
0.134218 0.457069 0.000000
0.209049 0.454536 0.000000
0.270253 0.451652 0.000000
0.325765 0.448432 0.000000
0.378042 0.444846 0.000000
0.428595 0.440803 0.000000
0.477821 0.436439 0.000000
0.526299 0.431556 0.000000
0.574228 0.426276 0.000000
0.621744 0.420462 0.000000
0.668925 0.414176 0.000000
0.715892 0.407279 0.000000
0.762722 0.399756 0.000000
0.809308 0.391592 0.000000
0.855818 0.382635 0.000000
0.902174 0.372885 0.000000
0.948394 0.362249 0.000000
0.994522 0.350546 0.000000
1.000000 0.337697 0.000000
1.000000 0.323568 0.000000
1.000000 0.307897 0.000000
1.000000 0.290333 0.000000
1.000000 0.270604 0.000000
1.000000 0.247944 0.000000
1.000000 0.221515 0.000000
0.000000 0.505882 0.000000
0.000000 0.505394 0.000000
0.000000 0.504784 0.000000
0.000000 0.503929 0.000000
0.000000 0.502831 0.000000
0.000000 0.501411 0.000000
0.000000 0.499657 0.000000
0.080400 0.497673 0.000000
0.179370 0.495338 0.000000
0.248447 0.492683 0.000000
0.307958 0.489708 0.000000
0.362860 0.486427 0.000000
0.415030 0.482719 0.000000
0.465538 0.478706 0.000000
0.514900 0.474281 0.000000
0.563516 0.469459 0.000000
0.611643 0.464195 0.000000
0.659236 0.458442 0.000000
0.706523 0.452277 0.000000
0.753552 0.445548 0.000000
0.800382 0.438315 0.000000
0.847013 0.430457 0.000000
0.893553 0.421881 0.000000
0.939880 0.412619 0.000000
0.986099 0.402564 0.000000
1.000000 0.391653 0.000000
1.000000 0.379812 0.000000
1.000000 0.366857 0.000000
1.000000 0.352651 0.000000
1.000000 0.337087 0.000000
1.000000 0.319783 0.000000
1.000000 0.300526 0.000000
0.000000 0.545815 0.000000
0.000000 0.545358 0.000000
0.000000 0.544793 0.000000
0.000000 0.543999 0.000000
0.000000 0.542977 0.000000
0.000000 0.541680 0.000000
0.000000 0.540047 0.000000
0.000000 0.538186 0.000000
0.138659 0.535988 0.000000
0.221469 0.533593 0.000000
0.287160 0.530785 0.000000
0.345464 0.527749 0.000000
0.399909 0.524315 0.000000
0.452064 0.520592 0.000000
0.502525 0.516503 0.000000
0.551965 0.512078 0.000000
0.600687 0.507240 0.000000
0.648875 0.501976 0.000000
0.696513 0.496330 0.000000
0.743847 0.490272 0.000000
0.790951 0.483650 0.000000
0.837781 0.476585 0.000000
0.884428 0.468986 0.000000
0.930953 0.460670 0.000000
0.977203 0.451835 0.000000
1.000000 0.442298 0.000000
1.000000 0.431952 0.000000
1.000000 0.420798 0.000000
1.000000 0.408743 0.000000
1.000000 0.395590 0.000000
1.000000 0.381399 0.000000
1.000000 0.365805 0.000000
0.000000 0.585779 0.000000
0.000000 0.585351 0.000000
0.000000 0.584817 0.000000
0.000000 0.584085 0.000000
0.000000 0.583093 0.000000
0.000000 0.581888 0.000000
0.000000 0.580423 0.000000
0.000000 0.578668 0.000000
0.072511 0.576669 0.000000
0.187198 0.574334 0.000000
0.262303 0.571740 0.000000
0.325490 0.568841 0.000000
0.382788 0.565713 0.000000
0.436973 0.562203 0.000000
0.488884 0.558404 0.000000
0.539468 0.554223 0.000000
0.588937 0.549752 0.000000
0.637644 0.544930 0.000000
0.685802 0.539696 0.000000
0.733562 0.534066 0.000000
0.780942 0.528054 0.000000
0.828000 0.521553 0.000000
0.874861 0.514641 0.000000
0.921462 0.507179 0.000000
0.967865 0.499168 0.000000
1.000000 0.490623 0.000000
1.000000 0.481407 0.000000
1.000000 0.471534 0.000000
1.000000 0.460960 0.000000
1.000000 0.449561 0.000000
1.000000 0.437339 0.000000
1.000000 0.424018 0.000000
0.000000 0.625666 0.000000
0.000000 0.625269 0.000000
0.000000 0.624765 0.000000
0.000000 0.624109 0.000000
0.000000 0.623194 0.000000
0.000000 0.622080 0.000000
0.000000 0.620691 0.000000
0.000000 0.619043 0.000000
0.000000 0.617121 0.000000
0.140383 0.614954 0.000000
0.231907 0.612512 0.000000
0.301961 0.609796 0.000000
0.363424 0.606806 0.000000
0.420035 0.603525 0.000000
0.473777 0.599954 0.000000
0.525582 0.596079 0.000000
0.576104 0.591852 0.000000
0.625574 0.587305 0.000000
0.674373 0.582452 0.000000
0.722530 0.577218 0.000000
0.770260 0.571634 0.000000
0.817639 0.565652 0.000000
0.864729 0.559213 0.000000
0.911513 0.552377 0.000000
0.958007 0.545037 0.000000
1.000000 0.537255 0.000000
1.000000 0.528893 0.000000
1.000000 0.519936 0.000000
1.000000 0.510491 0.000000
1.000000 0.500282 0.000000
1.000000 0.489464 0.000000
1.000000 0.477836 0.000000
0.000000 0.665492 0.000000
0.000000 0.665110 0.000000
0.000000 0.664653 0.000000
0.000000 0.664027 0.000000
0.000000 0.663188 0.000000
0.000000 0.662104 0.000000
0.000000 0.660792 0.000000
0.000000 0.659220 0.000000
0.000000 0.657450 0.000000
0.058335 0.655360 0.000000
0.193347 0.653071 0.000000
0.274174 0.650507 0.000000
0.341146 0.647654 0.000000
0.401129 0.644541 0.000000
0.457054 0.641154 0.000000
0.510475 0.637491 0.000000
0.562188 0.633509 0.000000
0.612558 0.629206 0.000000
0.662028 0.624643 0.000000
0.710796 0.619730 0.000000
0.758923 0.614466 0.000000
0.806653 0.608835 0.000000
0.853956 0.602899 0.000000
0.900969 0.596521 0.000000
0.947631 0.589715 0.000000
0.994003 0.582513 0.000000
1.000000 0.574823 0.000000
1.000000 0.566659 0.000000
1.000000 0.557946 0.000000
1.000000 0.548730 0.000000
1.000000 0.538888 0.000000
1.000000 0.528466 0.000000
0.000000 0.705211 0.000000
0.000000 0.704830 0.000000
0.000000 0.704433 0.000000
0.000000 0.703792 0.000000
0.000000 0.703029 0.000000
0.000000 0.702007 0.000000
0.000000 0.700755 0.000000
0.000000 0.699275 0.000000
0.000000 0.697551 0.000000
0.000000 0.695598 0.000000
0.139498 0.693385 0.000000
0.240635 0.690913 0.000000
0.315297 0.688258 0.000000
0.379721 0.685267 0.000000
0.438560 0.682002 0.000000
0.493904 0.678554 0.000000
0.547021 0.674754 0.000000
0.598520 0.670680 0.000000
0.648737 0.666346 0.000000
0.698146 0.661677 0.000000
0.746792 0.656718 0.000000
0.794873 0.651438 0.000000
0.842542 0.645777 0.000000
0.889738 0.639780 0.000000
0.936629 0.633433 0.000000
0.983169 0.626658 0.000000
1.000000 0.619501 0.000000
1.000000 0.611917 0.000000
1.000000 0.603891 0.000000
1.000000 0.595392 0.000000
1.000000 0.586313 0.000000
1.000000 0.576791 0.000000
0.000000 0.744762 0.000000
0.000000 0.744427 0.000000
0.000000 0.744015 0.000000
0.000000 0.743420 0.000000
0.000000 0.742657 0.000000
0.000000 0.741680 0.000000
0.000000 0.740490 0.000000
0.000000 0.739101 0.000000
0.000000 0.737453 0.000000
0.000000 0.735546 0.000000
0.033295 0.733440 0.000000
0.197162 0.731136 0.000000
0.284718 0.728512 0.000000
0.355200 0.725689 0.000000
0.417746 0.722561 0.000000
0.475547 0.719234 0.000000
0.530541 0.715572 0.000000
0.583261 0.711696 0.000000
0.634531 0.707530 0.000000
0.684566 0.703105 0.000000
0.733837 0.698390 0.000000
0.782376 0.693355 0.000000
0.830411 0.687968 0.000000
0.877897 0.682307 0.000000
0.925032 0.676295 0.000000
0.971664 0.669932 0.000000
1.000000 0.663172 0.000000
1.000000 0.656031 0.000000
1.000000 0.648493 0.000000
1.000000 0.640528 0.000000
1.000000 0.632151 0.000000
1.000000 0.623209 0.000000
0.000000 0.784085 0.000000
0.000000 0.783764 0.000000
0.000000 0.783337 0.000000
0.000000 0.782834 0.000000
0.000000 0.782086 0.000000
0.000000 0.781140 0.000000
0.000000 0.780011 0.000000
0.000000 0.778637 0.000000
0.000000 0.777050 0.000000
0.000000 0.775265 0.000000
0.000000 0.773220 0.000000
0.135393 0.770962 0.000000
0.247303 0.768475 0.000000
0.326970 0.765713 0.000000
0.394324 0.762722 0.000000
0.455283 0.759503 0.000000
0.512291 0.756039 0.000000
0.566659 0.752285 0.000000
0.619059 0.748303 0.000000
0.670176 0.743984 0.000000
0.719966 0.739483 0.000000
0.769116 0.734661 0.000000
0.817563 0.729488 0.000000
0.865354 0.724102 0.000000
0.912734 0.718303 0.000000
0.959625 0.712261 0.000000
1.000000 0.705867 0.000000
1.000000 0.699062 0.000000
1.000000 0.691966 0.000000
1.000000 0.684398 0.000000
1.000000 0.676555 0.000000
1.000000 0.668177 0.000000
0.000000 0.823148 0.000000
0.000000 0.822828 0.000000
0.000000 0.822461 0.000000
0.000000 0.821927 0.000000
0.000000 0.821210 0.000000
0.000000 0.820325 0.000000
0.000000 0.819242 0.000000
0.000000 0.817914 0.000000
0.000000 0.816403 0.000000
0.000000 0.814649 0.000000
0.000000 0.812696 0.000000
0.000000 0.810513 0.000000
0.199115 0.808072 0.000000
0.293309 0.805402 0.000000
0.367575 0.802518 0.000000
0.432532 0.799420 0.000000
0.492256 0.796048 0.000000
0.548486 0.792447 0.000000
0.602365 0.788541 0.000000
0.654429 0.784436 0.000000
0.705272 0.780011 0.000000
0.754925 0.775357 0.000000
0.803876 0.770398 0.000000
0.852094 0.765225 0.000000
0.899718 0.759670 0.000000
0.946883 0.753811 0.000000
0.993530 0.747677 0.000000
1.000000 0.741238 0.000000
1.000000 0.734417 0.000000
1.000000 0.727230 0.000000
1.000000 0.719707 0.000000
1.000000 0.711803 0.000000
0.000000 0.861921 0.000000
0.000000 0.861585 0.000000
0.000000 0.861280 0.000000
0.000000 0.860746 0.000000
0.000000 0.860029 0.000000
0.000000 0.859159 0.000000
0.000000 0.858106 0.000000
0.000000 0.856855 0.000000
0.000000 0.855360 0.000000
0.000000 0.853651 0.000000
0.000000 0.851774 0.000000
0.000000 0.849638 0.000000
0.127962 0.847288 0.000000
0.252247 0.844694 0.000000
0.336477 0.841886 0.000000
0.407019 0.838850 0.000000
0.470192 0.835554 0.000000
0.528756 0.832075 0.000000
0.584314 0.828275 0.000000
0.637659 0.824277 0.000000
0.689418 0.819989 0.000000
0.739818 0.815503 0.000000
0.789288 0.810712 0.000000
0.837965 0.805631 0.000000
0.886000 0.800290 0.000000
0.933379 0.794644 0.000000
0.980301 0.788708 0.000000
1.000000 0.782483 0.000000
1.000000 0.775937 0.000000
1.000000 0.769055 0.000000
1.000000 0.761868 0.000000
1.000000 0.754299 0.000000
0.000000 0.900298 0.000000
0.000000 0.899992 0.000000
0.000000 0.899672 0.000000
0.000000 0.899153 0.000000
0.000000 0.898512 0.000000
0.000000 0.897658 0.000000
0.000000 0.896605 0.000000
0.000000 0.895384 0.000000
0.000000 0.893904 0.000000
0.000000 0.892302 0.000000
0.000000 0.890410 0.000000
0.000000 0.888335 0.000000
0.000000 0.886030 0.000000
0.198489 0.883513 0.000000
0.299764 0.880797 0.000000
0.377829 0.877806 0.000000
0.445563 0.874586 0.000000
0.506981 0.871168 0.000000
0.564599 0.867491 0.000000
0.619532 0.863539 0.000000
0.672313 0.859403 0.000000
0.723705 0.854994 0.000000
0.773861 0.850309 0.000000
0.823041 0.845365 0.000000
0.871443 0.840192 0.000000
0.919173 0.834684 0.000000
0.966201 0.828931 0.000000
1.000000 0.822889 0.000000
1.000000 0.816556 0.000000
1.000000 0.809888 0.000000
1.000000 0.802899 0.000000
1.000000 0.795270 0.000000
0.000000 0.938277 0.000000
0.000000 0.937972 0.000000
0.000000 0.937636 0.000000
0.000000 0.937148 0.000000
0.000000 0.936523 0.000000
0.000000 0.935668 0.000000
0.000000 0.934691 0.000000
0.000000 0.933471 0.000000
0.000000 0.932036 0.000000
0.000000 0.930449 0.000000
0.000000 0.928603 0.000000
0.000000 0.926558 0.000000
0.000000 0.924315 0.000000
0.115084 0.921843 0.000000
0.254582 0.919158 0.000000
0.344122 0.916228 0.000000
0.417701 0.913069 0.000000
0.482948 0.909697 0.000000
0.543069 0.906111 0.000000
0.599771 0.902251 0.000000
0.654063 0.898161 0.000000
0.706447 0.893843 0.000000
0.757412 0.889265 0.000000
0.807172 0.884413 0.000000
0.856031 0.879347 0.000000
0.904112 0.873976 0.000000
0.951415 0.868360 0.000000
0.998184 0.862486 0.000000
1.000000 0.856306 0.000000
1.000000 0.849836 0.000000
1.000000 0.843061 0.000000
1.000000 0.834699 0.000000
0.000000 0.975769 0.000000
0.000000 0.975464 0.000000
0.000000 0.975158 0.000000
0.000000 0.974670 0.000000
0.000000 0.974044 0.000000
0.000000 0.973205 0.000000
0.000000 0.972198 0.000000
0.000000 0.971008 0.000000
0.000000 0.969650 0.000000
0.000000 0.968063 0.000000
0.000000 0.966247 0.000000
0.000000 0.964263 0.000000
0.000000 0.962020 0.000000
0.000000 0.959594 0.000000
0.194324 0.956939 0.000000
0.304006 0.954055 0.000000
0.385916 0.950973 0.000000
0.456077 0.947646 0.000000
0.519387 0.944106 0.000000
0.578409 0.940292 0.000000
0.634287 0.936278 0.000000
0.687938 0.931991 0.000000
0.739803 0.927504 0.000000
0.790372 0.922728 0.000000
0.839719 0.917754 0.000000
0.888151 0.912490 0.000000
0.935882 0.906981 0.000000
0.982864 0.901183 0.000000
1.000000 0.895125 0.000000
1.000000 0.888777 0.000000
1.000000 0.882033 0.000000
1.000000 0.873259 0.000000
0.000000 1.000000 0.000000
0.000000 1.000000 0.000000
0.000000 1.000000 0.000000
0.000000 1.000000 0.000000
0.000000 1.000000 0.000000
0.000000 1.000000 0.000000
0.000000 1.000000 0.000000
0.000000 1.000000 0.000000
0.000000 1.000000 0.000000
0.000000 1.000000 0.000000
0.000000 1.000000 0.000000
0.000000 1.000000 0.000000
0.000000 0.999161 0.000000
0.000000 0.996735 0.000000
0.094255 0.994141 0.000000
0.254231 0.991287 0.000000
0.349416 0.988220 0.000000
0.425971 0.984939 0.000000
0.493339 0.981415 0.000000
0.555093 0.977646 0.000000
0.612940 0.973663 0.000000
0.668071 0.969436 0.000000
0.721004 0.965011 0.000000
0.772335 0.960296 0.000000
0.822431 0.955383 0.000000
0.871382 0.950195 0.000000
0.919417 0.944762 0.000000
0.966613 0.939055 0.000000
1.000000 0.933074 0.000000
1.000000 0.926818 0.000000
1.000000 0.919204 0.000000
1.000000 0.910994 0.000000
0.000000 1.000000 0.000000
0.000000 1.000000 0.000000
0.000000 1.000000 0.000000
0.000000 1.000000 0.000000
0.000000 1.000000 0.000000
0.000000 1.000000 0.000000
0.000000 1.000000 0.000000
0.000000 1.000000 0.000000
0.000000 1.000000 0.000000
0.000000 1.000000 0.000000
0.000000 1.000000 0.000000
0.000000 1.000000 0.000000
0.000000 1.000000 0.000000
0.000000 1.000000 0.000000
0.000000 1.000000 0.000000
0.186877 1.000000 0.000000
0.305730 1.000000 0.000000
0.391852 1.000000 0.000000
