content/luts/atmosphere/atmosphere_06.cube
#Created by: inPixio
#Copyright: (C) Copyright 2022 inPixio
TITLE "Atmosphere 6"
#LUT size
LUT_3D_SIZE 8
#data domain
#LUT data points
DOMAIN_MIN 0.000000 0.000000 0.000000
DOMAIN_MAX 0.903226 0.903226 0.903226
0.000000 0.000000 0.000000
0.171008 0.000000 0.000000
0.342794 0.000000 0.000000
0.517662 0.000000 0.000000
0.694926 0.000000 0.000000
0.873533 0.000000 0.000000
1.000000 0.000000 0.000000
1.000000 0.000000 0.000000
0.000000 0.152880 0.000000
0.137957 0.142794 0.000000
0.320531 0.117144 0.000000
0.500740 0.048997 0.000000
0.681468 0.000000 0.000000
0.862501 0.000000 0.000000
1.000000 0.000000 0.000000
1.000000 0.000000 0.000000
0.000000 0.307713 0.000000
0.026200 0.302541 0.000000
0.281392 0.290227 0.000000
0.470954 0.268574 0.000000
0.656107 0.232700 0.000000
0.840177 0.170550 0.000000
1.000000 0.000000 0.000000
1.000000 0.000000 0.000000
0.000000 0.466011 0.000000
0.000000 0.462654 0.000000
0.209049 0.454536 0.000000
0.428595 0.440803 0.000000
0.621744 0.420462 0.000000
0.809308 0.391592 0.000000
0.994522 0.350546 0.000000
1.000000 0.290333 0.000000
0.000000 0.625666 0.000000
0.000000 0.623194 0.000000
0.000000 0.617121 0.000000
0.363424 0.606806 0.000000
0.576104 0.591852 0.000000
0.770260 0.571634 0.000000
0.958007 0.545037 0.000000
1.000000 0.510491 0.000000
0.000000 0.784085 0.000000
0.000000 0.782086 0.000000
0.000000 0.777050 0.000000
0.247303 0.768475 0.000000
0.512291 0.756039 0.000000
0.719966 0.739483 0.000000
0.912734 0.718303 0.000000
1.000000 0.691966 0.000000
0.000000 0.938277 0.000000
0.000000 0.936523 0.000000
0.000000 0.932036 0.000000
0.000000 0.924315 0.000000
0.417701 0.913069 0.000000
0.654063 0.898161 0.000000
0.856031 0.879347 0.000000
1.000000 0.856306 0.000000
0.000000 1.000000 0.000000
0.000000 1.000000 0.000000
0.000000 1.000000 0.000000
0.000000 1.000000 0.000000
0.241321 1.000000 0.000000
0.556939 1.000000 0.000000
0.777096 1.000000 0.000000
0.970916 1.000000 0.000000
0.000000 0.000000 0.173709
0.174792 0.000000 0.159701
0.344045 0.000000 0.129915
0.517708 0.000000 0.092592
0.694041 0.000000 0.040070
0.872282 0.000000 0.000000
1.000000 0.000000 0.000000
1.000000 0.000000 0.000000
0.000000 0.140963 0.129748
0.147189 0.131670 0.118517
0.324086 0.104799 0.095506
0.501930 0.023850 0.059434
0.681468 0.000000 0.000000
0.861845 0.000000 0.000000
1.000000 0.000000 0.000000
1.000000 0.000000 0.000000
0.000000 0.299794 0.036912
0.065080 0.294926 0.023072
0.288685 0.282963 0.000000
0.474205 0.261387 0.000000
0.657435 0.224964 0.000000
0.840452 0.160189 0.000000
1.000000 0.000000 0.000000
1.000000 0.000000 0.000000
0.000000 0.460304 0.000000
0.000000 0.457099 0.000000
0.221180 0.449210 0.000000
0.433433 0.435676 0.000000
0.624247 0.415442 0.000000
0.810407 0.386511 0.000000
0.994766 0.345113 0.000000
1.000000 0.284031 0.000000
0.000000 0.621302 0.000000
0.000000 0.618875 0.000000
0.000000 0.612940 0.000000
0.370306 0.602777 0.000000
0.579446 0.587930 0.000000
0.772015 0.567773 0.000000
0.958724 0.541238 0.000000
1.000000 0.506630 0.000000
0.000000 0.780499 0.000000
0.000000 0.778561 0.000000
0.000000 0.773571 0.000000
0.259358 0.765087 0.000000
0.516838 0.752743 0.000000
0.722347 0.736248 0.000000
0.913924 0.715175 0.000000
1.000000 0.688808 0.000000
0.000000 0.935225 0.000000
0.000000 0.933455 0.000000
0.000000 0.929046 0.000000
0.000000 0.921386 0.000000
0.423697 0.910155 0.000000
0.656962 0.895323 0.000000
0.857527 0.876555 0.000000
1.000000 0.853529 0.000000
0.000000 1.000000 0.000000
0.000000 1.000000 0.000000
0.000000 1.000000 0.000000
0.000000 1.000000 0.000000
0.249424 1.000000 0.000000
0.560494 1.000000 0.000000
0.778805 1.000000 0.000000
0.971710 1.000000 0.000000
0.000000 0.000000 0.351904
0.174563 0.000000 0.341436
0.345541 0.000000 0.318105
0.519371 0.000000 0.288335
0.695308 0.000000 0.254871
0.872862 0.000000 0.217762
1.000000 0.000000 0.175189
1.000000 0.000000 0.120470
0.000000 0.120882 0.315831
0.152102 0.111162 0.308049
0.328725 0.079667 0.291096
0.505379 0.000000 0.266865
0.683650 0.000000 0.237079
0.862944 0.000000 0.202045
1.000000 0.000000 0.159335
1.000000 0.000000 0.100877
0.000000 0.286183 0.264942
0.094789 0.281651 0.259068
0.298650 0.270176 0.245579
0.480385 0.248219 0.224918
0.661311 0.210071 0.197559
0.842557 0.139086 0.162463
1.000000 0.000000 0.114473
1.000000 0.000000 0.025803
0.000000 0.449577 0.192935
0.000000 0.446616 0.187671
0.240955 0.439094 0.174960
0.443015 0.425895 0.153399
0.629969 0.405707 0.121126
0.813825 0.376410 0.068849
0.996414 0.334203 0.000000
1.000000 0.270848 0.000000
0.000000 0.612467 0.024628
0.000000 0.610147 0.012085
0.089616 0.604425 0.000000
0.384375 0.594492 0.000000
0.587015 0.579843 0.000000
0.776516 0.559777 0.000000
0.961227 0.533181 0.000000
1.000000 0.498329 0.000000
0.000000 0.772900 0.000000
0.000000 0.770962 0.000000
0.000000 0.766171 0.000000
0.282445 0.757809 0.000000
0.526543 0.745602 0.000000
0.727932 0.729275 0.000000
0.916945 0.708263 0.000000
1.000000 0.681911 0.000000
0.000000 0.928359 0.000000
0.000000 0.926665 0.000000
0.000000 0.922316 0.000000
0.000000 0.914733 0.000000
0.436667 0.903685 0.000000
0.663493 0.888930 0.000000
0.861173 0.870237 0.000000
1.000000 0.847288 0.000000
0.000000 1.000000 0.000000
0.000000 1.000000 0.000000
0.000000 1.000000 0.000000
0.000000 1.000000 0.000000
0.272908 1.000000 0.000000
0.568521 1.000000 0.000000
0.782895 1.000000 0.000000
0.973556 1.000000 0.000000
0.000000 0.000000 0.531457
0.169741 0.000000 0.523049
0.346304 0.000000 0.504967
0.521370 0.000000 0.479774
0.697398 0.000000 0.450187
0.874540 0.000000 0.417960
1.000000 0.000000 0.383520
1.000000 0.000000 0.346654
0.000000 0.087633 0.500374
0.149615 0.074281 0.494636
0.331746 0.023651 0.481041
0.508843 0.000000 0.460380
0.686671 0.000000 0.434531
0.865202 0.000000 0.404974
1.000000 0.000000 0.372381
1.000000 0.000000 0.336645
0.000000 0.267323 0.457191
0.106249 0.263020 0.452628
0.306554 0.251515 0.441825
0.486671 0.228565 0.424888
0.666072 0.186816 0.402869
0.845976 0.100877 0.376623
1.000000 0.000000 0.346456
1.000000 0.000000 0.312154
0.000000 0.434913 0.403830
0.000000 0.432136 0.400092
0.258473 0.424994 0.391165
0.453300 0.411994 0.376669
0.636942 0.391745 0.357015
0.818540 0.361730 0.332769
0.999298 0.317876 0.303822
1.000000 0.250401 0.269596
0.000000 0.599954 0.336889
0.000000 0.597818 0.333608
0.145769 0.592340 0.325597
0.400259 0.582696 0.312139
0.596658 0.568307 0.293156
0.782742 0.548272 0.268681
0.965042 0.521431 0.237842
1.000000 0.486152 0.198718
0.000000 0.761776 0.242268
0.000000 0.759945 0.238804
0.000000 0.755306 0.230182
0.309316 0.747158 0.215061
0.539254 0.735210 0.192264
0.735622 0.718959 0.159884
0.921599 0.698024 0.111345
1.000000 0.671641 0.011673
0.000000 0.918105 0.000000
0.000000 0.916442 0.000000
0.000000 0.912169 0.000000
0.075029 0.904753 0.000000
0.454002 0.893858 0.000000
0.672770 0.879240 0.000000
0.866484 0.860624 0.000000
1.000000 0.837766 0.000000
0.000000 1.000000 0.000000
0.000000 1.000000 0.000000
0.000000 1.000000 0.000000
0.000000 1.000000 0.000000
0.302815 1.000000 0.000000
0.579797 1.000000 0.000000
0.788830 1.000000 0.000000
0.977447 0.991455 0.000000
0.000000 0.000000 0.711849
0.161837 0.000000 0.705608
0.345907 0.000000 0.691386
0.522911 0.000000 0.669993
0.699458 0.000000 0.643717
0.876463 0.000000 0.614191
1.000000 0.000000 0.582422
1.000000 0.000000 0.548760
0.000000 0.015061 0.685679
0.140902 0.000000 0.681163
0.332555 0.000000 0.670024
0.511635 0.000000 0.652186
0.689586 0.000000 0.628992
0.867674 0.000000 0.601968
1.000000 0.000000 0.572076
1.000000 0.000000 0.539818
0.000000 0.242695 0.646815
0.101564 0.238193 0.643137
0.310277 0.225711 0.634119
0.491539 0.200107 0.619333
0.670497 0.150805 0.599649
0.849470 0.012909 0.575891
1.000000 0.000000 0.548806
1.000000 0.000000 0.518898
0.000000 0.416556 0.599649
0.000000 0.413855 0.596536
0.269734 0.406943 0.588891
0.461570 0.394019 0.576349
0.643381 0.373358 0.559197
0.823362 0.342214 0.538109
1.000000 0.295491 0.513497
1.000000 0.221225 0.485725
0.000000 0.584436 0.544549
0.000000 0.582422 0.541909
0.179217 0.577203 0.535317
0.413916 0.567880 0.524285
0.605722 0.553582 0.508949
0.789014 0.533532 0.489632
0.969146 0.506340 0.466743
1.000000 0.470283 0.440314
0.000000 0.747845 0.479377
0.000000 0.746075 0.477012
0.000000 0.741619 0.471168
0.332815 0.733745 0.461097
0.551736 0.721996 0.446799
0.743526 0.705913 0.428550
0.926543 0.684993 0.406287
1.000000 0.658518 0.380163
0.000000 0.905013 0.398505
0.000000 0.903380 0.396246
0.000000 0.899275 0.390692
0.158404 0.892012 0.380942
0.471428 0.881285 0.366903
0.682475 0.866850 0.348409
0.872160 0.848371 0.325536
1.000000 0.825544 0.297932
0.000000 1.000000 0.287297
0.000000 1.000000 0.284718
0.000000 1.000000 0.278050
0.000000 1.000000 0.266316
0.331594 1.000000 0.248859
0.591531 1.000000 0.225177
0.795041 1.000000 0.194324
0.982193 0.978821 0.153277
0.000000 0.000000 0.893950
0.151125 0.000000 0.889082
0.344320 0.000000 0.877516
0.523720 0.000000 0.859327
0.701183 0.000000 0.835920
0.878142 0.000000 0.808774
1.000000 0.000000 0.778866
1.000000 0.000000 0.746853
0.000000 0.000000 0.871580
0.126711 0.000000 0.867826
0.331151 0.000000 0.858488
0.513191 0.000000 0.842939
0.691920 0.000000 0.822110
0.869780 0.000000 0.797070
1.000000 0.000000 0.768887
1.000000 0.000000 0.738186
0.000000 0.209613 0.835828
0.082872 0.204395 0.832715
0.309987 0.189487 0.825025
0.494331 0.157839 0.812009
0.673869 0.087633 0.794125
0.852415 0.000000 0.772015
1.000000 0.000000 0.746517
1.000000 0.000000 0.718166
0.000000 0.394400 0.792004
0.000000 0.391760 0.789365
0.273732 0.384787 0.782696
0.466804 0.371481 0.771481
0.648341 0.349859 0.755825
0.827344 0.316686 0.736202
1.000000 0.265522 0.713176
1.000000 0.178500 0.687190
0.000000 0.566079 0.741726
0.000000 0.564141 0.739376
0.196628 0.559091 0.733517
0.423392 0.549935 0.723552
0.612802 0.535699 0.709606
0.794232 0.515511 0.691875
0.972549 0.487785 0.670802
1.000000 0.450553 0.646723
0.000000 0.731350 0.684520
0.000000 0.729656 0.682475
0.000000 0.725383 0.677241
0.349935 0.717754 0.668299
0.561608 0.706188 0.655604
0.750042 0.690288 0.639353
0.930633 0.669352 0.619745
1.000000 0.642695 0.597162
0.000000 0.889448 0.619211
0.000000 0.887923 0.617334
0.000000 0.883894 0.612589
0.203281 0.876844 0.604486
0.485527 0.866331 0.592828
0.690623 0.852079 0.577722
0.876692 0.833722 0.559442
1.000000 0.810971 0.538293
0.000000 1.000000 0.542748
0.000000 1.000000 0.540917
0.000000 1.000000 0.536309
0.000000 1.000000 0.528328
0.354376 1.000000 0.516838
0.601419 1.000000 0.502052
0.799817 0.986542 0.484413
0.985718 0.963867 0.463401
0.000000 0.000000 1.000000
0.156130 0.000000 1.000000
0.341253 0.000000 1.000000
0.523552 0.000000 1.000000
0.702083 0.000000 1.000000
0.879225 0.000000 1.000000
1.000000 0.000000 0.973800
1.000000 0.000000 0.942992
0.000000 0.000000 1.000000
0.106798 0.000000 1.000000
0.327855 0.000000 1.000000
0.513268 0.000000 1.000000
0.693187 0.000000 1.000000
0.871229 0.000000 0.990784
1.000000 0.000000 0.964050
1.000000 0.000000 0.934493
0.000000 0.161776 1.000000
0.041413 0.154513 1.000000
0.305791 0.133547 1.000000
0.494789 0.082643 1.000000
0.675761 0.000000 0.987182
0.854307 0.000000 0.966506
1.000000 0.000000 0.942153
1.000000 0.000000 0.914748
0.000000 0.367666 0.983093
0.000000 0.364874 0.980713
0.271077 0.357519 0.974777
0.468330 0.343420 0.964584
0.651057 0.320073 0.950042
0.829877 0.283360 0.931579
1.000000 0.224369 0.909499
1.000000 0.106981 0.884291
0.000000 0.544884 0.935180
0.000000 0.542962 0.933074
0.200290 0.537957 0.927733
0.427543 0.528801 0.918563
0.616831 0.514519 0.905455
0.797421 0.493828 0.888624
0.974502 0.465278 0.868376
1.000000 0.426505 0.845045
0.000000 0.712505 0.881285
0.000000 0.710872 0.879377
0.000000 0.706737 0.874525
0.359121 0.699245 0.866178
0.567666 0.687861 0.854170
0.754208 0.671992 0.838666
0.932799 0.651026 0.819898
1.000000 0.624140 0.798184
0.000000 0.871733 0.821042
0.000000 0.870192 0.819287
0.000000 0.866331 0.814862
0.226703 0.859464 0.807263
0.494453 0.849134 0.796231
0.695583 0.835050 0.781918
0.878950 0.816846 0.764584
1.000000 0.794217 0.744472
0.000000 1.000000 0.752972
0.000000 1.000000 0.751293
0.000000 1.000000 0.747051
0.000000 1.000000 0.739742
0.368200 0.999985 0.729183
0.607019 0.986908 0.715572
0.801572 0.970153 0.699367
0.986725 0.946914 0.679728
0.389288 0.000000 1.000000
0.428534 0.000000 1.000000
0.513314 0.000000 1.000000
0.632883 0.000000 1.000000
0.773190 0.000000 1.000000
0.925353 0.000000 1.000000
1.000000 0.000000 1.000000
1.000000 0.000000 1.000000
0.359396 0.000000 1.000000
0.401740 0.000000 1.000000
0.491936 0.000000 1.000000
0.616190 0.000000 1.000000
0.759777 0.000000 1.000000
0.914168 0.000000 1.000000
1.000000 0.000000 1.000000
1.000000 0.000000 1.000000
0.303304 0.081132 1.000000
0.352377 0.066056 1.000000
0.451774 0.009583 1.000000
0.583536 0.000000 1.000000
0.732326 0.000000 1.000000
0.890211 0.000000 1.000000
1.000000 0.000000 1.000000
1.000000 0.000000 1.000000
0.209323 0.336187 1.000000
0.275700 0.333089 1.000000
0.393942 0.324819 1.000000
0.537789 0.308980 1.000000
0.693477 0.282445 1.000000
0.855375 0.239246 1.000000
1.000000 0.163561 1.000000
1.000000 0.000000 1.000000
0.000000 0.520623 1.000000
0.108812 0.518700 1.000000
0.303639 0.513603 1.000000
0.474327 0.504250 1.000000
0.642222 0.489448 1.000000
0.810117 0.467918 1.000000
0.978088 0.437964 1.000000
1.000000 0.396719 1.000000
0.000000 0.690883 1.000000
0.000000 0.689357 1.000000
0.082292 0.685222 1.000000
0.377783 0.677806 1.000000
0.572702 0.666438 1.000000
0.752956 0.650538 1.000000
0.930800 0.629358 1.000000
1.000000 0.602121 0.997025
0.000000 0.851164 1.000000
0.000000 0.849699 1.000000
0.000000 0.845914 1.000000
0.223590 0.839231 1.000000
0.493019 0.829084 0.996231
0.693675 0.815168 0.982284
0.875792 0.797131 0.965148
1.000000 0.773220 0.944503
0.000000 1.000000 0.955490
0.000000 0.999832 0.953887
0.000000 0.996292 0.949783
0.000000 0.989960 0.942626
0.364904 0.980484 0.932357
0.603189 0.967651 0.919005
0.796399 0.951125 0.902968
0.980896 0.927779 0.883192
