content/luts/atmosphere/atmosphere_07.cube
#Created by: inPixio
#Copyright: (C) Copyright 2022 inPixio
TITLE "Atmosphere 7"
#LUT size
LUT_3D_SIZE 5
#data domain
#LUT data points
DOMAIN_MIN 0.000000 0.000000 0.000000
DOMAIN_MAX 0.903226 0.903226 0.903226
0.000000 0.000000 0.000000
0.095109 0.013092 0.003128
0.370184 0.000000 0.000397
0.781552 0.000000 0.000000
1.000000 0.216388 0.000000
0.024826 0.096391 0.035706
0.098634 0.114733 0.017990
0.407279 0.110552 0.000198
0.802228 0.084138 0.000000
1.000000 0.336156 0.000198
0.000000 0.369711 0.102449
0.076127 0.361975 0.122103
0.441093 0.480903 0.010208
0.844556 0.526818 0.000000
1.000000 0.602029 0.000198
0.024826 0.755703 0.262333
0.206195 0.746319 0.269596
0.484260 0.718441 0.336736
0.816465 0.824369 0.164797
1.000000 0.841016 0.035508
0.568124 0.963928 0.599832
0.599909 0.960937 0.603800
0.731640 0.945785 0.659602
0.854032 0.938811 0.710597
0.986343 0.949706 0.595270
0.010010 0.001175 0.100389
0.096590 0.002731 0.117052
0.362707 0.000000 0.108354
0.754665 0.000000 0.101762
0.999329 0.201221 0.081239
0.000977 0.107897 0.121370
0.097612 0.127657 0.134508
0.395758 0.122850 0.131823
0.780896 0.090257 0.103487
1.000000 0.323919 0.084947
0.000580 0.400626 0.197711
0.102159 0.406912 0.214694
0.439826 0.468132 0.185885
0.840482 0.518654 0.109178
1.000000 0.598657 0.137530
0.074403 0.770367 0.351431
0.257816 0.769833 0.356603
0.516228 0.735058 0.407691
0.815351 0.823346 0.303273
1.000000 0.840299 0.267277
0.578927 0.962158 0.643839
0.611063 0.958740 0.643671
0.735943 0.946044 0.689281
0.855894 0.937057 0.747189
0.984283 0.949767 0.654673
0.000000 0.019944 0.349569
0.031281 0.008789 0.373266
0.436927 0.000198 0.432883
0.821851 0.000000 0.430991
0.996414 0.000000 0.382239
0.000397 0.133166 0.370184
0.026200 0.141589 0.390677
0.457160 0.080034 0.450996
0.813413 0.000000 0.428672
0.998612 0.287877 0.411902
0.001373 0.415778 0.431434
0.018967 0.435737 0.443198
0.490593 0.499382 0.489967
0.810193 0.514397 0.469505
0.998230 0.592813 0.466026
0.001556 0.803311 0.545892
0.222522 0.802258 0.551186
0.575021 0.792874 0.587839
0.821500 0.828992 0.579507
0.999466 0.840085 0.584955
0.536248 0.968338 0.727871
0.591653 0.964172 0.737636
0.749691 0.949813 0.779309
0.864591 0.934646 0.828840
0.974807 0.947784 0.781048
0.000000 0.003128 0.683391
0.002731 0.000000 0.699367
0.500206 0.000198 0.758221
0.823163 0.000000 0.801892
1.000000 0.000198 0.796033
0.000580 0.155489 0.690288
0.014466 0.154452 0.704006
0.499016 0.120714 0.758938
0.821790 0.067872 0.803876
1.000000 0.213230 0.792691
0.001373 0.417044 0.674052
0.020722 0.429114 0.688304
0.480156 0.469520 0.757183
0.821912 0.527749 0.814450
0.995728 0.568643 0.781628
0.000198 0.770733 0.773007
0.131899 0.773526 0.774975
0.509178 0.791165 0.792783
0.825605 0.838972 0.841825
0.975647 0.832212 0.816465
0.405386 0.981979 0.869261
0.491173 0.977417 0.869795
0.705730 0.961914 0.876173
0.875074 0.943404 0.899916
0.968704 0.945724 0.900114
0.123659 0.011872 0.954955
0.283513 0.001953 0.957473
0.591226 0.000000 0.965652
0.843381 0.162280 0.975708
0.991165 0.197711 0.977981
0.058335 0.196765 0.953292
0.268742 0.191180 0.955993
0.583139 0.185519 0.963455
0.837919 0.305608 0.972824
0.989899 0.344884 0.977050
0.007813 0.473243 0.943801
0.171130 0.452827 0.946487
0.535226 0.462242 0.956451
0.819867 0.558816 0.966629
0.978470 0.616190 0.971313
0.068421 0.760403 0.937835
0.179156 0.756954 0.936889
0.469108 0.745342 0.936950
0.783841 0.783581 0.955306
0.969345 0.853529 0.970504
0.431006 0.954116 0.962295
0.485527 0.952499 0.962326
0.650950 0.947387 0.963623
0.834516 0.940566 0.965621
0.971099 0.945724 0.976577
