content/luts/atmosphere/atmosphere_11.cube
#Created by: inPixio
#Copyright: (C) Copyright 2022 inPixio
TITLE "Atmosphere 8"
#LUT size
LUT_3D_SIZE 8
#data domain
#LUT data points
DOMAIN_MIN 0.000000 0.000000 0.000000
DOMAIN_MAX 0.903226 0.903226 0.903226
0.000000 0.000000 0.000000
0.158587 0.092393 0.090364
0.378759 0.117144 0.118166
0.650324 0.172046 0.179751
0.858915 0.263996 0.284657
0.964859 0.386893 0.414511
1.000000 0.517678 0.561547
1.000000 0.629908 0.680644
0.094148 0.141878 0.090257
0.153933 0.147997 0.093004
0.341024 0.189075 0.121691
0.603296 0.241321 0.183719
0.837980 0.310369 0.281895
0.953811 0.403677 0.406836
0.999512 0.517037 0.547585
1.000000 0.641291 0.687114
0.144045 0.298299 0.123491
0.194476 0.293858 0.124712
0.307057 0.289052 0.132265
0.548333 0.361029 0.200732
0.796094 0.427924 0.301350
0.924834 0.475853 0.408164
0.995758 0.579110 0.572335
1.000000 0.654795 0.677791
0.245350 0.496346 0.198871
0.283681 0.493889 0.198825
0.392340 0.486946 0.200977
0.552438 0.497749 0.216693
0.761196 0.544167 0.304433
0.904555 0.588937 0.444389
0.981231 0.647257 0.587411
1.000000 0.704875 0.694087
0.367559 0.683894 0.298940
0.386252 0.681453 0.298146
0.477791 0.678874 0.302236
0.604822 0.672114 0.307057
0.735225 0.658030 0.309041
0.879149 0.678096 0.414633
0.959304 0.707897 0.573510
0.997421 0.756909 0.706539
0.476173 0.815457 0.423194
0.497078 0.814496 0.424445
0.555169 0.811856 0.428794
0.646540 0.803006 0.429648
0.746578 0.787717 0.424628
0.848951 0.771740 0.421164
0.945724 0.780346 0.540353
0.990250 0.805859 0.697627
0.612299 0.903761 0.578210
0.620508 0.903075 0.578149
0.650202 0.899031 0.574762
0.704173 0.892882 0.572458
0.772030 0.883360 0.569085
0.848539 0.873030 0.570352
0.926635 0.865064 0.580499
0.982498 0.863233 0.675593
0.733028 0.953582 0.714748
0.735866 0.953246 0.714321
0.751431 0.951721 0.714366
0.780209 0.948608 0.713680
0.820295 0.944472 0.714946
0.867582 0.940017 0.718563
0.920272 0.935744 0.725307
0.972885 0.932860 0.738628
0.087404 0.085954 0.117144
0.131212 0.094575 0.118608
0.260594 0.143984 0.162097
0.507546 0.213932 0.236149
0.792508 0.297932 0.336461
0.932921 0.407446 0.450126
0.995407 0.517479 0.569162
1.000000 0.640269 0.695659
0.098543 0.117647 0.111162
0.123735 0.122194 0.120317
0.240284 0.171939 0.161654
0.491051 0.246647 0.235584
0.768734 0.325048 0.328832
0.920501 0.416800 0.438544
0.991898 0.527077 0.566476
1.000000 0.644938 0.695430
0.153079 0.236851 0.158846
0.179049 0.228565 0.162097
0.250324 0.239124 0.169268
0.467369 0.327352 0.240513
0.732174 0.411856 0.332296
0.905531 0.490852 0.451164
0.982895 0.575662 0.578500
1.000000 0.667598 0.696819
0.250401 0.443824 0.237888
0.277623 0.435798 0.237491
0.359121 0.431220 0.237324
0.487862 0.441886 0.247623
0.703441 0.509148 0.326482
0.878965 0.580484 0.463615
0.969207 0.646387 0.599405
1.000000 0.706096 0.701762
0.370550 0.649073 0.327749
0.384253 0.647013 0.327520
0.461555 0.639078 0.325795
0.572061 0.630579 0.326314
0.694698 0.620935 0.329030
0.855512 0.661631 0.432258
0.949020 0.703822 0.585214
0.993561 0.756634 0.713207
0.479652 0.794110 0.437751
0.497292 0.792920 0.438071
0.545800 0.788541 0.436896
0.635660 0.782422 0.440406
0.737789 0.773983 0.444968
0.842039 0.765469 0.452369
0.938293 0.777096 0.562127
0.986023 0.804700 0.705379
0.614801 0.894637 0.589410
0.624140 0.893431 0.588724
0.651392 0.889464 0.584939
0.704036 0.883940 0.584939
0.770214 0.875471 0.582818
0.844266 0.866407 0.581842
0.921386 0.859525 0.589654
0.979187 0.861234 0.684596
0.733028 0.949416 0.718639
0.735424 0.949020 0.718135
0.752361 0.947540 0.719005
0.782666 0.945174 0.721706
0.822202 0.941711 0.724529
0.868971 0.937820 0.729213
0.919967 0.933852 0.735287
0.971099 0.930968 0.744137
0.112413 0.108080 0.240955
0.158709 0.115175 0.217716
0.242573 0.149416 0.212161
0.430549 0.228183 0.294362
0.689601 0.331014 0.411841
0.872725 0.457466 0.535821
0.966537 0.582422 0.657420
0.999786 0.685878 0.752987
0.132418 0.143557 0.170321
0.152819 0.149065 0.169390
0.220737 0.179599 0.200488
0.397452 0.254429 0.288792
0.665827 0.349050 0.404074
0.863996 0.464881 0.529030
0.962219 0.581567 0.648005
0.999588 0.689662 0.752972
0.161654 0.205951 0.190829
0.189639 0.212833 0.202548
0.236393 0.228489 0.224796
0.386511 0.305394 0.296635
0.644389 0.406760 0.404852
0.846418 0.504845 0.522240
0.954177 0.609827 0.646952
0.997742 0.706508 0.752972
0.253025 0.380743 0.285237
0.274891 0.367956 0.287770
0.325017 0.359991 0.292882
0.405783 0.375403 0.304158
0.621546 0.472297 0.398276
0.826215 0.573053 0.528985
0.941177 0.657664 0.650614
0.992676 0.736095 0.755154
0.368978 0.585504 0.389181
0.387030 0.576288 0.390051
0.446021 0.566674 0.392874
0.532143 0.567208 0.396613
0.634150 0.568551 0.401602
0.807691 0.636393 0.501656
0.923873 0.707363 0.642832
0.981491 0.771786 0.755352
0.505470 0.752026 0.502648
0.516930 0.749584 0.502922
0.557672 0.744564 0.504128
0.629526 0.740963 0.506233
0.714916 0.735760 0.507500
0.810239 0.733791 0.515236
0.916152 0.767315 0.618814
0.974273 0.812161 0.748684
0.641337 0.870619 0.637110
0.648386 0.869566 0.636866
0.670161 0.866545 0.634989
0.714321 0.862440 0.633753
0.771405 0.856779 0.632075
0.837720 0.850721 0.632822
0.908614 0.846983 0.639872
0.969207 0.859754 0.727962
0.754482 0.938354 0.753582
0.756375 0.938186 0.752972
0.769909 0.937072 0.752346
0.795911 0.935348 0.754009
0.831174 0.933272 0.757168
0.872206 0.930541 0.759960
0.918853 0.928374 0.766247
0.966949 0.928481 0.778210
0.170367 0.160510 0.398810
0.215152 0.168216 0.377508
0.284657 0.183825 0.323018
0.420630 0.231449 0.361807
0.655268 0.333959 0.477607
0.827390 0.474128 0.595361
0.929992 0.619867 0.717357
0.984680 0.728100 0.806775
0.192783 0.203281 0.304341
0.214969 0.204990 0.299947
0.262409 0.210361 0.285802
0.398978 0.260594 0.348974
0.629694 0.357565 0.469474
0.811765 0.486351 0.592065
0.926970 0.624552 0.715923
0.984390 0.731670 0.807355
0.203479 0.238117 0.266270
0.223987 0.242771 0.266728
0.306203 0.291432 0.312337
0.396262 0.336538 0.367865
0.580896 0.416220 0.466804
0.790509 0.526833 0.593927
0.923003 0.651576 0.721508
0.981552 0.742626 0.805982
0.258442 0.348928 0.326436
0.279561 0.347707 0.328832
0.358557 0.366857 0.366033
0.408469 0.380377 0.386114
0.559884 0.457420 0.463630
0.767086 0.566751 0.586618
0.908370 0.672999 0.708232
0.975204 0.760357 0.801755
0.373999 0.545876 0.443244
0.391394 0.534386 0.442817
0.446387 0.515007 0.452201
0.505501 0.513161 0.461524
0.576852 0.521386 0.468345
0.753964 0.613687 0.574212
0.894698 0.713634 0.706447
0.966873 0.789120 0.801694
0.514534 0.722881 0.561853
0.527459 0.717037 0.564828
0.570581 0.695842 0.569848
0.623194 0.690517 0.573190
0.686275 0.688045 0.572274
0.765957 0.692989 0.580041
0.887022 0.755566 0.681773
0.959106 0.819242 0.794919
0.664576 0.844572 0.687053
0.673014 0.842100 0.689677
0.696223 0.836118 0.694957
0.729122 0.835355 0.694133
0.774624 0.832548 0.692699
0.829496 0.829618 0.692577
0.889830 0.828336 0.695705
0.955322 0.855543 0.774121
0.784772 0.924102 0.797971
0.788647 0.923278 0.798886
0.797772 0.922271 0.799313
0.813703 0.922866 0.796628
0.841321 0.921569 0.797070
0.875975 0.920485 0.798993
0.916503 0.920302 0.803510
0.959518 0.921965 0.812360
0.241825 0.225940 0.577829
0.282933 0.230823 0.563378
0.372091 0.243473 0.521813
0.446861 0.259037 0.470985
0.636408 0.334661 0.551202
0.814679 0.467231 0.650019
0.917983 0.621546 0.752194
0.971557 0.748394 0.839796
0.264271 0.267994 0.497566
0.288624 0.270207 0.493217
0.357839 0.275761 0.472969
0.426322 0.283833 0.443931
0.612162 0.355795 0.533806
0.801206 0.482841 0.645548
0.912902 0.631754 0.753842
0.969207 0.757397 0.843687
0.281895 0.312139 0.409415
0.297932 0.314962 0.405814
0.353307 0.330999 0.408560
0.412573 0.347845 0.420066
0.571832 0.416892 0.514275
0.762326 0.530861 0.639124
0.894942 0.665065 0.760662
0.961517 0.772335 0.846784
0.292470 0.360723 0.396643
0.308568 0.360464 0.394736
0.382498 0.383047 0.415335
0.540856 0.495598 0.541405
0.607904 0.525551 0.578897
0.739681 0.587640 0.651270
0.880385 0.690974 0.759289
0.958465 0.779034 0.839963
0.367910 0.503014 0.481636
0.388937 0.499107 0.481453
0.449332 0.492790 0.490837
0.556207 0.532708 0.556573
0.580209 0.527749 0.551720
0.719066 0.608301 0.635416
0.867292 0.711421 0.746883
0.953094 0.797681 0.835035
0.512535 0.688335 0.603571
0.526207 0.681865 0.604120
0.568673 0.665827 0.609888
0.631464 0.654215 0.630045
0.669978 0.653361 0.628443
0.733715 0.665202 0.639246
0.860334 0.745556 0.735821
0.944946 0.824445 0.833097
0.654170 0.828611 0.714199
0.661997 0.825269 0.715892
0.694789 0.811856 0.725063
0.735760 0.801160 0.736339
0.769436 0.803128 0.735912
0.815351 0.803723 0.737316
0.870955 0.809949 0.746655
0.942214 0.853727 0.818189
0.780499 0.914260 0.812055
0.785916 0.912505 0.814420
0.802838 0.907210 0.821912
0.829770 0.903471 0.833295
0.846647 0.907332 0.829755
0.876051 0.907500 0.830869
0.911818 0.909255 0.835554
0.951110 0.913832 0.844373
0.339757 0.308476 0.754437
0.373526 0.311711 0.748470
0.464195 0.324285 0.725612
0.573159 0.345678 0.700420
0.644953 0.353170 0.650507
0.800931 0.464790 0.713390
0.911177 0.617746 0.790997
0.968536 0.745235 0.859632
0.356603 0.343557 0.704646
0.377859 0.344717 0.700542
0.455421 0.351965 0.685603
0.551156 0.364782 0.664576
0.624140 0.370932 0.628611
0.790311 0.481132 0.706691
0.907210 0.629450 0.792203
0.966140 0.753155 0.861692
0.384283 0.406409 0.614359
0.401740 0.407446 0.610117
0.451240 0.412284 0.605158
0.525582 0.424247 0.603189
0.589166 0.429877 0.590509
0.758740 0.528466 0.689494
0.889113 0.658518 0.789090
0.957702 0.769162 0.863447
0.383734 0.447746 0.568505
0.394583 0.445884 0.561837
0.450904 0.451530 0.547768
0.543084 0.495079 0.580774
0.608331 0.522011 0.607050
0.737926 0.594247 0.691447
0.868147 0.699962 0.792172
0.946532 0.795712 0.869123
0.394690 0.505882 0.553994
0.407553 0.503792 0.551141
0.461875 0.498909 0.544549
0.570443 0.542397 0.594568
0.707439 0.646113 0.706966
0.750576 0.664271 0.727260
0.852262 0.730724 0.794827
0.938293 0.813809 0.869383
0.498055 0.657191 0.643015
0.516014 0.653162 0.642664
0.559686 0.641337 0.642283
0.634333 0.642893 0.663981
0.718410 0.676875 0.717723
0.737438 0.672847 0.713207
0.844038 0.748791 0.787167
0.934844 0.830182 0.864607
0.654612 0.809705 0.749645
0.662471 0.806622 0.750286
0.689464 0.797208 0.753704
0.736156 0.784237 0.764630
0.781292 0.780179 0.781949
0.808377 0.783261 0.781384
0.851972 0.792050 0.788861
0.929763 0.852171 0.856260
0.774105 0.906966 0.831678
0.779263 0.905135 0.832883
0.796796 0.899733 0.837949
0.827131 0.891859 0.848661
0.856428 0.887373 0.860182
0.875990 0.892348 0.859937
0.906279 0.896300 0.864057
0.942168 0.904784 0.874144
0.471107 0.414679 0.879561
0.490242 0.418067 0.876661
0.560052 0.430228 0.867735
0.654612 0.450401 0.852781
0.744091 0.470085 0.831891
0.810483 0.475563 0.800870
0.904204 0.606195 0.832166
0.962676 0.732219 0.877989
0.479561 0.440101 0.858412
0.498009 0.442557 0.856153
0.558404 0.450126 0.848432
0.647334 0.465690 0.835935
0.732921 0.480781 0.817273
0.795529 0.480278 0.785840
0.897337 0.611154 0.827176
0.960464 0.736065 0.877577
0.511452 0.508309 0.809354
0.525734 0.509026 0.807294
0.569223 0.511406 0.800229
0.639643 0.520333 0.794217
0.713451 0.530602 0.783581
0.771817 0.529366 0.762966
0.881209 0.642039 0.819638
0.953063 0.757229 0.879393
0.500526 0.547387 0.762326
0.515023 0.548135 0.756802
0.566812 0.555139 0.740765
0.630335 0.569299 0.741436
0.694835 0.584268 0.745617
0.751385 0.593683 0.746029
0.864164 0.688167 0.816251
0.943206 0.787259 0.882994
0.500664 0.600839 0.736370
0.509117 0.597818 0.731273
0.546227 0.589227 0.712383
0.606012 0.589014 0.696712
0.697154 0.634165 0.728328
0.751415 0.658167 0.749416
0.847349 0.727977 0.815259
0.931762 0.814801 0.885573
0.510231 0.666774 0.722759
0.519600 0.663661 0.719600
0.560815 0.651423 0.708110
0.623117 0.644862 0.704006
0.709789 0.671168 0.734234
0.815366 0.756100 0.815473
0.856306 0.784802 0.842100
0.924895 0.843778 0.893156
0.638819 0.796231 0.787015
0.649897 0.793179 0.786679
0.676936 0.785107 0.785687
0.722530 0.772808 0.786725
0.775921 0.770001 0.800305
0.835966 0.794202 0.836744
0.850507 0.794202 0.836637
0.922011 0.857527 0.890196
0.766430 0.895125 0.852216
0.770382 0.894057 0.852796
0.786801 0.889921 0.855741
0.817578 0.883284 0.862638
0.851911 0.877226 0.872801
0.884306 0.877470 0.887388
0.903761 0.884550 0.891249
0.934066 0.897734 0.902098
0.599359 0.526696 0.947433
0.611933 0.530297 0.946105
0.654551 0.540917 0.942886
0.722957 0.560067 0.936126
0.798062 0.585016 0.927977
0.862715 0.599741 0.916716
0.917556 0.619333 0.902144
0.960540 0.723674 0.907012
0.616053 0.552453 0.941421
0.624598 0.554406 0.940719
0.660197 0.557961 0.935851
0.724468 0.574411 0.930404
0.795087 0.593927 0.922561
0.857710 0.605829 0.910811
0.913970 0.626368 0.898772
0.958923 0.729213 0.906584
0.646998 0.611032 0.921630
0.655711 0.611673 0.920852
0.683223 0.613962 0.918105
0.735195 0.623697 0.913359
0.794522 0.634989 0.907561
0.851255 0.644053 0.898940
0.902373 0.656580 0.889693
0.953002 0.751629 0.906416
0.648859 0.651225 0.898680
0.657557 0.653361 0.897215
0.691463 0.660395 0.890333
0.738582 0.670848 0.887755
0.790158 0.681148 0.886198
0.840986 0.690303 0.882811
0.885313 0.693980 0.876249
0.944671 0.781277 0.906188
0.619089 0.682734 0.880598
0.625132 0.682567 0.878782
0.659709 0.684199 0.870390
0.720439 0.696651 0.860349
0.777340 0.712078 0.859861
0.826276 0.725811 0.863493
0.870115 0.738323 0.866682
0.932693 0.809216 0.903197
0.622995 0.746014 0.870451
0.629557 0.744274 0.868330
0.657710 0.738888 0.860197
0.700038 0.729900 0.847059
0.749996 0.726787 0.835081
0.823941 0.764141 0.852125
0.867323 0.788434 0.867765
0.925261 0.842451 0.906737
0.652934 0.823697 0.869490
0.660517 0.821683 0.868040
0.685405 0.812573 0.861799
0.725200 0.799054 0.852613
0.773465 0.787686 0.845457
0.827451 0.793530 0.852247
0.888808 0.841520 0.890166
0.926070 0.876967 0.918196
0.756008 0.898207 0.887205
0.762264 0.896498 0.887129
0.777707 0.892302 0.887038
0.807263 0.884733 0.887877
0.842680 0.875837 0.889952
0.878203 0.872725 0.897536
0.915404 0.887388 0.917739
0.934096 0.900603 0.929885
