content/luts/atmosphere/atmosphere_05.cube
#Created by: inPixio
#Copyright: (C) Copyright 2022 inPixio
TITLE "Atmosphere 5"
#LUT size
LUT_3D_SIZE 5
#data domain
#LUT data points
DOMAIN_MIN 0.000000 0.000000 0.000000
DOMAIN_MAX 0.903226 0.903226 0.903226
0.001556 0.001373 0.007630
0.076738 0.018174 0.022675
0.197360 0.036912 0.039094
0.364675 0.061219 0.062654
0.584955 0.106157 0.088853
0.029908 0.084031 0.027176
0.104509 0.095903 0.033692
0.241642 0.127489 0.056306
0.425773 0.163256 0.079789
0.637552 0.204242 0.108812
0.070817 0.222263 0.057389
0.158587 0.239170 0.063096
0.296758 0.265995 0.075151
0.499214 0.317784 0.106432
0.699596 0.372076 0.139712
0.142153 0.425177 0.096986
0.226535 0.444633 0.105669
0.379156 0.474968 0.117739
0.567300 0.515679 0.137301
0.758587 0.588464 0.185245
0.224064 0.659693 0.145968
0.302968 0.673945 0.155032
0.481102 0.709194 0.180835
0.678782 0.761944 0.229770
0.838712 0.817578 0.297963
0.017594 0.014862 0.080522
0.081483 0.019165 0.086061
0.207599 0.044358 0.111696
0.375341 0.064515 0.138170
0.600885 0.112413 0.177279
0.036118 0.090593 0.095216
0.127108 0.116304 0.117647
0.272755 0.149950 0.146716
0.466636 0.188602 0.179919
0.673335 0.231739 0.216693
0.098344 0.240559 0.136614
0.184100 0.267887 0.154711
0.332052 0.297719 0.173770
0.539468 0.350805 0.211566
0.731212 0.407263 0.253376
0.135744 0.438987 0.178882
0.252430 0.477791 0.201465
0.414527 0.512245 0.221775
0.604151 0.553903 0.250141
0.791165 0.631479 0.316518
0.237690 0.683803 0.247181
0.329641 0.702434 0.262806
0.525170 0.744656 0.306050
0.715358 0.796109 0.371115
0.866163 0.849012 0.456672
0.033082 0.027558 0.186877
0.102739 0.034501 0.195316
0.214511 0.045457 0.207645
0.393835 0.076616 0.246601
0.605768 0.107256 0.287099
0.063661 0.114046 0.211154
0.150805 0.137743 0.236393
0.285206 0.158038 0.255787
0.483864 0.198581 0.298589
0.689021 0.243702 0.345754
0.102831 0.248402 0.241001
0.200534 0.285069 0.272404
0.371435 0.333532 0.314031
0.582956 0.389014 0.362875
0.764523 0.448493 0.416556
0.185077 0.469123 0.309255
0.275166 0.505287 0.336812
0.456382 0.554559 0.376043
0.645243 0.597665 0.415992
0.826841 0.680308 0.510491
0.248859 0.692012 0.378424
0.360723 0.727657 0.419593
0.577234 0.786008 0.497200
0.758328 0.835554 0.577157
0.895033 0.882384 0.658351
0.057710 0.044907 0.329992
0.125917 0.051972 0.339666
0.247623 0.068009 0.356176
0.405860 0.081941 0.376455
0.619089 0.115435 0.427146
0.090257 0.138521 0.361608
0.175891 0.160449 0.389212
0.314885 0.179324 0.408911
0.497856 0.206439 0.439902
0.700435 0.252461 0.496651
0.124804 0.278584 0.395956
0.229389 0.316060 0.434379
0.404303 0.362905 0.481132
0.601419 0.405737 0.523171
0.778241 0.467002 0.581323
0.176410 0.474434 0.447883
0.284321 0.516197 0.485863
0.486564 0.582696 0.549905
0.689571 0.644953 0.613077
0.860456 0.726940 0.702113
0.248859 0.700954 0.533990
0.369711 0.738216 0.579477
0.614801 0.815396 0.679332
0.796658 0.870955 0.757504
0.920928 0.912047 0.817990
0.082292 0.061357 0.505638
0.152102 0.071595 0.518639
0.281972 0.088624 0.537850
0.450156 0.110002 0.559457
0.636942 0.128191 0.587243
0.116060 0.164920 0.545831
0.205371 0.187625 0.574060
0.352987 0.207645 0.594003
0.530449 0.227588 0.613504
0.711162 0.261677 0.648371
0.147463 0.310903 0.579995
0.263172 0.352606 0.619654
0.446342 0.401602 0.661753
0.625696 0.430289 0.683436
0.787183 0.479530 0.721843
0.224109 0.517571 0.632563
0.318334 0.554711 0.663066
0.523217 0.616617 0.714839
0.723537 0.682857 0.772763
0.876738 0.751980 0.835676
0.267277 0.713085 0.684215
0.398718 0.756527 0.730449
0.634028 0.832258 0.813504
0.818158 0.891295 0.880919
0.944015 0.938094 0.933791
