content/luts/atmosphere/atmosphere_07.cube
#Created by: inPixio
#Copyright: (C) Copyright 2022 inPixio
TITLE "Atmosphere 7"
#LUT size
LUT_3D_SIZE 8
#data domain
#LUT data points
DOMAIN_MIN 0.000000 0.000000 0.000000
DOMAIN_MAX 0.903226 0.903226 0.903226
0.000000 0.000000 0.000000
0.052949 0.000580 0.002548
0.115343 0.014267 0.003128
0.259068 0.000000 0.000198
0.484672 0.000000 0.000198
0.728801 0.000198 0.000000
0.924025 0.001953 0.000000
1.000000 0.216388 0.000000
0.013092 0.037324 0.012711
0.051652 0.045274 0.008408
0.119585 0.057389 0.002731
0.262944 0.015839 0.000397
0.489113 0.000198 0.000000
0.728481 0.000000 0.000000
0.913619 0.019547 0.000000
1.000000 0.258106 0.000198
0.019944 0.120150 0.044358
0.052461 0.116884 0.051316
0.117647 0.146853 0.019165
0.298360 0.172625 0.000198
0.547204 0.145296 0.000000
0.750530 0.132265 0.000000
0.939284 0.261067 0.000000
1.000000 0.360174 0.000000
0.000198 0.272068 0.075029
0.019165 0.268711 0.079667
0.108904 0.267887 0.099809
0.309361 0.362005 0.011246
0.600610 0.399222 0.000198
0.813550 0.415381 0.000198
0.960296 0.469490 0.000198
1.000000 0.519692 0.000198
0.000000 0.487022 0.139010
0.000000 0.484550 0.138170
0.136996 0.479789 0.166903
0.305226 0.494774 0.183719
0.565011 0.590906 0.018570
0.813993 0.642771 0.000000
0.956420 0.662852 0.000000
1.000000 0.677470 0.000000
0.002548 0.701366 0.234608
0.083330 0.700114 0.235126
0.220569 0.695811 0.251103
0.386709 0.677913 0.292943
0.545968 0.708858 0.267247
0.765301 0.780118 0.090913
0.949371 0.817578 0.000397
1.000000 0.814191 0.018967
0.281865 0.885191 0.382742
0.302480 0.883970 0.381628
0.393988 0.875853 0.390539
0.523888 0.862272 0.422797
0.640299 0.848524 0.460349
0.768795 0.875029 0.420096
0.916533 0.900588 0.327352
0.999176 0.901930 0.210773
0.568124 0.963928 0.599832
0.574426 0.963333 0.598917
0.616281 0.959274 0.608728
0.691951 0.950652 0.638819
0.770367 0.940704 0.683848
0.837385 0.936278 0.720638
0.908599 0.945739 0.673075
0.986343 0.949706 0.595270
0.006836 0.000000 0.044907
0.052461 0.000397 0.049165
0.113878 0.008606 0.048829
0.247227 0.000198 0.051972
0.474296 0.000000 0.011673
0.714321 0.000000 0.000000
0.898085 0.000580 0.000000
0.999268 0.201663 0.000000
0.012497 0.043244 0.051804
0.053117 0.050996 0.056931
0.117311 0.060639 0.058030
0.257481 0.020722 0.051316
0.480018 0.000000 0.010834
0.711437 0.000198 0.000000
0.899184 0.006653 0.000000
0.999466 0.237324 0.000198
0.017990 0.128420 0.074662
0.056458 0.131960 0.080766
0.124056 0.151644 0.070558
0.297108 0.170367 0.030488
0.531869 0.144396 0.001175
0.751858 0.140230 0.000198
0.919204 0.235493 0.000000
1.000000 0.359121 0.000000
0.000000 0.283879 0.113542
0.019547 0.282994 0.117907
0.118334 0.277241 0.132952
0.307240 0.353460 0.071473
0.581521 0.383749 0.000397
0.800320 0.403571 0.000198
0.949783 0.458732 0.000000
1.000000 0.511955 0.000198
0.000000 0.494118 0.177798
0.000778 0.493202 0.176822
0.145571 0.481300 0.190158
0.303029 0.484779 0.208866
0.550912 0.574991 0.075395
0.802594 0.629648 0.000000
0.950805 0.654917 0.000198
1.000000 0.673213 0.000198
0.031479 0.696727 0.260380
0.096284 0.695506 0.258518
0.217441 0.686931 0.264271
0.384649 0.671275 0.305333
0.547784 0.705501 0.294987
0.770855 0.784558 0.172793
0.948287 0.816587 0.001556
1.000000 0.812009 0.077470
0.296666 0.881560 0.408728
0.320394 0.879561 0.407431
0.393713 0.872374 0.404456
0.522408 0.860151 0.434516
0.639872 0.847089 0.472496
0.765148 0.871931 0.437049
0.913268 0.898680 0.348028
0.999146 0.901061 0.246601
0.567224 0.962127 0.608469
0.572580 0.961578 0.607172
0.614496 0.957809 0.614389
0.690852 0.950164 0.644953
0.770916 0.940551 0.690868
0.838773 0.935592 0.732052
0.908415 0.945327 0.686107
0.985077 0.949233 0.605280
0.003708 0.001953 0.125292
0.034104 0.004685 0.131289
0.117815 0.001373 0.149752
0.290074 0.000000 0.154910
0.482490 0.000198 0.137377
0.702342 0.000000 0.149203
0.895232 0.000000 0.142077
0.998978 0.194171 0.140673
0.002731 0.056779 0.133623
0.029908 0.058335 0.139437
0.121370 0.052293 0.155352
0.284230 0.000000 0.153079
0.479576 0.000000 0.147601
0.706096 0.000000 0.150927
0.893080 0.010834 0.139788
0.999222 0.234684 0.143420
0.000198 0.138232 0.155810
0.016220 0.145159 0.160388
0.123491 0.167376 0.174395
0.300710 0.176761 0.172900
0.529397 0.160708 0.170428
0.735287 0.148455 0.159152
0.909361 0.232487 0.146777
1.000000 0.361608 0.154833
0.000198 0.308949 0.197650
0.000198 0.313405 0.201511
0.144259 0.325399 0.221347
0.329198 0.361425 0.210819
0.596185 0.385458 0.187091
0.793652 0.400610 0.179324
0.935332 0.449287 0.166613
1.000000 0.519905 0.179431
0.000198 0.517952 0.256596
0.026383 0.519295 0.261677
0.187518 0.523415 0.282597
0.346838 0.516091 0.303700
0.572274 0.586313 0.246052
0.804410 0.628702 0.181766
0.948318 0.653254 0.194720
1.000000 0.677531 0.230137
0.055833 0.715541 0.338415
0.125048 0.715541 0.344244
0.270939 0.713680 0.356527
0.421683 0.697978 0.378073
0.568917 0.707637 0.389883
0.774487 0.785748 0.310994
0.945007 0.814954 0.234485
1.000000 0.813397 0.292439
0.303670 0.884688 0.466453
0.338277 0.883574 0.471016
0.428092 0.878752 0.479149
0.538781 0.867155 0.490974
0.653513 0.851133 0.530129
0.768521 0.870756 0.514595
0.911482 0.898619 0.444785
0.999298 0.901045 0.376089
0.570733 0.962539 0.649149
0.582956 0.961486 0.652689
0.629023 0.957397 0.660105
0.696651 0.950668 0.678569
0.775815 0.941421 0.720882
0.842252 0.934279 0.762203
0.907439 0.944289 0.730694
0.983612 0.949371 0.668589
0.000000 0.014069 0.264622
0.000198 0.016037 0.273213
0.100588 0.005081 0.298405
0.303029 0.000000 0.328222
0.572702 0.000198 0.342916
0.748821 0.000198 0.310201
0.890852 0.000000 0.284657
0.993423 0.157015 0.319387
0.000000 0.063798 0.276127
0.000000 0.065492 0.283284
0.104707 0.061646 0.305974
0.308446 0.000778 0.333898
0.572931 0.000000 0.343236
0.743053 0.000000 0.307958
0.886626 0.006455 0.292943
0.994324 0.210498 0.322408
0.000000 0.151965 0.283314
0.000397 0.157015 0.291463
0.102251 0.173541 0.318959
0.328496 0.172625 0.350927
0.570413 0.103487 0.345937
0.736400 0.105776 0.320104
0.895537 0.235493 0.330861
0.998245 0.349950 0.336049
0.000977 0.309667 0.330617
0.000778 0.316518 0.334691
0.098543 0.345083 0.352453
0.354788 0.385840 0.382254
0.577737 0.386145 0.371984
0.763165 0.399588 0.364035
0.914702 0.442435 0.357260
0.999847 0.515908 0.365225
0.001175 0.556787 0.399619
0.001175 0.558236 0.400305
0.144671 0.564431 0.406867
0.408637 0.568750 0.434913
0.595254 0.596323 0.421698
0.806592 0.631540 0.407355
0.941878 0.657038 0.415351
1.000000 0.684062 0.422049
0.000580 0.747128 0.453574
0.052781 0.748257 0.456230
0.264134 0.746365 0.468696
0.474357 0.743374 0.496864
0.605097 0.728145 0.514870
0.778668 0.787884 0.473365
0.938033 0.813901 0.447547
1.000000 0.814908 0.483833
0.271519 0.895613 0.554330
0.316716 0.894575 0.558648
0.428672 0.891203 0.572107
0.573526 0.883314 0.596277
0.679698 0.866758 0.618860
0.780301 0.871443 0.628245
0.907973 0.898940 0.575860
0.999512 0.899702 0.532143
0.554757 0.967224 0.701427
0.574975 0.965606 0.705776
0.631754 0.960739 0.720928
0.714626 0.952773 0.744472
0.784131 0.944015 0.767437
0.848432 0.935683 0.802182
0.905806 0.942336 0.790723
0.977981 0.948470 0.744320
0.000000 0.023270 0.436240
0.000000 0.018769 0.443290
0.070039 0.000000 0.466423
0.330724 0.000000 0.508080
0.571908 0.000000 0.543923
0.801083 0.000000 0.567269
0.934386 0.000000 0.538079
0.999603 0.000000 0.503487
0.000198 0.071870 0.444892
0.000397 0.070558 0.452003
0.048997 0.053269 0.474144
0.335073 0.007034 0.512230
0.573953 0.000000 0.545800
0.801144 0.000000 0.568566
0.932982 0.000000 0.537423
0.999847 0.017395 0.504341
0.000778 0.170428 0.457252
0.000778 0.172107 0.462776
0.075761 0.180835 0.484566
0.347585 0.190356 0.525948
0.586847 0.133776 0.558175
0.801511 0.063233 0.571756
0.925399 0.110094 0.533730
0.999069 0.249500 0.497032
0.000397 0.310231 0.465110
0.000778 0.315831 0.469352
0.067872 0.339437 0.488792
0.361364 0.380560 0.542886
0.612604 0.402152 0.587366
0.791913 0.386664 0.571160
0.906951 0.398413 0.523537
0.993179 0.477195 0.514260
0.001556 0.518502 0.529076
0.001373 0.524300 0.532677
0.095003 0.541817 0.543923
0.377676 0.573755 0.567727
0.609781 0.611719 0.598718
0.777279 0.613672 0.582818
0.909453 0.631052 0.567971
0.996750 0.667430 0.568063
0.001556 0.769696 0.613642
0.001556 0.771450 0.615091
0.167788 0.777935 0.621576
0.441596 0.776349 0.627817
0.641444 0.767529 0.646098
0.785123 0.793423 0.642329
0.926833 0.811658 0.640162
0.996902 0.816388 0.659297
0.144122 0.908782 0.674800
0.191699 0.908110 0.675456
0.364202 0.903777 0.679896
0.546426 0.896345 0.692760
0.698848 0.884718 0.716548
0.791959 0.874388 0.737209
0.904570 0.899367 0.714138
0.995270 0.899626 0.698436
0.509117 0.971450 0.764324
0.528710 0.970062 0.766415
0.587747 0.965713 0.773312
0.694652 0.957488 0.794766
0.790707 0.947570 0.819822
0.852506 0.938048 0.841032
0.906737 0.939391 0.848798
0.971878 0.947555 0.820813
0.000198 0.009583 0.633356
0.000000 0.002152 0.639155
0.037720 0.000000 0.656626
0.358114 0.000000 0.692012
0.611994 0.000000 0.737926
0.783612 0.000000 0.757183
0.937255 0.000000 0.774823
1.000000 0.004883 0.748135
0.000000 0.076371 0.633005
0.000977 0.071473 0.636652
0.056458 0.050340 0.654658
0.354681 0.000000 0.689464
0.607752 0.000000 0.734737
0.784451 0.000000 0.759335
0.937972 0.000000 0.777020
1.000000 0.043977 0.748867
0.000977 0.181109 0.643000
0.001175 0.183444 0.647791
0.053117 0.190051 0.666392
0.366964 0.190311 0.701732
0.617548 0.192783 0.745251
0.788006 0.139574 0.766308
0.936538 0.159091 0.778164
1.000000 0.280659 0.743740
0.001556 0.337530 0.635813
0.001373 0.340475 0.640574
0.058961 0.355215 0.670314
0.367147 0.374670 0.708858
0.621607 0.418494 0.755596
0.793179 0.422965 0.778119
0.933639 0.437614 0.782773
0.999374 0.477302 0.736049
0.000000 0.508629 0.663890
0.000000 0.511681 0.665751
0.082170 0.524132 0.673198
0.354421 0.545449 0.688685
0.594827 0.589853 0.743511
0.790234 0.629191 0.784894
0.915541 0.630030 0.767117
0.989914 0.636210 0.719493
0.003525 0.718471 0.721920
0.012711 0.722484 0.725261
0.124956 0.732219 0.733318
0.404013 0.749355 0.748974
0.610147 0.772442 0.770718
0.792340 0.807416 0.804486
0.899519 0.799390 0.785519
0.980835 0.807431 0.776623
0.038712 0.914229 0.808515
0.110903 0.914107 0.809125
0.276494 0.914519 0.812375
0.495369 0.912474 0.817426
0.674525 0.903243 0.820172
0.812802 0.890837 0.835676
0.901350 0.899092 0.836042
0.982574 0.900389 0.837446
0.433631 0.979645 0.848646
0.457633 0.978271 0.848661
0.533700 0.973587 0.849973
0.652415 0.964828 0.854673
0.767010 0.954330 0.866209
0.859083 0.943557 0.884138
0.911330 0.937881 0.897337
0.969253 0.945983 0.885390
0.000198 0.000580 0.833295
0.006455 0.001755 0.835279
0.151705 0.000000 0.845045
0.421546 0.000000 0.861875
0.639277 0.000000 0.882994
0.803830 0.000000 0.900939
0.919554 0.003708 0.906889
0.999146 0.034913 0.896941
0.000977 0.072908 0.826886
0.001755 0.059754 0.829557
0.146304 0.014862 0.838895
0.413413 0.000000 0.857069
0.632364 0.000000 0.878584
0.799390 0.004685 0.897444
0.916152 0.019944 0.904112
0.998901 0.112230 0.896254
0.000397 0.198718 0.830594
0.005280 0.198138 0.833356
0.107073 0.196017 0.841535
0.410941 0.189792 0.858412
0.630045 0.199313 0.878813
0.801724 0.246250 0.899214
0.914138 0.241596 0.904845
0.996887 0.321096 0.896712
0.000778 0.366354 0.829496
0.002350 0.364630 0.832166
0.076616 0.353506 0.839719
0.393301 0.367788 0.858259
0.622400 0.403342 0.879850
0.801541 0.468360 0.902571
0.914366 0.471901 0.910750
0.992233 0.514885 0.898405
0.001953 0.525429 0.808881
0.001755 0.525490 0.808667
0.121859 0.530114 0.817609
0.359228 0.539757 0.839933
0.584695 0.562799 0.869719
0.784817 0.633997 0.896330
0.904295 0.655711 0.906218
0.988174 0.682261 0.897322
0.000000 0.710430 0.840635
0.008209 0.710857 0.840940
0.141177 0.714534 0.843290
0.368246 0.718029 0.846571
0.551064 0.721019 0.849195
0.761135 0.772320 0.885741
0.900939 0.810437 0.909819
0.976318 0.814206 0.897490
0.073915 0.877073 0.878477
0.163195 0.877607 0.879362
0.282796 0.878752 0.881529
0.459190 0.879561 0.885329
0.629038 0.880903 0.891096
0.784146 0.887511 0.901366
0.905058 0.903258 0.920897
0.966415 0.894911 0.909285
0.378012 0.976425 0.917723
0.397223 0.975830 0.917815
0.471840 0.973755 0.918837
0.600061 0.968750 0.921264
0.733211 0.961105 0.924407
0.843412 0.951415 0.927916
0.920058 0.942336 0.936721
0.968872 0.944839 0.937728
0.123659 0.011872 0.954955
0.174502 0.019165 0.955581
0.329198 0.000000 0.958450
0.505379 0.000580 0.962524
0.671351 0.003525 0.968475
0.813077 0.114733 0.974441
0.915053 0.194263 0.978515
0.991165 0.197711 0.977981
0.110552 0.102937 0.954910
0.154391 0.097719 0.955520
0.319936 0.046555 0.956039
0.499901 0.032074 0.960784
0.665858 0.055528 0.966186
0.808362 0.157595 0.972015
0.913695 0.232578 0.977386
0.991516 0.242451 0.978286
0.091127 0.228702 0.952926
0.156756 0.227344 0.953445
0.303670 0.222736 0.954955
0.492363 0.223255 0.959732
0.660151 0.242893 0.964736
0.805219 0.316396 0.970886
0.910658 0.374777 0.975891
0.988388 0.378927 0.975860
0.001175 0.362280 0.949142
0.068421 0.362219 0.949508
0.245151 0.364324 0.950805
0.463920 0.379629 0.956481
0.647715 0.411093 0.962631
0.796811 0.473304 0.968292
0.906142 0.535943 0.973266
0.982925 0.539117 0.973053
0.029511 0.560601 0.937728
0.051972 0.560357 0.938445
0.246647 0.553185 0.941985
0.414389 0.537224 0.949508
0.606027 0.552377 0.956375
0.774289 0.608499 0.962158
0.897856 0.685725 0.968643
0.974975 0.694102 0.970794
0.026383 0.718761 0.933928
0.061646 0.717601 0.933562
0.184314 0.712779 0.932876
0.376104 0.705760 0.934310
0.561822 0.707363 0.941939
0.744366 0.736645 0.954727
0.891493 0.809247 0.965332
0.969238 0.830045 0.969696
0.206195 0.865293 0.947662
0.242893 0.864775 0.947677
0.339971 0.862440 0.947341
0.466774 0.859052 0.947097
0.602899 0.855345 0.946716
0.735485 0.855863 0.946761
0.882216 0.883619 0.960739
0.968277 0.902907 0.971603
0.431006 0.954116 0.962295
0.451835 0.953506 0.962295
0.499962 0.952056 0.962371
0.594125 0.949371 0.963104
0.704814 0.945083 0.963775
0.810651 0.941085 0.965118
0.900786 0.940429 0.968032
0.971099 0.945724 0.976577
