content/luts/atmosphere/atmosphere_01.cube
#Created by: inPixio
#Copyright: (C) Copyright 2022 inPixio
TITLE "Atmosphere 1"
#LUT size
LUT_3D_SIZE 5
#data domain
#LUT data points
DOMAIN_MIN 0.000000 0.000000 0.000000
DOMAIN_MAX 0.903226 0.903226 0.903226
0.135317 0.135317 0.135317
0.224369 0.135668 0.136400
0.426795 0.125689 0.134295
0.810376 0.016815 0.097932
0.985840 0.000198 0.074037
0.135027 0.226322 0.136172
0.223682 0.225101 0.136919
0.430335 0.235172 0.135744
0.813214 0.256001 0.076860
0.984039 0.220127 0.053773
0.072648 0.448295 0.119753
0.225986 0.452766 0.114992
0.462165 0.467994 0.096895
0.817289 0.536477 0.000000
0.977203 0.475959 0.003128
0.000000 0.826856 0.000000
0.187411 0.826764 0.000000
0.513130 0.822492 0.000198
0.801099 0.810620 0.000000
0.964889 0.719448 0.000000
0.000000 0.954971 0.000000
0.110002 0.952956 0.000000
0.423362 0.944015 0.000198
0.672908 0.928176 0.000000
0.895735 0.904936 0.000198
0.134737 0.134218 0.245502
0.227466 0.131594 0.247272
0.437232 0.076127 0.261463
0.824842 0.000000 0.236240
0.987503 0.000000 0.210254
0.127962 0.227680 0.247150
0.217136 0.220340 0.247578
0.442496 0.197711 0.245350
0.824750 0.081590 0.220737
0.985534 0.108537 0.205570
0.049683 0.452949 0.260227
0.162036 0.461524 0.234485
0.466499 0.472740 0.211704
0.825116 0.510842 0.191287
0.977722 0.451255 0.190097
0.000778 0.829603 0.242618
0.002930 0.833494 0.145159
0.477424 0.827710 0.081834
0.801434 0.812223 0.071077
0.964630 0.710994 0.134295
0.000198 0.956481 0.117144
0.079423 0.954528 0.102739
0.398673 0.945419 0.096391
0.666606 0.928695 0.106981
0.895384 0.904738 0.109453
0.114138 0.108812 0.546502
0.253452 0.078202 0.551202
0.496864 0.000000 0.561456
0.823713 0.000198 0.596964
0.978149 0.000000 0.500725
0.001556 0.208011 0.561807
0.176989 0.191074 0.564599
0.492302 0.107347 0.571298
0.829953 0.000000 0.588296
0.977600 0.000000 0.491539
0.001953 0.505058 0.574426
0.015244 0.497551 0.577966
0.422599 0.440879 0.579904
0.827665 0.442405 0.558297
0.957397 0.501656 0.548684
0.000580 0.833433 0.588815
0.000000 0.836164 0.578027
0.368124 0.834592 0.527215
0.796445 0.809613 0.525780
0.941772 0.730129 0.557488
0.000778 0.955322 0.475334
0.000580 0.954192 0.464775
0.402579 0.943038 0.472923
0.688014 0.923232 0.510628
0.893843 0.901640 0.519524
0.041230 0.000000 0.858717
0.235248 0.000000 0.859022
0.494972 0.000000 0.859922
0.762631 0.000000 0.860807
0.953994 0.000000 0.780469
0.000580 0.167849 0.861006
0.154971 0.148333 0.861173
0.469764 0.024048 0.861494
0.757168 0.000000 0.861585
0.953079 0.000000 0.776211
0.001755 0.454505 0.860105
0.002548 0.433677 0.861128
0.376593 0.391440 0.861784
0.745892 0.383108 0.859007
0.939422 0.473075 0.774701
0.001556 0.754650 0.851545
0.002152 0.751751 0.851850
0.389380 0.752834 0.850614
0.788907 0.794247 0.841703
0.901427 0.811429 0.830091
0.001175 0.952392 0.767330
0.029908 0.950088 0.763623
0.451301 0.935149 0.762264
0.787457 0.904448 0.814160
0.891920 0.895155 0.825757
0.050996 0.000198 0.936233
0.190417 0.000198 0.936080
0.405432 0.000000 0.935393
0.619043 0.000000 0.933974
0.843366 0.000000 0.931365
0.000977 0.156634 0.936065
0.132342 0.147402 0.935866
0.389563 0.100099 0.935088
0.613916 0.025223 0.933471
0.843732 0.016617 0.930587
0.000198 0.379736 0.933471
0.027756 0.374960 0.933349
0.367117 0.373068 0.932158
0.619043 0.390936 0.929229
0.850767 0.450080 0.924041
0.015061 0.619913 0.925887
0.139437 0.625101 0.925246
0.524041 0.684871 0.919326
0.765637 0.767330 0.910674
0.878828 0.789899 0.907668
0.089937 0.836729 0.914519
0.274861 0.840360 0.913573
0.590250 0.857740 0.909224
0.804837 0.880232 0.904097
0.892943 0.893278 0.901488
