content/luts/atmosphere/atmosphere_02.cube
#Created by: inPixio
#Copyright: (C) Copyright 2022 inPixio
TITLE "Atmosphere 2"
#LUT size
LUT_3D_SIZE 5
#data domain
#LUT data points
DOMAIN_MIN 0.000000 0.000000 0.000000
DOMAIN_MAX 0.903226 0.903226 0.903226
0.078325 0.078325 0.078325
0.314397 0.103304 0.049348
0.756451 0.205188 0.000000
0.932952 0.251362 0.000000
0.999435 0.261860 0.000000
0.034302 0.261067 0.016617
0.218708 0.211048 0.049165
0.702754 0.372580 0.000000
0.918395 0.367666 0.000000
0.996109 0.334829 0.000198
0.017594 0.586648 0.000198
0.259876 0.582727 0.000198
0.429709 0.406424 0.014664
0.835081 0.544411 0.000000
0.979797 0.512718 0.000198
0.000198 0.803952 0.000000
0.189487 0.800885 0.000000
0.499077 0.785367 0.000000
0.659739 0.618952 0.000000
0.913558 0.636622 0.000000
0.000000 0.925109 0.000000
0.085283 0.923217 0.000000
0.386801 0.914748 0.000198
0.653407 0.891585 0.000198
0.873655 0.821454 0.000000
0.117388 0.064942 0.228779
0.224109 0.071992 0.224445
0.709224 0.000000 0.261860
0.926513 0.327550 0.341115
0.992569 0.340047 0.278691
0.007034 0.239002 0.248478
0.244999 0.245029 0.245121
0.709911 0.340291 0.281865
0.914412 0.400717 0.308080
0.990021 0.381689 0.252567
0.000580 0.586526 0.228443
0.183398 0.582422 0.176410
0.450721 0.430915 0.151385
0.854887 0.565042 0.166735
0.977264 0.519265 0.132494
0.000397 0.805310 0.075395
0.097932 0.802350 0.030488
0.483513 0.789868 0.002930
0.671397 0.630243 0.000198
0.921264 0.641779 0.000000
0.000000 0.926711 0.000000
0.037125 0.924544 0.000198
0.365911 0.915923 0.000397
0.648096 0.893187 0.000000
0.874495 0.820005 0.000198
0.177737 0.000000 0.396445
0.232166 0.000000 0.392538
0.400763 0.000000 0.400626
0.758465 0.002350 0.485069
0.956207 0.466255 0.582757
0.140383 0.143557 0.428718
0.232044 0.153597 0.428428
0.427665 0.151446 0.427787
0.800763 0.278584 0.522530
0.943099 0.605692 0.657664
0.003128 0.501579 0.524681
0.089616 0.508232 0.528801
0.536721 0.536706 0.536706
0.843519 0.685176 0.668055
0.929213 0.713542 0.691173
0.000198 0.804013 0.493355
0.146578 0.800473 0.489662
0.500343 0.781659 0.501030
0.677241 0.647913 0.353460
0.920592 0.717403 0.509484
0.000000 0.925231 0.374716
0.000000 0.922927 0.377173
0.416281 0.910887 0.414420
0.648768 0.896132 0.368475
0.875135 0.825376 0.194415
0.257160 0.000000 0.610208
0.294362 0.000000 0.606043
0.399390 0.000000 0.588846
0.603006 0.000198 0.602808
0.851026 0.069780 0.635264
0.230137 0.023453 0.620615
0.274861 0.008408 0.616510
0.396796 0.000198 0.599466
0.610498 0.000198 0.610437
0.856397 0.192569 0.639429
0.004105 0.246052 0.654978
0.014466 0.240879 0.650904
0.390082 0.302785 0.646387
0.640406 0.322774 0.641199
0.888350 0.557595 0.706401
0.002152 0.697643 0.730983
0.002350 0.699535 0.730724
0.429267 0.710826 0.731563
0.740337 0.740292 0.740337
0.895964 0.834806 0.828489
0.003525 0.921965 0.663676
0.123903 0.918349 0.666758
0.479744 0.903136 0.688014
0.722026 0.883314 0.722423
0.853376 0.823789 0.589090
0.352529 0.000198 0.857328
0.380880 0.000000 0.856550
0.479973 0.000000 0.853101
0.620386 0.000198 0.846433
0.843687 0.000000 0.843671
0.324315 0.000000 0.857908
0.357855 0.000000 0.857054
0.466148 0.000198 0.853727
0.614557 0.000000 0.847120
0.843610 0.000198 0.843809
0.139635 0.171481 0.861280
0.235660 0.187930 0.860380
0.409644 0.169863 0.856657
0.591760 0.037720 0.849806
0.842435 0.167437 0.843031
0.004105 0.469429 0.869459
0.004883 0.461463 0.868895
0.159884 0.428504 0.864439
0.586465 0.509178 0.850385
0.835981 0.558297 0.837888
0.001175 0.830823 0.870390
0.000580 0.832151 0.869871
0.352575 0.837949 0.867582
0.669764 0.846845 0.863188
0.862394 0.862425 0.862440
