content/luts/atmosphere/atmosphere_05.cube
#Created by: inPixio
#Copyright: (C) Copyright 2022 inPixio
TITLE "Atmosphere 5"
#LUT size
LUT_3D_SIZE 32
#data domain
DOMAIN_MIN 0.0 0.0 0.0
DOMAIN_MAX 1.0 1.0 1.0
#LUT data points
0.001556 0.001373 0.007630
0.009583 0.003326 0.008988
0.017990 0.005478 0.010636
0.028153 0.008209 0.012909
0.039094 0.009796 0.015061
0.050660 0.011246 0.017395
0.062654 0.013687 0.019348
0.076738 0.018174 0.022675
0.090364 0.018174 0.024826
0.106432 0.022675 0.027375
0.123247 0.025803 0.030106
0.138872 0.026383 0.031678
0.159152 0.032883 0.033890
0.176700 0.033494 0.035309
0.197360 0.036912 0.039094
0.221134 0.045457 0.043793
0.239002 0.041779 0.045823
0.265385 0.050660 0.048829
0.288487 0.053269 0.050172
0.311177 0.052461 0.052461
0.344579 0.067445 0.060197
0.364675 0.061219 0.062654
0.395621 0.069123 0.065766
0.426902 0.077592 0.068009
0.448814 0.070298 0.067582
0.490486 0.088624 0.076493
0.516411 0.085496 0.080888
0.546288 0.088075 0.084489
0.584955 0.106157 0.088853
0.602274 0.091783 0.086961
0.637751 0.110094 0.094041
0.656809 0.112505 0.099321
0.006836 0.010208 0.010636
0.012909 0.011048 0.011673
0.020722 0.012711 0.013291
0.031083 0.015244 0.015442
0.041779 0.017594 0.017395
0.053925 0.019944 0.019944
0.066743 0.021897 0.022278
0.079789 0.024430 0.024247
0.094789 0.027955 0.026581
0.110185 0.029908 0.029129
0.126558 0.032486 0.031281
0.143420 0.035508 0.032685
0.161975 0.038315 0.034501
0.181109 0.041779 0.037522
0.201999 0.045457 0.041596
0.224018 0.049683 0.045640
0.244251 0.051652 0.046921
0.268818 0.056153 0.048997
0.291585 0.058183 0.050660
0.317220 0.062654 0.055070
0.348592 0.073167 0.062226
0.369665 0.069642 0.063951
0.399588 0.075151 0.066056
0.430228 0.082292 0.068284
0.455482 0.080888 0.070298
0.495155 0.094682 0.078813
0.519905 0.090593 0.082643
0.550500 0.095109 0.085161
0.588083 0.111254 0.089067
0.607080 0.101473 0.088411
0.641688 0.116640 0.096483
0.659510 0.117739 0.101183
0.008209 0.018967 0.013092
0.015061 0.020325 0.014267
0.023270 0.021698 0.015839
0.033692 0.023850 0.017594
0.044358 0.026581 0.019547
0.056779 0.029129 0.021500
0.070039 0.031678 0.024048
0.083803 0.034302 0.026383
0.098833 0.037125 0.028733
0.114138 0.039292 0.030304
0.130831 0.042329 0.031876
0.148135 0.045457 0.033494
0.166552 0.048142 0.036713
0.187137 0.052293 0.040467
0.207645 0.055375 0.044358
0.229267 0.059129 0.047105
0.250019 0.062226 0.048310
0.274144 0.065766 0.050340
0.298497 0.069505 0.053605
0.324056 0.073411 0.058335
0.352911 0.078935 0.064515
0.376455 0.080400 0.065080
0.406012 0.085389 0.067170
0.434913 0.089174 0.069505
0.463264 0.092287 0.073548
0.500374 0.101274 0.081483
0.526482 0.101381 0.084138
0.557305 0.106432 0.086397
0.591745 0.116716 0.089937
0.613001 0.113039 0.089937
0.646098 0.123980 0.099321
0.662486 0.123568 0.103212
0.013092 0.030304 0.016220
0.019165 0.031281 0.017197
0.026200 0.032486 0.018174
0.036515 0.034104 0.019348
0.047623 0.036316 0.020920
0.059754 0.039094 0.023072
0.073548 0.041962 0.025025
0.087404 0.044907 0.026978
0.102342 0.047791 0.028733
0.118425 0.050660 0.030884
0.135454 0.053925 0.033082
0.153735 0.057389 0.036515
0.172625 0.060777 0.040269
0.193240 0.064652 0.043793
0.213748 0.067872 0.045823
0.234928 0.070954 0.047791
0.257878 0.075273 0.050172
0.281025 0.078202 0.052781
0.307332 0.083330 0.057862
0.333425 0.087297 0.062806
0.359350 0.091020 0.065354
0.385794 0.094682 0.066743
0.415213 0.099321 0.069642
0.445274 0.104143 0.073045
0.474128 0.107347 0.077958
0.509606 0.114382 0.085283
0.536233 0.116640 0.085954
0.566903 0.121447 0.088304
0.598337 0.127733 0.091981
0.622034 0.128954 0.094469
0.654383 0.137881 0.103395
0.670543 0.139086 0.105577
0.014862 0.041596 0.017792
0.022095 0.042695 0.018372
0.030686 0.043793 0.019348
0.039689 0.045640 0.020325
0.050828 0.047440 0.021897
0.063233 0.049683 0.023453
0.076616 0.052949 0.025406
0.091356 0.056001 0.027955
0.106706 0.059602 0.030488
0.123415 0.062943 0.033494
0.141100 0.066743 0.036912
0.159640 0.070298 0.039490
0.178668 0.073915 0.042145
0.198581 0.077470 0.044160
0.219944 0.081361 0.047105
0.242069 0.085054 0.049683
0.265126 0.089067 0.052781
0.290044 0.093828 0.057557
0.315969 0.098238 0.061936
0.342077 0.102739 0.064088
0.367453 0.105867 0.066056
0.396414 0.111086 0.069642
0.424308 0.114733 0.071870
0.455573 0.119997 0.077592
0.488182 0.125917 0.083909
0.517784 0.129595 0.086275
0.548882 0.135454 0.088411
0.579049 0.139849 0.092088
0.606867 0.144259 0.094148
0.633921 0.148333 0.100389
0.664805 0.156252 0.108171
0.681727 0.159335 0.108904
0.020920 0.054582 0.020722
0.025605 0.055375 0.021302
0.032883 0.056611 0.022278
0.043427 0.058030 0.023072
0.054414 0.059907 0.024247
0.067170 0.062226 0.026200
0.080522 0.065080 0.028351
0.095506 0.068711 0.030686
0.111696 0.072389 0.032883
0.128344 0.075883 0.035508
0.146044 0.079545 0.038315
0.164859 0.083574 0.041047
0.184543 0.087510 0.043793
0.204669 0.091463 0.046006
0.226535 0.095598 0.048829
0.249653 0.100099 0.053269
0.273808 0.104707 0.057389
0.297841 0.109087 0.060197
0.323415 0.113542 0.062654
0.350011 0.117998 0.066056
0.377462 0.122759 0.068986
0.404624 0.126711 0.071336
0.436103 0.132723 0.077348
0.466941 0.137881 0.082170
0.497627 0.142794 0.085161
0.528176 0.147189 0.088304
0.559686 0.153140 0.092195
0.588251 0.158038 0.094255
0.617090 0.162951 0.099611
0.647669 0.170550 0.107256
0.672557 0.174624 0.109911
0.691051 0.179156 0.112413
0.026978 0.069245 0.025025
0.032074 0.070298 0.025605
0.038712 0.071336 0.026200
0.048478 0.072648 0.026978
0.059754 0.073915 0.027756
0.071733 0.075639 0.029129
0.085496 0.078691 0.030884
0.100099 0.081834 0.033082
0.116396 0.085618 0.035111
0.133547 0.089723 0.037522
0.151064 0.093614 0.039689
0.170321 0.097719 0.042329
0.190768 0.101961 0.045823
0.211978 0.106523 0.049683
0.233875 0.111162 0.052461
0.257054 0.115709 0.055375
0.281148 0.120317 0.059129
0.306203 0.125200 0.062806
0.331792 0.129748 0.065492
0.358450 0.134585 0.067582
0.386297 0.139437 0.071733
0.416053 0.145083 0.077104
0.445762 0.150286 0.080400
0.476997 0.155810 0.083909
0.508400 0.161029 0.088746
0.539635 0.166369 0.091676
0.568490 0.171008 0.093400
0.598932 0.177401 0.099519
0.628214 0.183505 0.105089
0.655406 0.189334 0.108995
0.682506 0.195758 0.114138
0.700084 0.199420 0.116884
0.029908 0.084031 0.027176
0.035111 0.084718 0.027756
0.043244 0.085832 0.028153
0.053773 0.087510 0.028931
0.064805 0.089067 0.029328
0.076738 0.090364 0.030106
0.089494 0.092393 0.031083
0.104509 0.095903 0.033692
0.120714 0.099702 0.036316
0.138521 0.104051 0.039292
0.157275 0.108721 0.041962
0.176532 0.113375 0.045640
0.197513 0.118074 0.048997
0.219196 0.122606 0.052461
0.241642 0.127489 0.056306
0.264805 0.132113 0.058961
0.288823 0.136919 0.061067
0.313542 0.141451 0.063233
0.339834 0.146716 0.067170
0.367880 0.152163 0.071870
0.396368 0.157778 0.075273
0.425773 0.163256 0.079789
0.456657 0.169207 0.084825
0.487694 0.174563 0.088197
0.518502 0.180026 0.090364
0.548470 0.184863 0.092485
0.580011 0.191486 0.099031
0.608881 0.197650 0.103487
0.637552 0.204242 0.108812
0.665644 0.210636 0.114900
0.691447 0.216342 0.117556
0.708736 0.220035 0.117907
0.034501 0.100389 0.031281
0.039887 0.101274 0.031678
0.047791 0.102541 0.032074
0.058030 0.104051 0.033295
0.070954 0.106157 0.034501
0.083330 0.108080 0.035706
0.096391 0.109819 0.036713
0.110460 0.111971 0.038315
0.127108 0.116060 0.041047
0.144884 0.120470 0.044160
0.163867 0.124880 0.046372
0.183566 0.129671 0.048829
0.203662 0.134142 0.050828
0.225589 0.138949 0.053117
0.247700 0.143496 0.055375
0.271046 0.148455 0.058335
0.296376 0.153933 0.062516
0.322576 0.159823 0.066743
0.349569 0.165515 0.071733
0.378088 0.171588 0.076738
0.407370 0.177218 0.081239
0.436439 0.182574 0.083680
0.465492 0.187671 0.085283
0.496391 0.193240 0.087510
0.528054 0.199222 0.092287
0.559411 0.205951 0.097200
0.590265 0.212558 0.103777
0.619928 0.219715 0.110185
0.647898 0.225849 0.114824
0.673793 0.231571 0.116060
0.698421 0.236637 0.116884
0.717510 0.241917 0.121614
0.044358 0.118257 0.035309
0.050019 0.119265 0.035706
0.055222 0.120317 0.036118
0.064652 0.121691 0.036713
0.076371 0.123491 0.037324
0.089387 0.125368 0.037919
0.102937 0.127337 0.038315
0.116564 0.129107 0.039094
0.131518 0.131212 0.039689
0.149065 0.135393 0.041596
0.168032 0.139925 0.043610
0.188403 0.145373 0.047440
0.210117 0.151064 0.051652
0.232654 0.156573 0.056153
0.256550 0.162585 0.060639
0.280888 0.168093 0.065080
0.306523 0.173999 0.069902
0.333013 0.179645 0.073793
0.359426 0.185031 0.075761
0.386191 0.190097 0.077348
0.414786 0.195605 0.079301
0.443900 0.200778 0.081132
0.475227 0.207233 0.086061
0.507775 0.214298 0.092699
0.540078 0.221653 0.099321
0.571466 0.228397 0.105669
0.601556 0.235050 0.110369
0.628336 0.240284 0.111086
0.654856 0.246479 0.112673
0.680674 0.252201 0.114824
0.707073 0.259800 0.121370
0.728679 0.266590 0.129274
0.050340 0.136172 0.037522
0.054902 0.136996 0.038117
0.060060 0.137804 0.038712
0.070558 0.140154 0.039689
0.083803 0.142718 0.041230
0.095995 0.144671 0.042145
0.110277 0.146914 0.043427
0.125200 0.149279 0.045090
0.140383 0.151782 0.046738
0.157076 0.154833 0.048829
0.176593 0.159701 0.052461
0.197513 0.165332 0.056306
0.219150 0.170657 0.059129
0.241199 0.176120 0.061936
0.264408 0.181445 0.064088
0.288685 0.186923 0.066468
0.313283 0.192218 0.068711
0.339132 0.197604 0.070558
0.365881 0.202838 0.072389
0.394766 0.209659 0.077226
0.424872 0.216571 0.083680
0.456687 0.223804 0.089937
0.488685 0.230610 0.096193
0.521416 0.237598 0.102251
0.550958 0.243519 0.103960
0.579828 0.249531 0.105287
0.607813 0.254978 0.106340
0.635325 0.260746 0.107347
0.663371 0.268925 0.115435
0.690883 0.277485 0.123980
0.717159 0.285237 0.132342
0.740902 0.292714 0.139712
0.050660 0.155489 0.043427
0.057862 0.157015 0.044160
0.065629 0.158587 0.044907
0.076249 0.160388 0.045457
0.089067 0.162829 0.046555
0.104143 0.165332 0.047440
0.117998 0.167559 0.048310
0.132723 0.169741 0.049165
0.148592 0.172335 0.049851
0.164859 0.174960 0.050828
0.182635 0.178119 0.051972
0.202930 0.182956 0.054749
0.224674 0.188663 0.057557
0.247425 0.194263 0.060487
0.270848 0.200000 0.063233
0.296071 0.206394 0.067735
0.322667 0.213016 0.072648
0.349569 0.219547 0.077348
0.378470 0.226535 0.083101
0.407965 0.233249 0.088746
0.437324 0.239765 0.092195
0.467323 0.245853 0.094575
0.497993 0.252171 0.096590
0.528267 0.258000 0.098543
0.558480 0.264042 0.100389
0.587884 0.270939 0.104418
0.617853 0.279194 0.112062
0.647044 0.287068 0.119661
0.675319 0.295491 0.128191
0.701045 0.302815 0.133318
0.725200 0.309636 0.135027
0.745724 0.314931 0.135668
0.064225 0.177737 0.046555
0.068574 0.178500 0.046738
0.074281 0.179751 0.047272
0.083223 0.181384 0.048142
0.095705 0.183398 0.048829
0.109911 0.185885 0.049683
0.125200 0.188602 0.050507
0.140826 0.191287 0.051804
0.156695 0.193912 0.053437
0.173816 0.196872 0.055375
0.191699 0.200198 0.057237
0.211612 0.204486 0.060197
0.233295 0.209842 0.063951
0.257008 0.216342 0.068421
0.281529 0.222614 0.072251
0.306264 0.228977 0.075273
0.332448 0.235294 0.078325
0.359274 0.241550 0.081361
0.386801 0.247791 0.084138
0.415900 0.254231 0.087175
0.445747 0.260807 0.091020
0.476021 0.267353 0.094041
0.507134 0.274174 0.097414
0.539254 0.282109 0.103777
0.570596 0.289632 0.110094
0.601267 0.297749 0.117647
0.629770 0.305257 0.123003
0.656840 0.312459 0.125841
0.682734 0.319280 0.128344
0.707027 0.325841 0.129671
0.731334 0.332982 0.133471
0.750958 0.339376 0.136919
0.075029 0.200595 0.052628
0.079667 0.201556 0.052949
0.085054 0.202640 0.053437
0.092088 0.204196 0.054093
0.104891 0.206912 0.055222
0.119097 0.209659 0.056153
0.133547 0.212161 0.057237
0.149554 0.214878 0.058488
0.166430 0.217807 0.059281
0.182849 0.220478 0.060639
0.201267 0.223423 0.062089
0.220478 0.227344 0.064225
0.241795 0.231952 0.066743
0.264591 0.237644 0.070039
0.289448 0.244175 0.074037
0.314916 0.250706 0.077470
0.340810 0.257084 0.080278
0.367987 0.263600 0.083101
0.395895 0.270100 0.085725
0.425620 0.277485 0.091020
0.456809 0.285039 0.096681
0.488411 0.292561 0.102449
0.520638 0.300313 0.107897
0.551019 0.307530 0.111620
0.580942 0.314763 0.114900
0.609720 0.321859 0.118166
0.637614 0.329397 0.122438
0.664714 0.336919 0.127108
0.690288 0.344167 0.129824
0.715480 0.352010 0.135103
0.740337 0.361090 0.143496
0.757626 0.367315 0.150012
0.070817 0.222263 0.057389
0.078202 0.223590 0.057862
0.086275 0.225010 0.058335
0.097093 0.227207 0.059129
0.110277 0.229923 0.060197
0.126391 0.233417 0.061357
0.143069 0.236606 0.062379
0.158587 0.239170 0.063096
0.175082 0.241947 0.063951
0.193042 0.244923 0.064805
0.210590 0.247623 0.065492
0.229389 0.250477 0.066194
0.249500 0.254353 0.067735
0.272541 0.259831 0.071214
0.296758 0.265995 0.075151
0.323110 0.273182 0.079789
0.350271 0.280461 0.084489
0.378119 0.287709 0.088624
0.407034 0.295110 0.092592
0.436576 0.302480 0.096483
0.467552 0.310140 0.101473
0.499214 0.317784 0.106432
0.531045 0.325536 0.111696
0.561746 0.333059 0.116136
0.590448 0.340078 0.118608
0.618509 0.347219 0.121050
0.646082 0.354833 0.125292
0.673304 0.363546 0.132494
0.699596 0.372076 0.139712
0.725032 0.380652 0.145159
0.748379 0.388800 0.149615
0.764370 0.394431 0.152224
0.090700 0.248325 0.058961
0.093202 0.248936 0.059129
0.096193 0.249653 0.059602
0.105196 0.251667 0.060487
0.117998 0.254002 0.061509
0.132647 0.256901 0.062654
0.149203 0.260273 0.064378
0.167208 0.264103 0.065904
0.184482 0.267353 0.067872
0.202243 0.270741 0.069902
0.221729 0.274281 0.071870
0.240711 0.277623 0.074037
0.261097 0.281148 0.076127
0.283223 0.285924 0.079179
0.307775 0.292088 0.082872
0.333547 0.298970 0.087510
0.361410 0.306416 0.091981
0.389654 0.313985 0.096681
0.418097 0.320882 0.099123
0.447517 0.328039 0.101961
0.477348 0.335027 0.104326
0.508217 0.342184 0.106981
0.538766 0.349447 0.110185
0.569604 0.357565 0.115877
0.599252 0.365881 0.121950
0.627756 0.374426 0.127260
0.655695 0.382971 0.132570
0.682536 0.391882 0.139147
0.708202 0.400732 0.145831
0.733318 0.409583 0.152682
0.756420 0.417441 0.156390
0.771283 0.422248 0.156634
0.104051 0.277211 0.071214
0.108812 0.278218 0.071595
0.113970 0.279408 0.072129
0.121447 0.281056 0.072648
0.130907 0.283253 0.073548
0.145235 0.286442 0.074403
0.160769 0.289159 0.075273
0.177676 0.292271 0.076249
0.195453 0.295674 0.076982
0.213748 0.298833 0.077836
0.232364 0.301839 0.078447
0.251896 0.305104 0.079301
0.271717 0.308171 0.079789
0.292470 0.311284 0.080644
0.315023 0.315557 0.081941
0.340291 0.321721 0.084260
0.366674 0.328359 0.086839
0.394965 0.335760 0.090364
0.424476 0.343633 0.095216
0.455131 0.351980 0.100298
0.486778 0.360617 0.106157
0.519112 0.369329 0.112673
0.550530 0.378241 0.119188
0.581247 0.386984 0.125765
0.611383 0.396002 0.132647
0.639353 0.404761 0.139147
0.665644 0.412497 0.142077
0.690852 0.419944 0.144045
0.714733 0.427512 0.146105
0.737942 0.435081 0.148394
0.760418 0.443336 0.153735
0.778958 0.451026 0.160006
0.090700 0.296040 0.062806
0.098238 0.297414 0.063371
0.106615 0.298970 0.064088
0.117739 0.301259 0.064805
0.131823 0.304341 0.066056
0.148257 0.308232 0.067445
0.166735 0.312993 0.069505
0.184588 0.316762 0.071595
0.202304 0.320302 0.073548
0.221225 0.324254 0.075761
0.241352 0.328344 0.078202
0.261326 0.332158 0.080644
0.282673 0.336263 0.083330
0.304372 0.340368 0.086275
0.327047 0.344610 0.089281
0.351705 0.350027 0.093095
0.379461 0.357717 0.098344
0.408393 0.365927 0.103868
0.438880 0.374365 0.109728
0.469947 0.383108 0.115709
0.500465 0.390692 0.118776
0.530892 0.398413 0.121126
0.560357 0.405844 0.123415
0.588922 0.413367 0.125521
0.616663 0.420859 0.127886
0.643610 0.428550 0.130144
0.669673 0.436652 0.133928
0.695872 0.446052 0.140520
0.721721 0.456169 0.149279
0.746044 0.466255 0.158221
0.769680 0.476463 0.167025
0.790982 0.486061 0.175738
0.118334 0.332845 0.081361
0.121050 0.333654 0.081712
0.124544 0.334524 0.082170
0.130907 0.336111 0.082994
0.144747 0.338796 0.084260
0.160891 0.342123 0.085954
0.178454 0.345831 0.087739
0.197116 0.349950 0.089281
0.216877 0.354223 0.090806
0.235782 0.357595 0.091890
0.255177 0.361227 0.093095
0.275837 0.364981 0.094255
0.296513 0.368429 0.095109
0.317952 0.372076 0.095995
0.340414 0.375677 0.096788
0.363272 0.379446 0.097826
0.387884 0.383917 0.098833
0.415747 0.391119 0.101473
0.444648 0.398520 0.103868
0.474556 0.406027 0.106157
0.505379 0.413886 0.108995
0.535805 0.422293 0.113207
0.566980 0.431846 0.120150
0.596964 0.441291 0.127489
0.626001 0.451286 0.135454
0.654337 0.461036 0.143557
0.681590 0.471092 0.151965
0.707332 0.480964 0.160189
0.731945 0.490211 0.165698
0.754177 0.498024 0.168032
0.776272 0.506981 0.170199
0.792233 0.512688 0.170489
0.131746 0.361456 0.081361
0.136400 0.362600 0.081834
0.142016 0.363897 0.082292
0.149691 0.365759 0.082994
0.159396 0.368200 0.084138
0.171527 0.371496 0.085283
0.187518 0.374670 0.086503
0.205097 0.378073 0.087968
0.224201 0.381964 0.089387
0.244373 0.386236 0.090806
0.264271 0.389807 0.091981
0.284718 0.393454 0.093004
0.306203 0.397467 0.094362
0.328115 0.401175 0.095705
0.351080 0.405493 0.098238
0.375280 0.410086 0.101274
0.399909 0.414847 0.104326
0.426581 0.420508 0.108263
0.456581 0.429038 0.113878
0.488197 0.438453 0.120241
0.519509 0.447517 0.126558
0.551614 0.457160 0.133547
0.580667 0.466011 0.138445
0.609384 0.474693 0.142077
0.636347 0.483101 0.145510
0.662425 0.491371 0.148333
0.687739 0.499565 0.151446
0.712001 0.508003 0.153597
0.734920 0.515755 0.155810
0.757961 0.524575 0.159823
0.782284 0.536858 0.168917
0.799985 0.546914 0.178988
0.118608 0.387152 0.086961
0.124804 0.388556 0.087633
0.133394 0.390494 0.088518
0.144945 0.393256 0.090043
0.159640 0.396658 0.091676
0.176883 0.400961 0.093614
0.196628 0.406134 0.095903
0.217670 0.411811 0.098543
0.236881 0.415564 0.100496
0.256596 0.419684 0.102937
0.277455 0.424079 0.104891
0.298940 0.428336 0.106523
0.320699 0.432395 0.108263
0.343130 0.436774 0.110094
0.366507 0.440864 0.111696
0.390005 0.445106 0.113542
0.414847 0.449378 0.114824
0.440208 0.454170 0.116884
0.466987 0.459129 0.118425
0.497231 0.467506 0.122271
0.528145 0.476356 0.126711
0.558526 0.485328 0.131746
0.587991 0.494362 0.136477
0.615778 0.502983 0.140383
0.642908 0.511437 0.143694
0.668711 0.519875 0.147936
0.695537 0.530572 0.156390
0.721584 0.541054 0.164508
0.747326 0.553338 0.175250
0.771862 0.565255 0.185672
0.797192 0.578882 0.196826
0.812650 0.586984 0.201709
0.142153 0.425177 0.096986
0.145434 0.426032 0.097414
0.149004 0.427054 0.097932
0.157397 0.429038 0.098741
0.171710 0.432364 0.100191
0.187930 0.435950 0.101762
0.206348 0.439948 0.103578
0.226535 0.444633 0.105669
0.248219 0.449821 0.108171
0.268711 0.454337 0.110369
0.289632 0.458427 0.112230
0.311513 0.462821 0.114305
0.333654 0.467063 0.115618
0.356100 0.470863 0.116564
0.379156 0.474968 0.117739
0.403082 0.478965 0.118776
0.427268 0.482780 0.119341
0.452628 0.487022 0.120638
0.478737 0.491630 0.121859
0.506691 0.497597 0.125612
0.537102 0.506188 0.130907
0.567300 0.515679 0.137301
0.596429 0.524971 0.143908
0.625177 0.534585 0.150668
0.652796 0.544396 0.157519
0.680095 0.554040 0.163439
0.706905 0.565438 0.170657
0.733257 0.576974 0.177966
0.758587 0.588464 0.185245
0.782818 0.600809 0.194019
0.806271 0.613291 0.203525
0.827283 0.625162 0.212207
0.158846 0.457084 0.096788
0.163928 0.458427 0.097414
0.169741 0.459831 0.098131
0.177630 0.461936 0.098924
0.187991 0.464714 0.100191
0.200397 0.468223 0.101671
0.217273 0.472175 0.103487
0.236393 0.476326 0.105577
0.256001 0.480476 0.107439
0.277012 0.485130 0.109728
0.299031 0.490166 0.112230
0.320821 0.494347 0.114382
0.343420 0.498894 0.116884
0.366842 0.503807 0.119417
0.390784 0.508156 0.121782
0.415229 0.512886 0.124468
0.440787 0.517357 0.126787
0.466453 0.521904 0.129351
0.492775 0.526360 0.131746
0.520653 0.532296 0.135744
0.548165 0.538552 0.140078
0.577844 0.547295 0.146044
0.607111 0.557275 0.153079
0.636103 0.567376 0.160266
0.664622 0.578485 0.168216
0.692256 0.589548 0.175357
0.719356 0.600794 0.181170
0.744823 0.612100 0.187564
0.769757 0.623621 0.194110
0.793637 0.635325 0.202045
0.817029 0.648249 0.214694
0.834684 0.658167 0.224231
0.153597 0.490166 0.108446
0.158526 0.491310 0.109087
0.164218 0.492683 0.109636
0.174624 0.495079 0.110811
0.189334 0.498482 0.112581
0.206958 0.502770 0.114733
0.227176 0.508064 0.117388
0.250019 0.514595 0.120317
0.270665 0.519524 0.122850
0.291432 0.523796 0.125200
0.313695 0.528328 0.127886
0.336599 0.533364 0.130694
0.359442 0.537926 0.133471
0.383383 0.542458 0.136248
0.407645 0.547234 0.139010
0.432044 0.550866 0.139925
0.456901 0.554543 0.140902
0.482292 0.558328 0.142016
0.507805 0.561822 0.142580
0.533623 0.565789 0.143694
0.559548 0.570596 0.145159
0.586801 0.577295 0.147860
0.614832 0.585657 0.151705
0.644022 0.596567 0.157519
0.673152 0.608255 0.166552
0.701747 0.620844 0.176410
0.729244 0.633387 0.187244
0.756268 0.646143 0.197894
0.781384 0.658702 0.209751
0.806165 0.671611 0.221912
0.829526 0.684672 0.235950
0.845045 0.693843 0.246174
0.167269 0.524315 0.108537
0.170138 0.525048 0.108721
0.173480 0.525887 0.108995
0.184436 0.528206 0.109911
0.198581 0.531365 0.111162
0.215930 0.535470 0.112856
0.234928 0.539788 0.114382
0.255024 0.543847 0.115877
0.276661 0.548562 0.117739
0.299794 0.553674 0.119509
0.320897 0.557488 0.120714
0.342977 0.561303 0.122026
0.365957 0.565438 0.123415
0.389380 0.569467 0.124636
0.413611 0.573526 0.127108
0.438621 0.577859 0.129671
0.464546 0.582254 0.132952
0.490944 0.586679 0.136324
0.518792 0.592386 0.141390
0.545708 0.597650 0.146365
0.573343 0.604318 0.152682
0.602289 0.612970 0.160128
0.631037 0.622690 0.169101
0.661158 0.634607 0.179095
0.690395 0.647471 0.191135
0.719768 0.660655 0.202792
0.746395 0.673457 0.215702
0.772717 0.686214 0.227634
0.796124 0.696895 0.234852
0.818555 0.707607 0.242298
0.839796 0.718013 0.249531
0.855299 0.725887 0.254536
0.190005 0.561853 0.119417
0.195071 0.562936 0.120150
0.200687 0.564248 0.120882
0.208957 0.566171 0.122103
0.219715 0.568841 0.123568
0.232807 0.572198 0.125521
0.249653 0.575998 0.127657
0.269307 0.580301 0.130236
0.290684 0.584817 0.133028
0.313436 0.589120 0.136172
0.336431 0.593896 0.139361
0.359381 0.598520 0.142580
0.383093 0.602792 0.145907
0.407828 0.607233 0.149416
0.432868 0.611902 0.152941
0.458885 0.616373 0.156817
0.485328 0.620996 0.160769
0.512398 0.626261 0.164324
0.540353 0.632319 0.167620
0.568124 0.638239 0.170321
0.594705 0.644907 0.174044
0.621561 0.651743 0.177340
0.647974 0.659709 0.181766
0.674723 0.668544 0.186297
0.700999 0.678111 0.191745
0.727611 0.689158 0.198718
0.753567 0.700176 0.205951
0.777813 0.711132 0.213565
0.801892 0.722698 0.224918
0.825528 0.734875 0.240192
0.847501 0.746960 0.257557
0.867247 0.758267 0.273472
0.190509 0.592905 0.127337
0.195453 0.593927 0.127810
0.201175 0.595148 0.128191
0.209003 0.596841 0.128878
0.219898 0.599252 0.129992
0.237644 0.602777 0.131594
0.258000 0.607111 0.133700
0.280659 0.612223 0.135958
0.303243 0.616938 0.138308
0.324117 0.620676 0.140002
0.346120 0.624353 0.141589
0.369375 0.628046 0.143069
0.393454 0.631998 0.144671
0.417044 0.635645 0.146243
0.442176 0.639612 0.147662
0.468147 0.643793 0.149279
0.494881 0.648844 0.151904
0.523507 0.655146 0.155688
0.552239 0.661814 0.159823
0.580011 0.668818 0.164157
0.608667 0.676692 0.170840
0.635874 0.684978 0.179370
0.663005 0.693477 0.188556
0.689784 0.703029 0.199069
0.716320 0.713085 0.210361
0.743038 0.724437 0.223850
0.769421 0.736858 0.239490
0.795468 0.749493 0.254612
0.818952 0.761624 0.271305
0.842527 0.774014 0.287556
0.862440 0.783795 0.298024
0.876570 0.790570 0.302876
0.193042 0.622751 0.129824
0.196170 0.623484 0.130312
0.203952 0.624888 0.131136
0.215335 0.626993 0.132418
0.229892 0.629847 0.134066
0.247150 0.633463 0.136172
0.267216 0.637827 0.138659
0.289387 0.642496 0.141802
0.312215 0.646647 0.144945
0.336126 0.651240 0.148135
0.358999 0.655314 0.151064
0.381994 0.659175 0.153735
0.408347 0.664363 0.158587
0.434455 0.669429 0.162951
0.460090 0.674006 0.166491
0.489845 0.681132 0.173648
0.520150 0.688701 0.180240
0.549294 0.696025 0.187244
