content/luts/atmosphere/atmosphere_09.cube
#Created by: inPixio
#Copyright: (C) Copyright 2022 inPixio
TITLE "Atmosphere 9"
#LUT size
LUT_3D_SIZE 5
#data domain
#LUT data points
DOMAIN_MIN 0.000000 0.000000 0.000000
DOMAIN_MAX 0.903226 0.903226 0.903226
0.000000 0.000000 0.000000
0.286854 0.000000 0.000000
0.489052 0.003738 0.000198
0.690395 0.026215 0.031144
0.851621 0.110079 0.060456
0.000000 0.267964 0.005127
0.260777 0.262593 0.008865
0.484810 0.232487 0.040009
0.685695 0.224628 0.060899
0.847196 0.249455 0.072358
0.000000 0.467002 0.071321
0.213794 0.466331 0.070924
0.458427 0.461402 0.070130
0.668742 0.436484 0.089387
0.831601 0.454948 0.071580
0.000000 0.646906 0.097826
0.171481 0.646357 0.097429
0.401038 0.644007 0.095705
0.632715 0.637293 0.091753
0.817685 0.637842 0.073518
0.000000 0.823560 0.084260
0.036866 0.824140 0.081483
0.348486 0.825818 0.071839
0.584085 0.828183 0.046357
0.822095 0.829206 0.000000
0.022080 0.000000 0.268421
0.273014 0.021683 0.267582
0.479606 0.087739 0.246891
0.677806 0.147585 0.248463
0.846586 0.176822 0.241962
0.092699 0.261616 0.261723
0.260960 0.260960 0.260960
0.470161 0.260884 0.257160
0.674006 0.261540 0.251057
0.843946 0.272526 0.242542
0.086961 0.464408 0.251469
0.238682 0.464057 0.250752
0.459480 0.460700 0.247578
0.662516 0.445274 0.247196
0.829450 0.461372 0.233845
0.041184 0.645228 0.247852
0.208957 0.644724 0.247303
0.409140 0.642954 0.245716
0.633555 0.636790 0.242268
0.816785 0.638987 0.229770
0.000000 0.823438 0.232700
0.118334 0.824125 0.231403
0.362692 0.826032 0.227421
0.587869 0.828748 0.218601
0.824079 0.830289 0.202014
0.087297 0.035096 0.467979
0.262623 0.067033 0.467338
0.475090 0.102251 0.466758
0.672908 0.120012 0.450126
0.845121 0.148608 0.421714
0.132479 0.257481 0.462486
0.269368 0.260166 0.462715
0.470039 0.258671 0.463691
0.666667 0.260823 0.448310
0.839231 0.273594 0.427283
0.131121 0.460700 0.460853
0.263233 0.460472 0.460517
0.459632 0.459632 0.459632
0.647761 0.462409 0.456138
0.820295 0.468544 0.449714
0.195560 0.641154 0.447028
0.291859 0.640131 0.451606
0.445884 0.638819 0.453788
0.634379 0.635432 0.450874
0.812131 0.640620 0.440314
0.123522 0.822873 0.433555
0.232944 0.823484 0.434394
0.403708 0.825605 0.432334
0.598261 0.829358 0.425864
0.828626 0.832563 0.413932
0.149737 0.090990 0.647669
0.270756 0.105196 0.647410
0.460655 0.127184 0.646769
0.657282 0.141161 0.646098
0.834592 0.168322 0.627329
0.185061 0.260990 0.643656
0.283742 0.261967 0.643778
0.461006 0.264530 0.643885
0.653544 0.269749 0.643549
0.829923 0.282918 0.627405
0.208774 0.449867 0.638239
0.300710 0.452644 0.638071
0.466743 0.459800 0.637781
0.644328 0.461448 0.638163
0.818555 0.462699 0.627955
0.248158 0.635660 0.635905
0.323537 0.635523 0.635676
0.470573 0.635096 0.635126
0.634424 0.634470 0.634440
0.812787 0.636729 0.630472
0.196567 0.822751 0.623240
0.277073 0.823316 0.623331
0.429557 0.825269 0.622339
0.610361 0.829221 0.619410
0.832303 0.833631 0.612406
0.199680 0.125841 0.823667
0.290074 0.132555 0.823774
0.457710 0.144106 0.824277
0.648341 0.154971 0.825238
0.839475 0.167788 0.825605
0.222217 0.263951 0.822507
0.302770 0.265339 0.822812
0.462455 0.269123 0.823514
0.649317 0.274388 0.824765
0.838590 0.279927 0.825513
0.258290 0.453788 0.821653
0.334386 0.458732 0.821698
0.476371 0.459846 0.822873
0.652201 0.460105 0.824765
0.837278 0.457221 0.826520
0.266300 0.638209 0.823819
0.330678 0.638346 0.823850
0.466056 0.637079 0.824308
0.639857 0.632670 0.827192
0.837491 0.626276 0.830350
0.170077 0.833555 0.834150
0.256596 0.833692 0.834226
0.413718 0.834135 0.834470
0.594400 0.834852 0.834974
0.834852 0.834928 0.834882
