content/luts/vintage/vintage_08.cube
#Created by: Adobe Photoshop Export Color Lookup Plugin
#Copyright: (C) Copyright 2022 inPixio
TITLE "Retro Vintage 8"
#LUT size
LUT_3D_SIZE 5
#data domain
#LUT data points
DOMAIN_MIN 0.000000 0.000000 0.000000
DOMAIN_MAX 0.903226 0.903226 0.903226
0.000000 0.000000 0.000000
0.149872 0.038666 0.000031
0.356354 0.047699 0.003906
0.508240 0.080658 0.028656
0.629181 0.127106 0.065613
0.118347 0.159851 0.031067
0.236450 0.208008 0.066437
0.407898 0.229645 0.098602
0.574860 0.251129 0.143982
0.719360 0.283936 0.189453
0.225983 0.315552 0.113525
0.324646 0.371704 0.159180
0.460358 0.410645 0.195587
0.618073 0.437286 0.238556
0.765961 0.465271 0.301178
0.347595 0.462341 0.205536
0.427185 0.524353 0.271973
0.541840 0.573212 0.313019
0.680420 0.610870 0.348999
0.821991 0.640350 0.420349
0.478943 0.594055 0.352173
0.553070 0.658966 0.417847
0.643463 0.715424 0.484192
0.748505 0.768768 0.527374
0.865570 0.816101 0.570312
0.040894 0.007874 0.072021
0.166229 0.056702 0.083893
0.306702 0.097473 0.098114
0.447418 0.137848 0.113708
0.591614 0.173889 0.143158
0.150116 0.170349 0.113800
0.255585 0.223572 0.156525
0.392548 0.260742 0.199646
0.549377 0.290802 0.226410
0.703003 0.321472 0.258728
0.258850 0.328552 0.179810
0.354675 0.383148 0.241608
0.480896 0.427643 0.274323
0.624298 0.459808 0.326752
0.773102 0.490631 0.371338
0.383881 0.476105 0.258789
0.462677 0.538452 0.325409
0.567566 0.589844 0.379333
0.702881 0.629761 0.412048
0.832703 0.666595 0.476318
0.511169 0.612488 0.391235
0.581512 0.679047 0.458160
0.670990 0.737000 0.519165
0.780121 0.787079 0.568726
0.889587 0.837738 0.614594
0.066986 0.008789 0.221954
0.184296 0.061462 0.235046
0.320862 0.109741 0.219543
0.460175 0.153534 0.220551
0.587128 0.200653 0.237335
0.180267 0.175354 0.230621
0.278534 0.231476 0.277283
0.407684 0.276245 0.300781
0.544861 0.316010 0.329163
0.680695 0.357361 0.352783
0.299225 0.332520 0.274323
0.382111 0.394257 0.332764
0.500885 0.440033 0.379333
0.622070 0.486053 0.417755
0.752533 0.523804 0.475464
0.423645 0.480835 0.350769
0.501740 0.543610 0.416840
0.598724 0.598724 0.472351
0.712738 0.648590 0.510071
0.836700 0.689331 0.569397
0.540375 0.627411 0.457367
0.612000 0.693848 0.521545
0.696808 0.754517 0.580566
0.800568 0.805878 0.638123
0.914734 0.853363 0.687531
0.086548 0.019897 0.334625
0.191254 0.075256 0.367859
0.328766 0.120544 0.365845
0.466644 0.166595 0.358856
0.590454 0.218170 0.360107
0.204773 0.180359 0.362793
0.300842 0.237579 0.409637
0.428864 0.281738 0.439392
0.561432 0.326630 0.452911
0.692810 0.372131 0.466400
0.311462 0.345734 0.395844
0.406128 0.402588 0.448395
0.519745 0.452728 0.485504
0.636292 0.502563 0.516357
0.764191 0.543549 0.563171
0.447021 0.495239 0.435516
0.519897 0.558838 0.511414
0.618042 0.613495 0.566437
0.726959 0.664215 0.613220
0.840759 0.711975 0.662659
0.558807 0.645844 0.533783
0.636200 0.708923 0.600403
0.719910 0.769379 0.663849
0.816620 0.824860 0.718323
0.930084 0.873016 0.766113
0.100952 0.035553 0.437073
0.197083 0.094727 0.473358
0.320618 0.142242 0.497223
0.451324 0.191223 0.493958
0.584503 0.239258 0.488983
0.230682 0.185516 0.490143
0.316376 0.245148 0.552155
0.432220 0.297241 0.572906
0.563049 0.343048 0.586334
0.684753 0.393158 0.601501
0.347992 0.346588 0.517273
0.428253 0.408386 0.582703
0.530396 0.463715 0.623383
0.651672 0.510132 0.659637
0.775208 0.556854 0.687805
0.455811 0.506165 0.578888
0.529846 0.572601 0.636108
0.629364 0.626221 0.692993
0.737976 0.678528 0.732269
0.858246 0.724152 0.775269
0.568634 0.664276 0.634033
0.644073 0.726807 0.708954
0.724701 0.790344 0.763672
0.830170 0.841675 0.816620
0.931610 0.893921 0.875824
