content/luts/vintage/vintage_04.cube
#Created by: Adobe Photoshop Export Color Lookup Plugin
#Copyright: (C) Copyright 2022 inPixio
TITLE "Retro Vintage 4"
#LUT size
LUT_3D_SIZE 8
#data domain
#LUT data points
DOMAIN_MIN 0.000000 0.000000 0.000000
DOMAIN_MAX 0.903226 0.903226 0.903226
0.000000 0.000000 0.000000
0.118164 0.002167 0.017853
0.218933 0.016022 0.020721
0.316864 0.030457 0.028198
0.394226 0.054810 0.038483
0.488586 0.071381 0.044189
0.620728 0.073486 0.024139
0.782837 0.057983 0.017487
0.077850 0.084808 0.024963
0.156403 0.107300 0.041901
0.247375 0.124664 0.052551
0.337036 0.139954 0.078094
0.429779 0.155762 0.092010
0.530731 0.169678 0.094025
0.661346 0.169739 0.089417
0.825256 0.156189 0.066986
0.100189 0.197327 0.052368
0.161102 0.226501 0.081909
0.255188 0.241028 0.099213
0.346893 0.257599 0.112122
0.443604 0.270386 0.131744
0.554993 0.277954 0.139069
0.690582 0.278809 0.116760
0.852020 0.265411 0.100220
0.138367 0.298767 0.096375
0.187622 0.333344 0.128540
0.269897 0.353638 0.147217
0.360413 0.369385 0.167633
0.459961 0.384155 0.169128
0.566040 0.395386 0.171234
0.706268 0.396698 0.133728
0.861755 0.387482 0.110962
0.149109 0.415039 0.135590
0.199280 0.450256 0.161713
0.283295 0.468903 0.184631
0.372253 0.486481 0.199585
0.470062 0.500549 0.209320
0.579315 0.514679 0.187531
0.721893 0.516724 0.139587
0.875061 0.509460 0.112762
0.104004 0.569305 0.123505
0.176270 0.593353 0.149200
0.264252 0.612427 0.158508
0.373352 0.620300 0.170807
0.481659 0.631195 0.168915
0.599060 0.638275 0.162964
0.739258 0.639313 0.126709
0.886536 0.634186 0.104248
0.023346 0.746307 0.085724
0.117004 0.762573 0.095123
0.235229 0.768341 0.093567
0.363556 0.769531 0.089172
0.486786 0.771149 0.096497
0.623871 0.769348 0.084076
0.759796 0.767029 0.077942
0.899261 0.758575 0.094696
0.027222 0.871490 0.096039
0.118713 0.888489 0.107086
0.236542 0.892731 0.115112
0.363678 0.892120 0.123352
0.497101 0.890015 0.122894
0.630005 0.886932 0.128662
0.767639 0.880981 0.137177
0.907471 0.873444 0.148193
0.033386 0.000031 0.038055
0.124023 0.012695 0.074554
0.207611 0.032410 0.092773
0.275024 0.062256 0.100708
0.354980 0.085388 0.110565
0.459473 0.097168 0.114227
0.598145 0.094788 0.100616
0.772827 0.074768 0.083740
0.099365 0.085968 0.089111
0.156830 0.118347 0.110504
0.234955 0.140076 0.132629
0.316895 0.160919 0.149536
0.409058 0.177063 0.163391
0.512238 0.189514 0.167267
0.648651 0.188049 0.154907
0.816742 0.172333 0.132477
0.133362 0.192322 0.117920
0.186493 0.224060 0.154755
0.265381 0.247650 0.164917
0.348694 0.266357 0.189178
0.436493 0.284393 0.204956
0.545319 0.294708 0.204742
0.679840 0.295258 0.186859
0.851349 0.278534 0.160645
0.158478 0.301666 0.154938
0.209778 0.334259 0.192200
0.283630 0.359528 0.207092
0.367981 0.378479 0.227295
0.462158 0.394592 0.236084
0.565063 0.409698 0.226135
0.701263 0.410309 0.203369
0.865784 0.398224 0.171539
0.168732 0.420502 0.181885
0.219025 0.453186 0.221161
0.294708 0.477631 0.235626
0.380310 0.495850 0.256226
0.475800 0.510956 0.267059
0.588745 0.522705 0.247681
0.726318 0.527191 0.200439
0.881592 0.519287 0.171295
0.127411 0.570801 0.180542
0.194672 0.598114 0.202515
0.282379 0.615356 0.222565
0.381561 0.629272 0.229523
0.490875 0.638855 0.231628
0.608429 0.645355 0.228271
0.748169 0.647217 0.189148
0.894501 0.642792 0.165741
0.009949 0.763275 0.160370
0.116943 0.774384 0.160980
0.242462 0.775543 0.164398
0.368774 0.778015 0.158508
0.498199 0.777374 0.160797
0.631653 0.777008 0.150818
0.770172 0.773224 0.145355
0.905670 0.768158 0.154877
0.006683 0.894104 0.159760
0.112274 0.905334 0.163391
0.242737 0.904846 0.162140
0.369659 0.904907 0.167633
0.505188 0.901123 0.170197
0.637756 0.898499 0.174500
0.776245 0.891968 0.183685
0.918610 0.884583 0.187042
0.046082 0.000031 0.132294
0.118042 0.020752 0.176727
0.209290 0.039795 0.177795
0.274231 0.072845 0.175049
0.348267 0.099701 0.181274
0.442993 0.116608 0.184052
0.588531 0.108337 0.183105
0.774994 0.080872 0.173981
0.098907 0.096893 0.160767
0.158417 0.127045 0.188538
0.235443 0.149536 0.209503
0.309570 0.173950 0.228485
0.394928 0.194275 0.238556
0.493073 0.209930 0.238892
0.637665 0.202728 0.234985
0.821259 0.176453 0.227051
0.137939 0.200562 0.190308
0.191223 0.231964 0.228424
0.257751 0.260925 0.243591
0.340271 0.279938 0.268188
0.430908 0.296051 0.286682
0.536011 0.307404 0.290955
0.685272 0.301208 0.269073
0.858276 0.282928 0.247131
0.171112 0.304413 0.234863
0.224701 0.338165 0.259460
0.292603 0.364197 0.286652
0.375122 0.383972 0.307343
0.461670 0.403198 0.320343
0.569244 0.414886 0.315979
0.707367 0.415894 0.285583
0.874817 0.401306 0.259247
0.189636 0.420532 0.253662
0.240204 0.454620 0.285095
0.306366 0.480957 0.314972
0.391388 0.501068 0.327118
0.482788 0.517334 0.342590
0.591187 0.530609 0.327667
0.734344 0.531555 0.284332
0.888947 0.524139 0.254150
0.132568 0.578766 0.252869
0.196472 0.605621 0.286285
0.286591 0.623993 0.293671
0.392303 0.633331 0.307434
0.498688 0.645050 0.306244
0.614990 0.651398 0.307159
0.752777 0.652985 0.274475
0.902313 0.647400 0.248779
0.001099 0.775818 0.246368
0.090698 0.792419 0.265015
0.236023 0.785583 0.257050
0.364471 0.786896 0.251526
0.495758 0.785706 0.251862
0.635071 0.781311 0.247314
0.770020 0.780640 0.234894
0.919128 0.767944 0.248291
0.000031 0.902405 0.262421
0.111420 0.910553 0.266754
0.243988 0.908875 0.266235
0.371368 0.909637 0.266510
0.508667 0.904877 0.269684
0.643951 0.901245 0.272003
0.785767 0.893555 0.278351
0.917175 0.890503 0.288208
0.045624 0.002502 0.249146
0.111298 0.031219 0.267914
0.197906 0.053558 0.263916
0.265442 0.085541 0.259857
0.350952 0.106049 0.268738
0.444458 0.123505 0.271881
0.588959 0.114441 0.278259
0.789246 0.075409 0.293610
0.098602 0.104675 0.248871
0.154999 0.135651 0.280609
0.235901 0.158112 0.291321
0.308441 0.183838 0.307678
0.396790 0.202698 0.317200
0.495880 0.215912 0.328247
0.643677 0.204834 0.336517
0.837372 0.170593 0.343628
0.139923 0.206726 0.280853
0.201172 0.236206 0.307556
0.265411 0.267303 0.317413
0.344147 0.288116 0.342865
0.429321 0.307861 0.356812
0.532318 0.318390 0.371155
0.686005 0.306335 0.368835
0.864471 0.282166 0.363495
0.181396 0.312073 0.294739
0.227631 0.346283 0.336914
0.294739 0.372650 0.364441
0.380859 0.392120 0.376953
0.460236 0.414795 0.390900
0.568695 0.423309 0.401428
0.714111 0.417816 0.385925
0.880341 0.403168 0.363434
0.195709 0.425964 0.336884
0.242279 0.461761 0.370148
0.320831 0.483917 0.388794
0.397949 0.507141 0.405670
0.488312 0.523865 0.421509
0.597260 0.535126 0.415955
0.738373 0.534088 0.388702
0.896759 0.523071 0.367584
0.126129 0.587128 0.354584
0.194977 0.612854 0.380585
0.287201 0.629272 0.393066
0.392944 0.638885 0.404816
0.502197 0.649323 0.402893
0.617798 0.656372 0.401703
0.757782 0.655823 0.374695
0.907990 0.647400 0.362366
0.011749 0.774200 0.354828
0.049988 0.813080 0.394196
0.213898 0.797852 0.380493
0.361725 0.790222 0.370209
0.492737 0.789886 0.366730
0.637817 0.784027 0.354401
0.770325 0.783600 0.347412
0.915314 0.772491 0.363220
0.000031 0.903595 0.385101
0.085114 0.923584 0.397583
0.234619 0.915710 0.384247
0.370239 0.911682 0.387573
0.505310 0.908844 0.386505
0.642334 0.904327 0.388947
0.783417 0.897125 0.394531
0.918915 0.892456 0.402008
0.035522 0.014374 0.342041
0.099823 0.043762 0.361176
0.178802 0.069885 0.357452
0.263458 0.093079 0.353943
0.341888 0.118591 0.355164
0.446136 0.128876 0.367462
0.594574 0.115234 0.387878
0.795807 0.073364 0.415558
0.094788 0.112122 0.348450
0.151367 0.143402 0.377930
0.224152 0.170135 0.388367
0.315887 0.186859 0.400055
0.393951 0.212799 0.400269
0.496613 0.222229 0.421478
0.653259 0.203918 0.444275
0.838470 0.172791 0.458191
0.143829 0.213928 0.360535
0.189117 0.251099 0.389771
0.262970 0.274719 0.413269
0.347260 0.294647 0.428223
0.432281 0.313995 0.444794
0.538879 0.322174 0.461853
0.696808 0.304138 0.480133
0.871948 0.279633 0.485748
0.171753 0.321899 0.397308
0.229340 0.354431 0.417572
0.296844 0.380829 0.443970
0.376007 0.402557 0.463440
0.466888 0.418823 0.480194
0.572845 0.427979 0.494019
0.729706 0.412811 0.499237
0.892578 0.397430 0.489807
0.201660 0.432556 0.414459
0.243866 0.470947 0.445526
0.312103 0.496185 0.475830
0.394562 0.517548 0.488068
0.495148 0.529816 0.499969
0.607849 0.536896 0.506409
0.752869 0.530609 0.496948
0.906708 0.519867 0.486603
0.090607 0.607391 0.471680
0.172882 0.626404 0.497131
0.272491 0.640747 0.500732
0.380768 0.650360 0.505524
0.502930 0.653076 0.509888
0.620300 0.660278 0.503021
0.762695 0.656311 0.487549
0.906586 0.649292 0.485107
0.013611 0.774139 0.479523
0.051819 0.813751 0.514587
0.158661 0.822327 0.528961
0.334351 0.804077 0.499847
0.483734 0.795685 0.489319
0.628937 0.788696 0.482697
0.772552 0.782166 0.478058
0.912781 0.773376 0.494446
0.035858 0.886963 0.505432
0.102753 0.915161 0.524017
0.238373 0.912903 0.517853
0.372711 0.909607 0.521118
0.508453 0.906158 0.521362
0.644318 0.901886 0.525543
0.783234 0.897339 0.523285
0.918274 0.891327 0.539032
0.000031 0.035217 0.456268
0.077484 0.053833 0.497223
0.167511 0.074005 0.495026
0.269592 0.087952 0.493774
0.367737 0.104706 0.488159
0.466187 0.121826 0.479858
0.606171 0.112183 0.501709
0.800842 0.071930 0.538605
0.062836 0.125977 0.490326
0.132812 0.150269 0.520813
0.218445 0.171387 0.526001
0.317444 0.186401 0.527466
0.418640 0.199768 0.531860
0.515625 0.216431 0.529663
0.658661 0.203613 0.559998
0.843781 0.170013 0.587616
0.106995 0.228333 0.512726
0.171783 0.256012 0.539551
0.250977 0.279449 0.549561
0.348572 0.293304 0.561127
0.448273 0.308105 0.561890
0.554932 0.318604 0.566711
0.703461 0.303436 0.594666
0.881012 0.274933 0.615234
0.127228 0.342285 0.538391
0.185242 0.374481 0.559448
0.276001 0.391876 0.570526
0.378204 0.402740 0.585297
0.474335 0.418152 0.592499
0.586090 0.426300 0.595825
0.732117 0.413940 0.615723
0.891571 0.397583 0.620758
0.108002 0.479340 0.548004
0.185181 0.499603 0.580933
0.276276 0.516022 0.596100
0.379517 0.526672 0.609161
0.494019 0.532593 0.617340
0.617401 0.534546 0.622070
0.757812 0.528351 0.624481
0.897827 0.523499 0.620544
0.076813 0.617767 0.582733
0.126526 0.650940 0.621063
0.254730 0.650482 0.625793
0.368347 0.657684 0.629120
0.492401 0.660370 0.628632
0.621185 0.660400 0.629028
0.767334 0.652740 0.623138
0.898682 0.651642 0.623047
0.019318 0.771118 0.609100
0.059845 0.809265 0.645813
0.149658 0.826324 0.661011
0.338074 0.800842 0.635895
0.482117 0.793701 0.633423
0.621307 0.790314 0.623962
0.768707 0.781464 0.621094
0.901917 0.775940 0.639435
0.134308 0.845367 0.589203
0.217438 0.863220 0.618835
0.317169 0.874908 0.635834
0.424408 0.883453 0.649323
0.525177 0.897186 0.652924
0.654694 0.896423 0.655701
0.778961 0.897980 0.660553
0.910339 0.893768 0.676575
0.000031 0.064514 0.428192
0.030090 0.070190 0.667664
0.155792 0.071808 0.668030
0.270538 0.079407 0.665894
0.391815 0.084167 0.661896
0.518890 0.086487 0.654602
0.651794 0.083008 0.662933
0.812256 0.066132 0.667542
0.000031 0.150421 0.659790
0.085754 0.163818 0.705627
0.200348 0.170258 0.710663
0.321289 0.174561 0.709564
0.446075 0.177094 0.707520
0.569000 0.180481 0.705994
0.701843 0.177490 0.711609
0.857178 0.163422 0.715485
0.000031 0.269165 0.714508
0.103485 0.277954 0.737152
0.219818 0.284576 0.736084
0.344086 0.287048 0.736023
0.472748 0.286652 0.739044
0.603790 0.286011 0.737244
0.737610 0.283173 0.739380
0.885010 0.274231 0.737000
0.000031 0.392242 0.746429
0.056946 0.423431 0.775604
0.220032 0.408661 0.762238
0.355042 0.406647 0.756561
0.485229 0.405640 0.759094
0.617188 0.404510 0.757080
0.756653 0.399750 0.754242
0.897034 0.394165 0.753082
0.006439 0.518646 0.743195
0.048096 0.555023 0.786377
0.185333 0.550598 0.787811
0.342712 0.538452 0.775513
0.481079 0.535095 0.768219
0.622162 0.529572 0.764862
0.766571 0.523071 0.757843
0.894226 0.525238 0.749878
0.006073 0.647583 0.744843
0.046387 0.686249 0.779083
0.127441 0.706360 0.802368
0.322021 0.677277 0.779480
0.474792 0.668335 0.762695
0.614655 0.662842 0.762543
0.760040 0.656311 0.752838
0.882690 0.660187 0.749756
0.012909 0.772552 0.748016
0.052765 0.811005 0.784821
0.096710 0.849670 0.809326
0.315338 0.810242 0.776581
0.482941 0.792725 0.765411
0.631042 0.783997 0.760193
0.760925 0.783844 0.758667
0.879730 0.788269 0.762726
0.145050 0.844330 0.694550
0.225952 0.863281 0.724121
0.327179 0.873932 0.742859
0.442200 0.879791 0.749481
0.568390 0.878296 0.765472
0.687103 0.881012 0.779053
0.787079 0.894226 0.787445
0.902740 0.899048 0.798004
0.000031 0.094482 0.396454
0.000031 0.097351 0.733185
0.117584 0.090515 0.800842
0.243378 0.093994 0.790894
0.380249 0.089417 0.794159
0.515381 0.086670 0.792297
0.665771 0.076385 0.789215
0.826691 0.057800 0.801788
0.000031 0.179535 0.632385
0.039062 0.183655 0.855377
0.168396 0.184967 0.847717
0.302216 0.182922 0.845551
0.431305 0.183075 0.844696
0.571045 0.177979 0.842896
0.722321 0.167328 0.839203
0.869904 0.155182 0.853851
0.000031 0.280060 0.785339
0.044678 0.304138 0.886047
0.190186 0.296570 0.881775
0.325531 0.294037 0.878235
0.461426 0.290497 0.878357
0.599518 0.286407 0.875671
0.747192 0.277985 0.870026
0.894989 0.268433 0.869965
0.000031 0.399384 0.837280
0.010681 0.443817 0.921509
0.185486 0.424194 0.902252
0.330414 0.417084 0.896912
0.470398 0.413452 0.886566
0.608124 0.409363 0.884644
0.753693 0.401489 0.881958
0.901581 0.393158 0.875153
0.000031 0.525177 0.854492
0.017120 0.569824 0.920593
0.189026 0.552002 0.899109
0.331512 0.546448 0.892181
0.475891 0.540161 0.884094
0.609589 0.538116 0.882294
0.753265 0.532135 0.874695
0.891205 0.528290 0.870850
0.000031 0.652130 0.865875
0.056824 0.680878 0.908447
0.207214 0.673889 0.887909
0.354858 0.666199 0.878204
0.488281 0.666138 0.866882
0.615814 0.666412 0.869324
0.752411 0.663361 0.864868
0.880066 0.664917 0.860596
0.048859 0.759796 0.847321
0.120331 0.785095 0.868561
0.253601 0.781891 0.874115
0.381317 0.784119 0.865967
0.514282 0.782806 0.862000
0.640228 0.784302 0.862732
0.764252 0.785889 0.867584
0.874695 0.795746 0.865326
0.174774 0.832825 0.804108
0.248016 0.857361 0.824982
0.336884 0.873901 0.845551
0.455475 0.877228 0.856232
0.570709 0.883026 0.862671
0.695770 0.884491 0.865540
0.804779 0.891815 0.881073
0.902466 0.904999 0.895905
