content/luts/vintage/vintage_10.cube
#Created by: Adobe Photoshop Export Color Lookup Plugin
#Copyright: (C) Copyright 2022 inPixio
TITLE "Retro Vintage 10"
#LUT size
LUT_3D_SIZE 8
#data domain
#LUT data points
DOMAIN_MIN 0.000000 0.000000 0.000000
DOMAIN_MAX 0.903226 0.903226 0.903226
0.000000 0.000000 0.000000
0.121796 0.001862 0.009705
0.192444 0.028015 0.028748
0.280884 0.047729 0.033691
0.363190 0.071716 0.032501
0.461639 0.087555 0.030884
0.567108 0.100189 0.027313
0.665558 0.116272 0.024689
0.096191 0.075317 0.025970
0.162537 0.102814 0.049164
0.236359 0.125397 0.078461
0.319977 0.146301 0.090393
0.406097 0.167145 0.095642
0.504364 0.184052 0.088928
0.620880 0.191650 0.082367
0.717468 0.206268 0.092163
0.105316 0.191193 0.071411
0.162994 0.222687 0.097076
0.250610 0.241882 0.107147
0.339600 0.260010 0.118988
0.426086 0.276550 0.146484
0.533295 0.289398 0.136963
0.648529 0.297729 0.130127
0.761597 0.303650 0.141846
0.044464 0.342468 0.118195
0.123444 0.365692 0.130035
0.226715 0.376862 0.140564
0.346954 0.382874 0.132172
0.461517 0.392029 0.122498
0.557159 0.400421 0.168427
0.666321 0.410645 0.167877
0.775543 0.419434 0.174896
0.000031 0.490814 0.135895
0.016388 0.542786 0.164154
0.139160 0.546936 0.159210
0.304626 0.533386 0.132233
0.448547 0.529388 0.113312
0.585480 0.524750 0.116669
0.689819 0.526764 0.173309
0.788971 0.533173 0.220215
0.000031 0.609253 0.192902
0.000031 0.670288 0.217285
0.051910 0.705597 0.237915
0.276306 0.662415 0.209808
0.425537 0.653595 0.201874
0.563599 0.648102 0.206726
0.698212 0.641815 0.225250
0.795959 0.649231 0.270599
0.018188 0.714569 0.270050
0.073608 0.746948 0.297516
0.193970 0.749054 0.309723
0.321411 0.749115 0.313446
0.445038 0.749878 0.324463
0.577881 0.745483 0.337524
0.686646 0.750427 0.366364
0.788788 0.758698 0.395264
0.292358 0.694519 0.322205
0.339172 0.728394 0.364594
0.394775 0.758575 0.403229
0.457306 0.788757 0.422638
0.544922 0.803375 0.457245
0.635468 0.817505 0.486298
0.719391 0.833344 0.524200
0.807861 0.848358 0.554474
0.038452 0.000031 0.024078
0.137085 0.006134 0.073944
0.205444 0.034668 0.086670
0.264954 0.068634 0.094055
0.351135 0.089020 0.101654
0.450745 0.104889 0.096649
0.564728 0.114777 0.084656
0.666656 0.129517 0.079681
0.122223 0.076660 0.076660
0.172485 0.110474 0.110107
0.238953 0.136993 0.138245
0.312866 0.161560 0.156891
0.395874 0.184113 0.161469
0.501587 0.196960 0.156342
0.616486 0.206635 0.142731
0.725250 0.216064 0.147400
0.150848 0.181946 0.125916
0.196930 0.218292 0.157196
0.269165 0.241974 0.184906
0.342590 0.268066 0.196472
0.433044 0.285278 0.209747
0.533905 0.302643 0.193207
0.656555 0.307648 0.184082
0.760773 0.319763 0.186432
0.109375 0.324005 0.169189
0.169739 0.354279 0.194000
0.256348 0.373871 0.204620
0.360352 0.388428 0.194763
0.461609 0.402496 0.195190
0.557159 0.413940 0.224945
0.676880 0.419678 0.219543
0.785492 0.429138 0.224579
0.000031 0.503845 0.194916
0.030914 0.548218 0.224365
0.173065 0.542999 0.216736
0.328369 0.533081 0.198334
0.460815 0.535309 0.177185
0.595673 0.531799 0.179962
0.696075 0.537445 0.227875
0.797791 0.544800 0.262817
0.000031 0.625671 0.233734
0.016052 0.677429 0.264130
0.098694 0.698456 0.277710
0.294006 0.669983 0.249756
0.443420 0.658722 0.254517
0.578827 0.655487 0.254578
0.704102 0.654785 0.268677
0.805359 0.660645 0.313141
0.059143 0.714020 0.290497
0.132629 0.736938 0.319214
0.232910 0.749542 0.329926
0.348297 0.754883 0.338196
0.466919 0.756470 0.358368
0.589050 0.757538 0.371338
0.699707 0.763489 0.389679
0.803406 0.770264 0.422394
0.313904 0.702789 0.348206
0.359863 0.738220 0.384644
0.411194 0.772247 0.413971
0.479492 0.796387 0.450165
0.558960 0.816406 0.477997
0.645416 0.832001 0.510437
0.737946 0.844849 0.540985
0.819458 0.862213 0.577606
0.056427 0.000031 0.104034
0.142761 0.011322 0.159851
0.215057 0.037933 0.171906
0.301880 0.055847 0.190918
0.384308 0.079681 0.190125
0.476624 0.100922 0.176453
0.573975 0.119080 0.165222
0.669220 0.138275 0.154480
0.118286 0.089569 0.147278
0.181305 0.116913 0.180420
0.252350 0.140533 0.211884
0.333160 0.163147 0.222229
0.415192 0.185699 0.229218
0.510498 0.203461 0.226105
0.628113 0.210663 0.218628
0.732880 0.223328 0.216736
0.173370 0.184235 0.181061
0.216431 0.219482 0.226562
0.279449 0.250366 0.240997
0.348114 0.276398 0.265900
0.443024 0.293335 0.268280
0.544189 0.306976 0.270935
0.662994 0.314697 0.257538
0.767639 0.327271 0.256439
0.166962 0.308502 0.224274
0.204163 0.350006 0.252075
0.275055 0.374115 0.281403
0.371124 0.390594 0.282684
0.470886 0.403564 0.293243
0.566772 0.419281 0.299225
0.677338 0.430267 0.290497
0.789429 0.438110 0.294800
0.027924 0.499298 0.272339
0.108337 0.520691 0.290161
0.218384 0.529999 0.292023
0.344330 0.533844 0.279694
0.476593 0.533905 0.270630
0.594513 0.538971 0.273682
0.700806 0.544861 0.304352
0.803711 0.553619 0.328552
0.008911 0.632202 0.303284
0.083160 0.656860 0.320343
0.206848 0.659363 0.321350
0.336212 0.658813 0.323578
0.468048 0.657166 0.324707
0.591888 0.658691 0.330811
0.708374 0.663483 0.339264
0.806396 0.672455 0.375916
0.188080 0.669037 0.308990
0.244751 0.700287 0.338989
0.311554 0.726227 0.369354
0.401245 0.741943 0.392395
0.505310 0.751984 0.406738
0.611053 0.760315 0.425476
0.718292 0.767883 0.444427
0.810272 0.781555 0.472015
0.360046 0.697937 0.377380
0.404053 0.733215 0.419861
0.454590 0.768188 0.446381
0.517761 0.794037 0.487396
0.593414 0.815552 0.517761
0.674988 0.834656 0.544586
0.751343 0.853943 0.584625
0.832520 0.871735 0.619873
0.056641 0.000031 0.232483
0.133240 0.021790 0.258728
0.221222 0.040955 0.268005
0.302490 0.063690 0.276184
0.436005 0.055969 0.305420
0.557281 0.061768 0.295410
0.648102 0.084808 0.275818
0.709137 0.125580 0.242950
0.109863 0.099457 0.246216
0.172119 0.128967 0.269897
0.255280 0.147888 0.293488
0.343689 0.164307 0.316223
0.468903 0.161743 0.340240
0.577423 0.173645 0.332520
0.682465 0.188599 0.317749
0.749054 0.223938 0.298340
0.155670 0.201965 0.263428
0.202545 0.239227 0.287659
0.285553 0.255951 0.323364
0.373383 0.273956 0.338989
0.482056 0.282440 0.349335
0.578735 0.300018 0.343048
0.674347 0.317749 0.339233
0.769836 0.334412 0.341248
0.201569 0.302643 0.290253
0.249023 0.339722 0.313782
0.304077 0.372253 0.341278
0.385956 0.392151 0.362946
0.482971 0.408966 0.360382
0.582520 0.421356 0.374023
0.687927 0.434021 0.370636
0.787415 0.449890 0.366150
0.177887 0.438721 0.317291
0.230103 0.472900 0.343597
0.282501 0.508575 0.361053
0.374847 0.526550 0.364471
0.496826 0.531250 0.358673
0.600220 0.541382 0.374146
0.705109 0.550415 0.391754
0.801605 0.564545 0.404755
0.182312 0.563995 0.325256
0.228516 0.600952 0.352997
0.293182 0.629700 0.374512
0.391479 0.641571 0.394379
0.500061 0.650726 0.401367
0.612244 0.657043 0.413116
0.713654 0.668976 0.424561
0.812897 0.680725 0.442993
0.272736 0.643402 0.344727
0.317841 0.677246 0.392212
0.374329 0.709442 0.417328
0.448669 0.733185 0.439056
0.537323 0.748962 0.464569
0.635071 0.761078 0.484924
0.731934 0.773926 0.503967
0.819550 0.790955 0.525299
0.401154 0.694244 0.414032
0.442749 0.731812 0.450836
0.491638 0.765411 0.489258
0.550507 0.795532 0.519135
0.617828 0.819977 0.556335
0.696594 0.839172 0.590332
0.769836 0.861664 0.621704
0.846069 0.881470 0.659729
0.046570 0.009766 0.336548
0.121368 0.033447 0.357819
0.224274 0.044891 0.367615
0.330780 0.054382 0.377869
0.435059 0.065643 0.385193
0.597076 0.044373 0.409088
0.687317 0.070129 0.377136
0.729218 0.124146 0.324921
0.097656 0.110199 0.350830
0.164001 0.136810 0.378937
0.256409 0.152679 0.393799
0.367706 0.158966 0.408447
0.474182 0.168396 0.419403
0.620758 0.155579 0.440369
0.725647 0.172852 0.413452
0.777466 0.217041 0.387207
0.131470 0.222168 0.349823
0.186157 0.252716 0.389099
0.282623 0.265411 0.409515
0.388977 0.273865 0.425934
0.496399 0.282593 0.438446
0.632477 0.278259 0.442230
0.720123 0.303040 0.422333
0.792145 0.334839 0.407074
0.170166 0.328552 0.365875
0.222900 0.361816 0.395599
0.300201 0.385071 0.412170
0.401367 0.395050 0.434418
0.513458 0.401337 0.447144
0.619476 0.415649 0.433014
0.702423 0.437866 0.439423
0.782257 0.462311 0.442596
0.205261 0.437897 0.376038
0.267822 0.464813 0.413177
0.339325 0.491394 0.427246
0.416534 0.517242 0.429962
0.513306 0.531372 0.442078
0.610657 0.543976 0.460999
0.707764 0.558746 0.468811
0.801514 0.575836 0.473267
0.266449 0.536926 0.370178
0.321564 0.567719 0.406311
0.390289 0.593079 0.435089
0.452911 0.622955 0.455841
0.529510 0.646912 0.470581
0.628082 0.659943 0.483490
0.719910 0.676147 0.497894
0.821991 0.687653 0.510040
0.361633 0.611725 0.401611
0.406799 0.647247 0.439667
0.442871 0.689178 0.468170
0.496460 0.722778 0.493805
0.569366 0.745850 0.523071
0.653198 0.765411 0.541382
0.745026 0.780334 0.562866
0.833160 0.797638 0.581451
0.445465 0.687836 0.456451
0.491028 0.722656 0.497620
0.529449 0.762970 0.528442
0.589783 0.790802 0.566376
0.649384 0.819275 0.603210
0.717529 0.843781 0.637695
0.790527 0.865936 0.671753
0.862030 0.887451 0.713287
0.035431 0.021515 0.433044
0.112976 0.043884 0.453766
0.216644 0.055634 0.459808
0.340790 0.054810 0.477325
0.479980 0.048340 0.484406
0.594360 0.055695 0.484802
0.687164 0.078430 0.462006
0.722748 0.137543 0.399536
0.081604 0.121826 0.461365
0.154449 0.145966 0.485016
0.257874 0.156799 0.496826
0.381409 0.157501 0.508057
0.510498 0.156128 0.515411
0.622345 0.164154 0.519012
0.721405 0.182617 0.501526
0.769348 0.231964 0.458160
0.105988 0.237793 0.464752
0.173187 0.264008 0.492889
0.281403 0.272308 0.504944
0.394958 0.277557 0.519196
0.526306 0.275665 0.522888
0.636749 0.284821 0.524689
0.724884 0.307556 0.514252
0.780090 0.351257 0.480927
0.148010 0.349030 0.445709
0.211578 0.377167 0.472961
0.295441 0.395264 0.499390
0.400177 0.404480 0.516052
0.524780 0.404724 0.526947
0.626801 0.419220 0.522949
0.714630 0.441864 0.513733
0.788971 0.470062 0.511688
0.197174 0.454742 0.436768
0.257263 0.483337 0.471436
0.337585 0.504578 0.490265
0.425568 0.523621 0.499939
0.530090 0.534119 0.510712
0.625946 0.548676 0.523102
0.712555 0.568237 0.533813
0.801117 0.587463 0.541016
0.281708 0.540771 0.436798
0.333893 0.574127 0.467499
0.409302 0.596008 0.496582
0.486237 0.618439 0.518097
0.557556 0.645477 0.530731
0.645142 0.662720 0.551147
0.726105 0.684509 0.565216
0.824310 0.696686 0.584198
0.378845 0.616913 0.455750
0.428284 0.651825 0.485596
0.487701 0.680481 0.521576
0.547546 0.709869 0.552612
0.600403 0.744354 0.575348
0.677765 0.766449 0.598083
0.759399 0.786469 0.619598
0.842529 0.807007 0.634583
0.492889 0.678986 0.503662
0.532715 0.718048 0.537537
0.586334 0.747498 0.585205
0.636383 0.782104 0.615021
0.682007 0.818634 0.646729
0.742767 0.847015 0.680542
0.812744 0.869781 0.719513
0.876038 0.896393 0.756012
0.026764 0.036499 0.505463
0.090454 0.065277 0.529297
0.198761 0.073914 0.539551
0.317963 0.076508 0.552277
0.445709 0.077179 0.552216
0.578552 0.075073 0.553009
0.675049 0.094635 0.537140
0.719604 0.146027 0.491760
0.078522 0.131897 0.544678
0.145294 0.159851 0.564545
0.243927 0.172211 0.581329
0.362701 0.176392 0.586639
0.491028 0.175629 0.592712
0.620453 0.174255 0.598938
0.715210 0.194916 0.581635
0.771790 0.238953 0.543060
0.108093 0.247223 0.537292
0.174530 0.271942 0.575684
0.264954 0.288483 0.592072
0.382416 0.293488 0.597107
0.505371 0.295105 0.604797
0.631927 0.296814 0.602448
0.723724 0.317139 0.594940
0.777679 0.360474 0.567047
0.171967 0.350708 0.500244
0.227997 0.381561 0.533752
0.306183 0.401306 0.566803
0.398315 0.416931 0.583282
0.513458 0.422485 0.591766
0.626007 0.429779 0.597290
0.721375 0.446991 0.597137
0.784302 0.482330 0.587738
0.223938 0.453674 0.498322
0.275909 0.488434 0.522217
0.349213 0.512543 0.544800
0.430695 0.532806 0.565796
0.527496 0.544678 0.590088
0.630676 0.555298 0.603485
0.728149 0.570526 0.608093
0.798309 0.598572 0.618195
0.303162 0.544159 0.489105
0.355621 0.576752 0.523102
0.419281 0.603455 0.558411
0.485687 0.631042 0.580963
0.569000 0.650848 0.599609
0.652252 0.669708 0.623138
0.746521 0.684906 0.636566
0.821838 0.708618 0.655975
0.389343 0.624634 0.514832
0.432495 0.661987 0.548370
0.489624 0.693298 0.576538
0.555145 0.720490 0.604004
0.626556 0.744843 0.630463
0.705109 0.765564 0.657288
0.776459 0.789886 0.683990
0.860138 0.810944 0.694550
0.501617 0.690613 0.546509
0.539825 0.729675 0.584839
0.589142 0.763702 0.619751
0.647919 0.793030 0.653992
0.714813 0.817139 0.694305
0.772003 0.847778 0.725677
0.829773 0.877228 0.762238
0.882263 0.909210 0.799286
0.000031 0.068848 0.533936
0.061951 0.093842 0.582764
0.155914 0.109894 0.592346
0.265320 0.118073 0.601837
0.385468 0.122345 0.603302
0.506104 0.126831 0.602081
0.612885 0.140625 0.588959
0.686432 0.174500 0.558411
0.064423 0.152710 0.600403
0.125580 0.182373 0.626282
0.217163 0.198456 0.642365
0.322510 0.209808 0.646118
0.435913 0.215790 0.656647
0.553284 0.223358 0.647766
0.662384 0.236816 0.630005
0.737793 0.265808 0.620789
0.117706 0.257751 0.583862
0.178925 0.284668 0.624329
0.262146 0.306152 0.633942
0.355804 0.321136 0.650177
0.464264 0.329651 0.660583
0.576813 0.338593 0.657776
0.679901 0.352142 0.655853
0.760071 0.379303 0.643188
0.198090 0.351044 0.556366
0.239868 0.389893 0.585602
0.307251 0.415405 0.617065
0.394897 0.432953 0.635742
0.487244 0.448395 0.653198
0.597748 0.456177 0.662018
0.699554 0.469055 0.667297
0.783020 0.492065 0.667908
0.262329 0.450592 0.539246
0.307831 0.487213 0.570953
0.370819 0.515289 0.600311
0.442017 0.538788 0.631775
0.525482 0.556732 0.660095
0.616302 0.573303 0.675110
0.723572 0.582001 0.688141
0.800476 0.606049 0.701172
0.324707 0.544189 0.559357
0.373993 0.579315 0.588287
0.431335 0.610474 0.616913
0.495880 0.638062 0.644501
0.570526 0.661621 0.666779
0.656006 0.677887 0.698151
0.748932 0.692505 0.718170
0.826782 0.715729 0.733307
0.407837 0.627686 0.576813
0.449036 0.666504 0.608063
0.501221 0.698303 0.647095
0.564514 0.727203 0.671417
0.630859 0.753815 0.699524
0.702545 0.778442 0.724152
0.783569 0.797760 0.751190
0.849579 0.825287 0.775330
0.493591 0.707886 0.604675
0.544312 0.741913 0.636139
0.589569 0.778809 0.666473
0.648743 0.807129 0.705048
0.716980 0.832062 0.737213
0.784027 0.857880 0.767822
0.845367 0.886597 0.798431
0.898407 0.917999 0.837036
