content/luts/vintage/vintage_12.cube
#Created by: Adobe Photoshop Export Color Lookup Plugin
#Copyright: (C) Copyright 2022 inPixio
TITLE "Retro Vintage 12"
#LUT size
LUT_3D_SIZE 32
#data domain
DOMAIN_MIN 0.0 0.0 0.0
DOMAIN_MAX 1.0 1.0 1.0
#LUT data points
0.000000 0.000000 0.000000
0.026154 0.000031 0.016693
0.052917 0.002563 0.017883
0.080841 0.004181 0.020996
0.112427 0.002747 0.030579
0.142975 0.002960 0.033813
0.178375 0.000397 0.039368
0.209045 0.000031 0.045898
0.238556 0.000031 0.053406
0.266846 0.000031 0.064056
0.297363 0.000031 0.068726
0.326721 0.000031 0.076782
0.355133 0.000031 0.087189
0.383240 0.000031 0.098389
0.412018 0.000031 0.107910
0.439148 0.000031 0.121887
0.466919 0.000031 0.134369
0.495178 0.000031 0.145325
0.522156 0.000031 0.159546
0.552368 0.000031 0.165314
0.581573 0.000031 0.173492
0.610657 0.000031 0.182037
0.640900 0.000031 0.187683
0.669922 0.000031 0.196320
0.700104 0.000031 0.201965
0.732208 0.000031 0.202454
0.766296 0.000031 0.197723
0.800232 0.000031 0.192963
0.833038 0.000031 0.191559
0.832855 0.015259 0.198181
0.819244 0.037323 0.204956
0.798248 0.064911 0.202179
0.034119 0.009705 0.028046
0.035645 0.023346 0.038666
0.066315 0.024292 0.037842
0.096649 0.025574 0.036072
0.125854 0.026428 0.039825
0.150299 0.028473 0.050232
0.188232 0.025940 0.048218
0.223724 0.023102 0.054596
0.260590 0.019501 0.061493
0.300995 0.014343 0.066956
0.331665 0.014008 0.073090
0.370209 0.009430 0.080627
0.408325 0.004669 0.090179
0.445892 0.000031 0.100586
0.473663 0.000031 0.112854
0.501831 0.000031 0.123962
0.530670 0.000031 0.133331
0.560181 0.000031 0.140717
0.588501 0.000031 0.151794
0.614929 0.000031 0.167755
0.643860 0.000031 0.176788
0.672546 0.000031 0.186554
0.701996 0.000031 0.193939
0.732697 0.000031 0.198303
0.764526 0.000031 0.199371
0.796722 0.000031 0.199677
0.829620 0.000031 0.197784
0.860870 0.000031 0.200623
0.859528 0.015778 0.207428
0.847687 0.037933 0.208984
0.831451 0.061310 0.216003
0.804535 0.089417 0.226654
0.047485 0.032562 0.041809
0.054779 0.043396 0.051727
0.068329 0.051880 0.057190
0.101227 0.051636 0.056946
0.131134 0.052826 0.057129
0.164795 0.051056 0.062714
0.194519 0.052582 0.061462
0.231110 0.049957 0.063751
0.265167 0.047577 0.071472
0.302948 0.044006 0.075623
0.338959 0.040405 0.084686
0.370850 0.039917 0.088257
0.409210 0.035522 0.095093
0.448364 0.030670 0.102142
0.492615 0.023315 0.109192
0.534668 0.016663 0.118347
0.571381 0.012360 0.129242
0.613739 0.006256 0.134155
0.651855 0.001862 0.141907
0.685150 0.000031 0.149017
0.712402 0.000031 0.162689
0.740265 0.000031 0.174652
0.768738 0.000031 0.185272
0.799286 0.000031 0.189941
0.829041 0.000031 0.196686
0.856812 0.002411 0.195953
0.869659 0.011719 0.198944
0.876862 0.022614 0.208679
0.865509 0.042999 0.218201
0.857300 0.062622 0.223389
0.844299 0.085297 0.225189
0.819489 0.111847 0.238342
0.060730 0.054138 0.063141
0.070190 0.064880 0.067535
0.084015 0.073914 0.069336
0.104584 0.079803 0.069672
0.131744 0.081909 0.072174
0.169617 0.078674 0.074127
0.202972 0.077850 0.075592
0.233521 0.078674 0.076019
0.267975 0.076691 0.080872
0.302582 0.074890 0.084106
0.341064 0.069855 0.093903
0.378479 0.065765 0.101959
0.410370 0.065430 0.104645
0.447296 0.062469 0.107635
0.491272 0.055847 0.111145
0.531555 0.050751 0.116760
0.573364 0.044708 0.123383
0.609009 0.040863 0.134735
0.649963 0.035126 0.141785
0.688385 0.030823 0.147827
0.722992 0.028473 0.154114
0.754333 0.027435 0.162170
0.783630 0.026489 0.175385
0.814026 0.025787 0.184174
0.838440 0.028168 0.192627
0.859802 0.031982 0.201996
0.871490 0.041626 0.206604
0.883575 0.049927 0.217163
0.879242 0.066589 0.227386
0.866455 0.087952 0.235596
0.855347 0.108978 0.241058
0.837402 0.132782 0.250427
0.076660 0.073120 0.090851
0.084930 0.085541 0.089600
0.096619 0.096771 0.085632
0.113586 0.105103 0.082458
0.137512 0.110046 0.078674
0.168121 0.110291 0.081970
0.202026 0.108429 0.087433
0.235199 0.107300 0.090973
0.266663 0.107269 0.093231
0.301819 0.106018 0.091980
0.341034 0.100830 0.100952
0.380249 0.095642 0.109802
0.417999 0.091644 0.116425
0.448792 0.091797 0.119385
0.491364 0.086456 0.119873
0.529755 0.082703 0.123322
0.568420 0.078827 0.126648
0.609772 0.073486 0.130554
0.645416 0.069672 0.141907
0.684174 0.064545 0.151581
0.720673 0.060822 0.160004
0.753571 0.059326 0.166351
0.784149 0.059540 0.169708
0.811554 0.059357 0.183990
0.835876 0.061310 0.195038
0.857910 0.064728 0.204529
0.877533 0.069305 0.214539
0.885071 0.079895 0.225128
0.887268 0.093079 0.236420
0.881378 0.110596 0.246338
0.869049 0.131409 0.256653
0.854218 0.153015 0.269135
0.095245 0.094727 0.097260
0.096741 0.108368 0.107880
0.104980 0.120789 0.106628
0.118683 0.130188 0.107178
0.138885 0.135712 0.110413
0.166229 0.138763 0.107391
0.202118 0.136719 0.108368
0.239166 0.134827 0.105591
0.274689 0.133881 0.101624
0.307983 0.133423 0.101166
0.343933 0.130035 0.109406
0.379578 0.127228 0.115204
0.417511 0.123779 0.118225
0.456268 0.120544 0.117767
0.489349 0.120209 0.117432
0.529449 0.114807 0.125031
0.566132 0.111481 0.130829
0.602448 0.108704 0.134644
0.638977 0.105774 0.138550
0.673004 0.103088 0.148254
0.708984 0.099213 0.158936
0.742462 0.096771 0.168640
0.772522 0.096497 0.176300
0.802795 0.096375 0.182281
0.833618 0.095093 0.193115
0.860077 0.096252 0.202667
0.881195 0.100159 0.212128
0.890472 0.109558 0.224426
0.892120 0.122223 0.239746
0.888702 0.138031 0.252258
0.880371 0.156403 0.264435
0.870300 0.175171 0.279144
0.104126 0.119324 0.114258
0.115723 0.127838 0.124817
0.122192 0.140045 0.129669
0.131805 0.151398 0.130402
0.146790 0.159332 0.135040
0.168121 0.164978 0.134613
0.200775 0.165741 0.129303
0.237335 0.164490 0.124512
0.273041 0.163879 0.118469
0.304871 0.164062 0.118652
0.343567 0.161041 0.117157
0.378815 0.158813 0.121002
0.415192 0.156525 0.121979
0.455048 0.152985 0.120087
0.489441 0.151703 0.121094
0.525330 0.149384 0.123566
0.563507 0.145294 0.129730
0.600006 0.142395 0.133575
0.639099 0.138245 0.137360
0.678192 0.133057 0.146362
0.709595 0.131836 0.155365
0.740936 0.130676 0.164093
0.769348 0.131256 0.171234
0.805023 0.126953 0.185028
0.830505 0.128906 0.193054
0.858490 0.128693 0.205841
0.881104 0.131439 0.217590
0.893280 0.139587 0.228760
0.893677 0.153137 0.242828
0.890991 0.167908 0.258850
0.881714 0.186584 0.272125
0.868347 0.207123 0.286316
0.114349 0.142822 0.133331
0.126190 0.151886 0.140503
0.134705 0.162415 0.148743
0.144867 0.173096 0.151581
0.156219 0.182892 0.156067
0.173889 0.189697 0.159332
0.198944 0.194763 0.151764
0.232483 0.194916 0.147461
0.268738 0.194733 0.137451
0.301300 0.195160 0.134308
0.340363 0.192230 0.131378
0.378265 0.190033 0.127930
0.413910 0.188110 0.129028
0.452209 0.185425 0.127106
0.485107 0.184662 0.129395
0.520569 0.182953 0.129822
0.558289 0.179626 0.132599
0.595764 0.176239 0.136536
0.636200 0.171143 0.141541
0.675903 0.166962 0.143829
0.709381 0.164398 0.154297
0.739319 0.163971 0.162964
0.766632 0.165344 0.169037
0.801056 0.161804 0.182190
0.832092 0.159729 0.196533
0.857788 0.161377 0.205658
0.880981 0.163086 0.221008
0.894318 0.170349 0.233612
0.898102 0.181732 0.250305
0.894318 0.196655 0.268524
0.888611 0.213104 0.284058
0.874146 0.234314 0.297668
0.128021 0.164825 0.150787
0.138214 0.175018 0.156403
0.146454 0.186035 0.162781
0.153961 0.197357 0.169769
0.165802 0.206940 0.174042
0.180786 0.214325 0.181427
0.200317 0.221954 0.175385
0.227997 0.225342 0.169525
0.262512 0.224945 0.165375
0.299042 0.225037 0.153320
0.336823 0.223602 0.146057
0.374817 0.221893 0.139282
0.412476 0.220093 0.134430
0.448914 0.217804 0.135193
0.479492 0.218018 0.138458
0.516266 0.215820 0.138428
0.554199 0.212769 0.139130
0.591492 0.209442 0.143158
0.631378 0.204285 0.150177
0.669617 0.201294 0.149689
0.704590 0.199066 0.154297
0.733765 0.198639 0.165009
0.763763 0.198151 0.173767
0.795502 0.196503 0.184235
0.825470 0.195343 0.196747
0.855377 0.193909 0.210846
0.882050 0.194763 0.221313
0.895660 0.201294 0.237213
0.900269 0.211945 0.255463
0.898346 0.224976 0.278870
0.892853 0.240845 0.296631
0.885834 0.258118 0.310883
0.143829 0.186707 0.163574
0.153503 0.196381 0.173248
0.163666 0.206573 0.178864
0.172943 0.217346 0.183685
0.181244 0.228424 0.189484
0.188812 0.239014 0.200073
0.203125 0.248291 0.199188
0.227203 0.252747 0.197845
0.259979 0.252777 0.196228
0.297943 0.251282 0.188660
0.331329 0.254059 0.170563
0.367279 0.255066 0.155273
0.404572 0.254669 0.143616
0.441864 0.253265 0.137268
0.472473 0.253479 0.140533
0.514557 0.248413 0.140900
0.558105 0.242462 0.142303
0.598358 0.237549 0.146973
0.630066 0.235870 0.157440
0.664703 0.233795 0.161957
0.700531 0.231049 0.166931
0.733704 0.229187 0.174316
0.761780 0.229553 0.183899
0.793488 0.227875 0.194366
0.820892 0.228729 0.202820
0.848602 0.229004 0.213837
0.876465 0.228638 0.227875
0.897583 0.231537 0.242920
0.900604 0.243408 0.258850
0.896912 0.256927 0.284515
0.890625 0.271912 0.309235
0.886292 0.288940 0.317413
0.145996 0.215332 0.177246
0.161469 0.222046 0.186890
0.172974 0.229248 0.204834
0.187195 0.236908 0.213013
0.200012 0.246063 0.216949
0.201569 0.260773 0.221558
0.209045 0.273804 0.219421
0.228333 0.280334 0.219604
0.256500 0.282684 0.218170
0.289154 0.284485 0.207458
0.325745 0.284485 0.195557
0.363037 0.285370 0.177216
0.399963 0.286102 0.160736
0.436340 0.286316 0.148071
0.475006 0.283966 0.143433
0.512299 0.281311 0.143799
0.551147 0.277618 0.145691
0.588501 0.274506 0.148407
0.622803 0.273132 0.150055
0.661011 0.269592 0.153076
0.693542 0.267334 0.164490
0.726562 0.264954 0.175262
0.756897 0.264038 0.185364
0.786987 0.263489 0.194183
0.821625 0.260193 0.205292
0.850159 0.259857 0.217133
0.876617 0.260040 0.231964
0.896027 0.263641 0.247711
0.899109 0.275085 0.265991
0.902466 0.285248 0.290070
0.900726 0.297913 0.315002
0.896301 0.314758 0.324768
0.154266 0.238770 0.201691
0.162842 0.250366 0.204193
0.182404 0.254913 0.214294
0.193634 0.262573 0.230835
0.208374 0.270477 0.236084
0.211853 0.284210 0.240936
0.216705 0.298676 0.238220
0.225891 0.310638 0.236877
0.248871 0.315002 0.238617
0.277161 0.318512 0.230743
0.312958 0.318268 0.222229
0.349915 0.318787 0.206573
0.389465 0.318878 0.186188
0.426453 0.319946 0.167511
0.467010 0.317993 0.155457
0.505951 0.316467 0.145569
0.545837 0.312256 0.147461
0.582977 0.308929 0.151947
0.621399 0.305389 0.153961
0.657043 0.303070 0.157196
0.691406 0.300629 0.164642
0.720825 0.299652 0.177612
0.750610 0.299103 0.187164
0.781677 0.297913 0.196991
0.814697 0.295776 0.206451
0.843964 0.295319 0.217010
0.869202 0.296143 0.231628
0.889954 0.298676 0.249359
0.902771 0.304047 0.273682
0.903290 0.316681 0.292419
0.906006 0.326752 0.318909
0.902466 0.342163 0.333954
0.161865 0.263428 0.221802
0.167816 0.276215 0.225128
0.182404 0.283966 0.231598
0.202179 0.288574 0.240875
0.212616 0.297882 0.250580
0.221100 0.308624 0.257538
0.222687 0.324524 0.256104
0.229706 0.337982 0.252838
0.240021 0.349060 0.253296
0.263245 0.354065 0.251099
0.300110 0.352875 0.244965
0.335541 0.352997 0.235474
0.375244 0.352844 0.215973
0.415588 0.353210 0.192078
0.457581 0.351837 0.172852
0.498444 0.350311 0.157410
0.536194 0.348938 0.149963
0.575623 0.344727 0.152954
0.616760 0.339325 0.157684
0.651947 0.337067 0.161987
0.689240 0.332977 0.170074
0.720367 0.331726 0.179932
0.746765 0.333191 0.187866
0.778473 0.331512 0.198334
0.810608 0.329132 0.211487
0.840912 0.327942 0.223083
0.862885 0.331177 0.233887
0.885529 0.332581 0.252899
0.897522 0.338104 0.278534
0.903320 0.347076 0.302307
0.904602 0.358704 0.324432
0.903076 0.371613 0.347473
0.163177 0.294098 0.226929
0.170410 0.304871 0.237457
0.183289 0.312927 0.246918
0.199707 0.319244 0.256256
0.217529 0.325043 0.264587
0.233246 0.331635 0.274231
0.231445 0.348846 0.274719
0.233093 0.364899 0.272186
0.241028 0.378143 0.267456
0.250244 0.390381 0.264526
0.287903 0.388702 0.258789
0.323669 0.388031 0.253082
0.360962 0.387665 0.241425
0.404968 0.385864 0.218903
0.449188 0.384552 0.193298
0.492859 0.382416 0.173584
0.532410 0.380951 0.161499
0.568268 0.379883 0.157501
0.603424 0.378601 0.156219
0.638733 0.376221 0.160919
0.677979 0.371307 0.168396
0.717682 0.365723 0.178009
0.747650 0.365204 0.186859
0.779358 0.363525 0.197449
0.809814 0.361328 0.214203
0.839020 0.359680 0.231293
0.865265 0.359863 0.246674
0.888153 0.361481 0.263458
0.895538 0.369781 0.286682
0.895447 0.381836 0.310364
0.895508 0.393677 0.334595
0.898621 0.402863 0.365021
0.170105 0.319244 0.246002
0.173737 0.332001 0.255707
0.182922 0.342560 0.261749
0.196655 0.350586 0.269379
0.213165 0.356995 0.278076
0.231567 0.363373 0.281647
0.227722 0.380768 0.286926
0.228027 0.396271 0.290894
0.235321 0.408875 0.291107
0.245117 0.421692 0.283691
0.274048 0.424591 0.277222
0.308533 0.424530 0.271332
0.345032 0.424225 0.261566
0.387054 0.422607 0.243469
0.432404 0.419373 0.225067
0.478088 0.417114 0.200928
0.519318 0.416412 0.180237
0.556946 0.416351 0.165894
0.596405 0.414062 0.158295
0.638885 0.406189 0.172699
0.672363 0.404541 0.178253
0.707611 0.401947 0.183868
0.742401 0.399414 0.190704
0.773804 0.397430 0.203888
0.799957 0.397034 0.222595
0.827728 0.395813 0.241241
0.854919 0.395325 0.257812
0.875854 0.397766 0.275452
0.895325 0.401306 0.291504
0.895172 0.413452 0.314667
0.893463 0.426147 0.339111
0.901855 0.433411 0.365234
0.163239 0.352234 0.260895
0.174774 0.360840 0.271301
0.182678 0.371399 0.280975
0.198120 0.379272 0.284515
0.215759 0.385498 0.291138
0.228363 0.394073 0.298706
0.232849 0.407288 0.303558
0.229401 0.426239 0.299103
0.234009 0.439941 0.301422
0.241638 0.452240 0.302338
0.257141 0.460938 0.301422
0.290039 0.462433 0.291809
0.328461 0.460663 0.284302
0.371277 0.457672 0.271454
0.410370 0.456787 0.257568
0.456512 0.454346 0.232727
0.500977 0.453247 0.205780
0.541077 0.453217 0.184418
0.582581 0.450470 0.173828
0.623169 0.445007 0.180511
0.666443 0.438568 0.185059
0.700226 0.436951 0.189514
0.735199 0.434082 0.197540
0.766296 0.431793 0.212708
0.797180 0.429291 0.229950
0.823578 0.428223 0.251526
0.851990 0.426788 0.269806
0.876740 0.427643 0.285828
0.891418 0.433990 0.299896
0.900055 0.441620 0.323212
0.897400 0.453888 0.352692
0.904419 0.460876 0.383972
0.161255 0.383636 0.271057
0.170074 0.392487 0.287476
0.183350 0.400940 0.293762
0.196716 0.409241 0.300842
0.217987 0.414337 0.303253
0.229309 0.423370 0.312286
0.238434 0.433502 0.320923
0.241760 0.447723 0.323608
0.241425 0.466339 0.312653
0.245178 0.479980 0.317169
0.253601 0.491821 0.318634
0.275299 0.497833 0.315063
0.308899 0.499176 0.304260
0.352997 0.494843 0.295227
0.392029 0.493652 0.283142
0.433014 0.491638 0.270020
0.481720 0.488678 0.241241
0.523560 0.488647 0.215271
0.564880 0.486206 0.203735
0.605408 0.482697 0.199982
0.645081 0.477997 0.204742
0.687500 0.472870 0.204681
0.722717 0.469727 0.213318
0.757843 0.465881 0.226288
0.790222 0.463348 0.239685
0.819275 0.461792 0.256592
0.846527 0.460358 0.278046
0.872162 0.460663 0.294556
0.889648 0.464874 0.312042
0.900177 0.472107 0.332458
0.901794 0.482819 0.358704
0.905609 0.490936 0.392761
0.166626 0.411560 0.279602
0.171906 0.421631 0.299286
0.184082 0.430023 0.308838
0.199432 0.438019 0.312012
0.218536 0.443848 0.316711
0.233246 0.451202 0.325104
0.245972 0.459778 0.332367
0.254761 0.470734 0.337494
0.259430 0.484375 0.339661
0.257294 0.503448 0.331421
0.261566 0.517334 0.333160
0.275757 0.526855 0.331299
0.301392 0.531006 0.327087
0.333893 0.532654 0.317596
0.375519 0.529877 0.306885
0.413727 0.528778 0.296387
0.458191 0.525238 0.282104
0.507996 0.521667 0.253754
0.546326 0.520508 0.243469
0.587158 0.518463 0.231049
0.626617 0.515411 0.227753
0.664886 0.511475 0.232269
0.705383 0.506409 0.236969
0.745087 0.500580 0.247833
0.781708 0.496582 0.257355
0.813080 0.495056 0.268097
0.840424 0.494598 0.283844
0.863220 0.495758 0.303345
0.882843 0.498169 0.325226
0.896271 0.503479 0.348145
0.904388 0.511475 0.371033
0.906677 0.522888 0.391571
0.167847 0.440094 0.296021
0.177582 0.449829 0.305725
0.192566 0.456696 0.315765
0.208649 0.463684 0.322510
0.224365 0.470947 0.328613
0.247589 0.472900 0.342712
0.258362 0.483917 0.342102
0.265656 0.496765 0.341278
0.270874 0.510345 0.342224
0.276642 0.522797 0.347717
0.280640 0.536438 0.351471
0.288269 0.549103 0.350769
0.305298 0.557190 0.348724
0.333466 0.559570 0.347534
0.368652 0.558289 0.346283
0.400085 0.562164 0.327759
0.439026 0.561584 0.312500
0.485626 0.556976 0.298126
0.530975 0.553772 0.279755
0.573792 0.551544 0.262848
0.614624 0.548981 0.253204
0.653259 0.546112 0.251343
0.690308 0.542938 0.255280
0.729187 0.536285 0.272919
0.768890 0.530457 0.283783
0.803711 0.527435 0.292908
0.833191 0.526825 0.303925
0.861786 0.525024 0.323395
0.884003 0.525604 0.347626
0.898712 0.530243 0.370697
0.907288 0.538391 0.391663
0.911804 0.549255 0.408844
0.182434 0.462524 0.309082
0.186584 0.475006 0.318787
0.199738 0.483856 0.323334
0.217651 0.489624 0.331482
0.235535 0.495361 0.339874
0.257629 0.498627 0.350494
0.276917 0.504242 0.355591
0.284454 0.516815 0.355652
0.290161 0.530151 0.356476
0.297913 0.541931 0.360138
0.308441 0.553070 0.359528
0.316315 0.563995 0.367432
0.325256 0.575226 0.370667
0.341766 0.582764 0.373260
0.366852 0.586609 0.372070
0.398315 0.588837 0.362274
0.435638 0.589325 0.346069
0.479675 0.585541 0.334320
0.520020 0.583771 0.321655
0.556366 0.582672 0.316528
0.599792 0.580566 0.297302
0.637604 0.579041 0.290375
0.670837 0.577881 0.293884
0.710602 0.572083 0.304413
0.744110 0.569153 0.316650
0.779907 0.565613 0.326416
0.813263 0.563324 0.335602
0.850342 0.558624 0.347626
0.873932 0.559845 0.364777
0.888123 0.565186 0.385162
0.897797 0.572815 0.405975
0.905884 0.581299 0.426178
0.201721 0.484100 0.313934
0.212952 0.493011 0.323608
0.223694 0.502106 0.333221
0.239624 0.509460 0.338287
0.258148 0.514557 0.348450
0.275818 0.520111 0.358551
0.293121 0.526154 0.366882
0.310303 0.532837 0.372162
0.316345 0.545685 0.374664
0.324127 0.557648 0.377502
0.333496 0.569031 0.378784
0.341766 0.581116 0.379211
0.351440 0.590790 0.388885
0.360779 0.601379 0.394684
0.380585 0.607910 0.393494
0.405334 0.612946 0.387146
0.435638 0.615906 0.376434
0.476349 0.613220 0.368042
0.512939 0.611603 0.364929
0.551453 0.611542 0.348053
0.584320 0.611755 0.345215
0.627899 0.608795 0.330139
0.662476 0.607452 0.331055
0.699249 0.603973 0.337463
0.729431 0.603424 0.346008
0.761139 0.601776 0.356476
0.794037 0.599731 0.365570
0.829498 0.596619 0.373444
0.859802 0.595062 0.387085
0.882355 0.596344 0.407104
0.893433 0.603882 0.424225
0.905212 0.610596 0.444122
0.228455 0.501709 0.319397
0.240173 0.510406 0.329102
0.255310 0.517548 0.337280
0.267975 0.525635 0.347412
0.285797 0.531342 0.356140
0.300262 0.538483 0.366302
0.319183 0.543732 0.374603
0.332733 0.551208 0.385498
0.346222 0.559357 0.392883
0.352570 0.571808 0.396729
0.359863 0.584259 0.398071
0.369934 0.595367 0.399048
0.379089 0.606262 0.403351
0.389160 0.615845 0.412933
0.405426 0.623749 0.414032
0.425537 0.630585 0.410370
0.450378 0.635681 0.403290
0.476929 0.640015 0.395477
0.508514 0.639313 0.401215
0.547729 0.638275 0.387817
0.583649 0.638428 0.376953
0.616577 0.638977 0.372437
0.659729 0.634308 0.367767
0.693176 0.633087 0.370850
0.722839 0.633423 0.376251
0.749451 0.634613 0.385284
0.780518 0.633270 0.395569
0.810364 0.633270 0.402130
0.842438 0.631317 0.413239
0.868317 0.631897 0.427460
0.887085 0.634735 0.448914
0.901947 0.640717 0.464142
0.265686 0.512085 0.335236
0.269440 0.524841 0.344696
0.282349 0.533447 0.351288
0.295746 0.541901 0.357330
0.306335 0.551086 0.367157
0.324188 0.556824 0.375946
0.348785 0.559540 0.382050
0.365906 0.565399 0.392090
0.374298 0.575043 0.405396
0.380035 0.586853 0.414185
0.385162 0.600739 0.413757
0.396576 0.611359 0.413666
0.410828 0.619812 0.417389
0.424438 0.627350 0.427612
0.438385 0.635223 0.435455
0.455048 0.642914 0.436584
0.475189 0.649750 0.433167
0.496918 0.656189 0.427338
0.510071 0.666290 0.425293
0.546204 0.664459 0.424500
0.582458 0.662903 0.422058
0.618195 0.662109 0.416809
0.654266 0.661865 0.407593
0.685211 0.662445 0.408173
0.715790 0.662781 0.410797
0.743988 0.663666 0.417389
0.770142 0.664886 0.427460
0.797943 0.665375 0.437042
0.830688 0.663330 0.446655
0.857208 0.664429 0.456207
0.876251 0.668793 0.468811
0.886749 0.676239 0.488403
0.296356 0.527618 0.341644
0.302795 0.540100 0.345032
0.319702 0.544495 0.363342
0.333252 0.552490 0.371338
0.340668 0.564453 0.374939
0.355957 0.570374 0.389465
0.374725 0.574463 0.404175
0.391998 0.580872 0.410614
0.403107 0.590424 0.417145
0.412506 0.601105 0.422363
0.420624 0.612396 0.427704
0.429016 0.623291 0.434296
0.439972 0.632751 0.441467
0.451019 0.641785 0.451019
0.465240 0.649933 0.456268
0.487061 0.653656 0.464783
0.505493 0.659943 0.468811
0.524017 0.667084 0.468109
0.541016 0.675964 0.462311
0.560272 0.683868 0.455292
0.585632 0.687592 0.454071
0.615448 0.688812 0.454010
0.651855 0.686768 0.453766
0.685577 0.687103 0.448029
0.714661 0.688080 0.451263
0.740570 0.690094 0.457733
0.764801 0.692566 0.466522
0.795044 0.692810 0.470551
0.820953 0.694092 0.480927
0.842926 0.697571 0.490753
0.862640 0.701508 0.503784
0.883514 0.703400 0.524658
0.328094 0.541870 0.351349
0.346619 0.545959 0.366852
0.349823 0.559540 0.373474
0.366241 0.564972 0.387634
0.375092 0.576477 0.389648
0.394318 0.580902 0.401276
0.408112 0.587372 0.417084
0.422028 0.594330 0.429626
0.434448 0.603577 0.434082
0.446930 0.613037 0.437439
0.459503 0.621674 0.444550
0.467957 0.633148 0.447968
0.476746 0.643341 0.457397
0.485840 0.653320 0.467346
0.498444 0.661865 0.474915
0.517120 0.667023 0.484222
0.538330 0.671509 0.490234
0.554413 0.679016 0.494080
0.569305 0.688080 0.492889
0.583679 0.697388 0.491577
0.602692 0.704254 0.490845
0.624084 0.709869 0.490753
0.654541 0.710571 0.491974
0.680695 0.714111 0.489441
0.708893 0.715729 0.491821
0.737976 0.717499 0.491058
0.762390 0.720520 0.496216
0.788879 0.721954 0.504242
0.813782 0.724121 0.512482
0.833282 0.728149 0.525635
0.850006 0.734039 0.536438
0.872223 0.736115 0.552795
0.368439 0.550079 0.370453
0.382782 0.557098 0.381744
0.396027 0.564392 0.394257
0.402740 0.575684 0.403259
0.413849 0.585358 0.409149
0.433350 0.589691 0.420563
0.446289 0.597351 0.432648
0.459259 0.604736 0.445587
0.468658 0.614868 0.453461
0.481964 0.624023 0.455902
0.493011 0.633179 0.464783
0.505005 0.642365 0.470703
0.513947 0.653229 0.475861
0.521942 0.663727 0.485870
0.533173 0.673065 0.492950
0.548553 0.679993 0.501862
0.565399 0.685944 0.512115
0.582184 0.693146 0.515656
0.594147 0.702789 0.519257
0.609222 0.710663 0.523834
0.622955 0.719879 0.524933
0.642792 0.725525 0.528564
0.665894 0.730255 0.528259
0.689575 0.734467 0.528900
0.708740 0.740631 0.531647
0.733490 0.743835 0.535126
0.762756 0.746307 0.529999
0.787201 0.748627 0.538757
0.810394 0.751953 0.545746
0.828156 0.756927 0.558594
0.846893 0.761261 0.572021
0.867889 0.765045 0.582367
0.414734 0.553375 0.399536
0.420135 0.566864 0.400391
0.431946 0.576019 0.407135
0.444946 0.583954 0.417114
0.457886 0.591614 0.428528
0.472687 0.597687 0.443726
0.484375 0.606323 0.453369
0.495514 0.615204 0.463379
0.508209 0.623077 0.474304
0.516785 0.634674 0.476807
0.524567 0.645477 0.485718
0.534149 0.655609 0.493286
0.545959 0.664490 0.501312
0.556152 0.673920 0.510986
0.566925 0.683960 0.515717
0.579407 0.692627 0.523102
0.592560 0.700714 0.531708
0.606018 0.708374 0.542023
0.616394 0.718750 0.546326
0.631592 0.725830 0.554657
0.647339 0.733612 0.557892
0.663116 0.741791 0.559021
0.685181 0.746155 0.563477
0.708374 0.749969 0.567688
0.723358 0.757904 0.572083
0.739868 0.765411 0.574921
0.763275 0.769592 0.576538
0.789948 0.771973 0.578949
0.812073 0.776154 0.584137
0.829926 0.781860 0.593140
0.845642 0.787811 0.606171
0.873444 0.788300 0.615753
0.442352 0.565826 0.430237
0.451569 0.578094 0.427307
0.466858 0.586395 0.429413
0.481201 0.594421 0.435150
0.491486 0.603943 0.443909
0.500153 0.612610 0.461670
0.516052 0.619781 0.467865
0.527985 0.628662 0.475739
0.538422 0.637604 0.487305
0.549011 0.645660 0.502991
0.557587 0.657257 0.505463
0.564362 0.669098 0.511353
0.573914 0.679016 0.520142
0.586884 0.686462 0.532623
0.602661 0.693115 0.542328
0.612946 0.702606 0.551331
