content/luts/vintage/vintage_05.cube
#Created by: Adobe Photoshop Export Color Lookup Plugin
#Copyright: (C) Copyright 2022 inPixio
TITLE "Retro Vintage 5"
#LUT size
LUT_3D_SIZE 8
#data domain
#LUT data points
DOMAIN_MIN 0.000000 0.000000 0.000000
DOMAIN_MAX 0.903226 0.903226 0.903226
0.000000 0.000000 0.000000
0.073669 0.028168 0.000031
0.174103 0.041656 0.005615
0.264496 0.059326 0.016174
0.365143 0.070648 0.032928
0.461304 0.085205 0.044342
0.555725 0.101837 0.049591
0.638855 0.122345 0.064789
0.087067 0.082764 0.010681
0.146759 0.110718 0.049988
0.220551 0.135529 0.067352
0.312134 0.151611 0.083405
0.412262 0.164703 0.091827
0.514740 0.175934 0.104218
0.613312 0.188995 0.117035
0.700592 0.207336 0.132446
0.168518 0.160675 0.062653
0.212311 0.197754 0.096313
0.279297 0.225128 0.118622
0.357483 0.247437 0.137756
0.451813 0.262939 0.149353
0.549133 0.275757 0.166840
0.646423 0.289307 0.181030
0.739838 0.303925 0.199677
0.216217 0.256592 0.110229
0.269775 0.290894 0.132141
0.332672 0.318512 0.164551
0.410889 0.341431 0.180023
0.494080 0.361603 0.197052
0.586029 0.376404 0.218536
0.680023 0.391968 0.230560
0.766388 0.407990 0.261261
0.280792 0.347473 0.138977
0.334869 0.379395 0.172058
0.386383 0.411438 0.211823
0.458099 0.437622 0.227631
0.537415 0.461395 0.235718
0.624084 0.478241 0.260773
0.714355 0.493225 0.286377
0.795135 0.510132 0.327179
0.350708 0.432922 0.182068
0.392731 0.470917 0.215637
0.450439 0.499756 0.255127
0.511780 0.529999 0.277863
0.583679 0.555725 0.295502
0.664062 0.577911 0.309448
0.749268 0.594421 0.340271
0.827301 0.612000 0.384918
0.417511 0.515533 0.248871
0.466492 0.549347 0.285828
0.510559 0.586731 0.316895
0.568878 0.616455 0.350403
0.630859 0.645660 0.376709
0.703552 0.670135 0.398804
0.781891 0.691681 0.421753
0.860626 0.712006 0.449890
0.488007 0.593872 0.328613
0.526520 0.633545 0.362579
0.569244 0.669586 0.404816
0.622925 0.701721 0.437592
0.684174 0.731354 0.463806
0.745728 0.760529 0.491211
0.814606 0.786133 0.517822
0.881958 0.812775 0.543457
0.035461 0.006042 0.000031
0.096893 0.036926 0.018463
0.163727 0.063812 0.044189
0.237488 0.089355 0.057617
0.335480 0.103210 0.068268
0.437805 0.114838 0.078644
0.536560 0.128082 0.089996
0.634277 0.142181 0.099792
0.113007 0.087067 0.045959
0.160370 0.121918 0.081573
0.220490 0.151550 0.110443
0.302765 0.172729 0.124542
0.390930 0.190918 0.138306
0.495148 0.201782 0.148010
0.601990 0.211853 0.154297
0.693359 0.228210 0.169250
0.182037 0.170654 0.101318
0.231812 0.205139 0.132629
0.292877 0.234802 0.158783
0.361816 0.262268 0.175232
0.450226 0.278564 0.198730
0.548920 0.292114 0.208740
0.647217 0.305908 0.218628
0.736359 0.323578 0.232635
0.246063 0.260864 0.135101
0.290771 0.296967 0.171234
0.346741 0.327881 0.204926
0.418823 0.353790 0.220978
0.495331 0.378693 0.230957
0.588837 0.391724 0.257782
0.682526 0.407501 0.269501
0.768768 0.424530 0.295013
0.310547 0.349274 0.177216
0.343445 0.392761 0.205933
0.409119 0.418732 0.239716
0.472290 0.447906 0.262573
0.552155 0.470184 0.277527
0.635468 0.490875 0.291016
0.718201 0.508606 0.322388
0.801331 0.524658 0.361237
0.369049 0.441528 0.214844
0.414032 0.477417 0.251587
0.464874 0.512573 0.276154
0.531616 0.537842 0.310516
0.597748 0.566620 0.327667
0.674225 0.589478 0.348602
0.759857 0.607666 0.369446
0.834320 0.626740 0.415985
0.435852 0.526184 0.270508
0.478943 0.562805 0.308655
0.528625 0.595917 0.347351
0.585052 0.627319 0.376831
0.648926 0.655731 0.402496
0.717682 0.682770 0.421539
0.795288 0.705078 0.442352
0.871613 0.726379 0.471710
0.495514 0.609253 0.354584
0.541748 0.645477 0.386017
0.583374 0.682159 0.427643
0.637787 0.713806 0.461426
0.696564 0.744629 0.487701
0.758728 0.773010 0.517731
0.827820 0.800110 0.535828
0.898010 0.824768 0.564301
0.060242 0.008484 0.048340
0.111481 0.045319 0.062775
0.177307 0.073059 0.086334
0.246796 0.100677 0.100677
0.332092 0.120697 0.112732
0.420593 0.139374 0.122803
0.511719 0.155365 0.140320
0.608521 0.169678 0.151611
0.129913 0.096527 0.078033
0.182068 0.131073 0.102356
0.232971 0.164032 0.138458
0.305939 0.187653 0.164886
0.385712 0.209106 0.184052
0.476196 0.227234 0.192169
0.576599 0.238953 0.207214
0.670074 0.254120 0.222870
0.201141 0.179871 0.128784
0.250183 0.212860 0.170258
0.302155 0.248901 0.186920
0.365173 0.276611 0.218170
0.443726 0.297974 0.241547
0.538727 0.312286 0.257263
0.633545 0.327911 0.266937
0.723206 0.345337 0.280823
0.266663 0.266510 0.177582
0.310822 0.303375 0.211273
0.365234 0.335785 0.241028
0.429199 0.364563 0.263885
0.502716 0.387970 0.290070
0.587738 0.407196 0.306885
0.674774 0.425171 0.324860
0.767059 0.441162 0.339478
0.331329 0.356384 0.211426
0.376556 0.390717 0.255981
0.426666 0.425903 0.282440
0.487701 0.455566 0.308563
0.560333 0.482025 0.320587
0.638794 0.502441 0.348846
0.722656 0.519745 0.379456
0.801056 0.541473 0.400818
0.390167 0.447601 0.253937
0.433838 0.483917 0.291748
0.486115 0.515717 0.330261
0.542542 0.547363 0.358856
0.609039 0.575378 0.379028
0.681732 0.601410 0.393066
0.764465 0.620514 0.416962
0.840790 0.639648 0.458252
0.457642 0.531921 0.309509
0.503174 0.567078 0.348846
0.549194 0.601837 0.388672
0.603027 0.634888 0.416168
0.663330 0.665466 0.439789
0.731720 0.691620 0.464813
0.802887 0.718140 0.480682
0.880585 0.737762 0.515259
0.514038 0.619019 0.380585
0.552795 0.657654 0.419586
0.602692 0.692017 0.451141
0.653351 0.725189 0.487000
0.711121 0.755646 0.517975
0.771271 0.784668 0.550018
0.838898 0.811829 0.571869
0.912048 0.836670 0.591125
0.071136 0.012817 0.124390
0.132751 0.044189 0.139709
0.198212 0.074738 0.149506
0.259430 0.108643 0.152405
0.340363 0.130096 0.168823
0.432129 0.146729 0.181000
0.516327 0.167694 0.190704
0.596954 0.189972 0.203522
0.145477 0.101196 0.139771
0.197937 0.135040 0.166809
0.249146 0.169342 0.195129
0.323608 0.194336 0.209869
0.400360 0.217926 0.226013
0.486359 0.235992 0.246613
0.573273 0.255249 0.257904
0.654938 0.276428 0.273529
0.204590 0.193207 0.177002
0.256683 0.226959 0.205719
0.321320 0.253784 0.237335
0.379181 0.286346 0.256866
0.451782 0.309967 0.284149
0.532837 0.329773 0.308655
0.619873 0.349152 0.319305
0.703552 0.368805 0.337433
0.280029 0.275604 0.221222
0.330658 0.309418 0.253754
0.382690 0.343994 0.278442
0.443726 0.371979 0.313690
0.504669 0.402802 0.334137
0.584747 0.423553 0.356140
0.668854 0.443054 0.374084
0.753082 0.460724 0.401520
0.346191 0.364166 0.258148
0.398804 0.397156 0.289642
0.450714 0.428711 0.330780
0.503601 0.462494 0.356964
0.568848 0.491302 0.376678
0.643005 0.512970 0.409973
0.716125 0.536377 0.437195
0.800018 0.555603 0.457062
0.415924 0.449554 0.302185
0.456543 0.486908 0.342682
0.511353 0.518829 0.374084
0.562775 0.552673 0.404022
0.623474 0.581238 0.437378
0.693970 0.608459 0.450958
0.769928 0.629639 0.482117
0.844147 0.652130 0.510956
0.477905 0.536102 0.360748
0.518616 0.574554 0.395538
0.568848 0.608307 0.429169
0.617371 0.643188 0.461639
0.675354 0.674103 0.489899
0.743652 0.700775 0.512146
0.813477 0.727203 0.532257
0.886963 0.749451 0.564240
0.530243 0.627655 0.419189
0.576172 0.663849 0.451569
0.620178 0.699219 0.493774
0.668549 0.734467 0.524719
0.725708 0.764801 0.558105
0.782867 0.796143 0.586029
0.851807 0.822571 0.608032
0.920380 0.848633 0.633331
0.091705 0.013519 0.193420
0.149078 0.046082 0.214355
0.216125 0.075714 0.224487
0.286682 0.105286 0.225067
0.354401 0.135925 0.228271
0.439880 0.155640 0.241150
0.527588 0.174255 0.254089
0.603210 0.200287 0.260010
0.161438 0.103485 0.212921
0.218719 0.136627 0.230743
0.273804 0.168182 0.263184
0.345612 0.195587 0.272278
0.419922 0.220276 0.289093
0.497864 0.243713 0.302673
0.581512 0.263885 0.318268
0.660126 0.287476 0.329224
0.227570 0.193909 0.239349
0.278015 0.228546 0.268127
0.328003 0.263855 0.294342
0.397614 0.290588 0.312866
0.463806 0.318848 0.332764
0.545807 0.338074 0.357697
0.627472 0.359528 0.371948
0.709167 0.380005 0.391266
0.286072 0.287354 0.270782
0.338379 0.320648 0.301331
0.394623 0.352234 0.330627
0.457123 0.381470 0.355164
0.520996 0.409027 0.385376
0.591064 0.434692 0.408386
0.669678 0.456421 0.429199
0.748932 0.477844 0.450287
0.360931 0.372681 0.301208
0.409546 0.407135 0.335938
0.461761 0.439850 0.369904
0.520264 0.469666 0.402100
0.582306 0.497528 0.435669
0.644928 0.526642 0.460480
0.718353 0.550720 0.483185
0.796204 0.571686 0.510193
0.434937 0.456329 0.342834
0.479218 0.490479 0.390686
0.529938 0.523987 0.424835
0.580841 0.558075 0.454987
0.635773 0.589844 0.486755
0.704437 0.616791 0.506866
0.771606 0.642426 0.537964
0.845062 0.665314 0.566895
0.500549 0.541290 0.400360
0.542084 0.577911 0.442657
0.588348 0.614166 0.473755
0.635437 0.648468 0.513245
0.692596 0.679932 0.540405
0.753601 0.709442 0.568024
0.820404 0.737152 0.589020
0.890778 0.762268 0.614014
0.548340 0.635773 0.455383
0.589996 0.671478 0.502228
0.634247 0.708649 0.533966
0.684296 0.742493 0.567657
0.737976 0.774170 0.603394
0.796844 0.804932 0.629730
0.862976 0.832367 0.654388
0.924561 0.862305 0.677490
0.110168 0.014160 0.268677
0.161285 0.048828 0.295380
0.229004 0.077850 0.306702
0.304443 0.103424 0.315582
0.379120 0.131927 0.311157
0.450928 0.161224 0.309998
0.532471 0.183563 0.319824
0.609863 0.208221 0.328400
0.174896 0.104553 0.299500
0.228180 0.138000 0.326477
0.290558 0.168243 0.346222
0.362030 0.195679 0.355957
0.437836 0.220367 0.368774
0.512695 0.246765 0.375061
0.590515 0.270966 0.384705
0.670563 0.293579 0.397064
0.238342 0.198364 0.315277
0.287842 0.233704 0.342773
0.345825 0.265991 0.363037
0.414795 0.291565 0.390015
0.487701 0.317780 0.402435
0.559753 0.343170 0.421753
0.637817 0.366699 0.434509
0.718414 0.388092 0.451477
0.299500 0.291260 0.342377
0.351685 0.324860 0.371429
0.410065 0.356049 0.397064
0.470215 0.387115 0.418365
0.537384 0.414673 0.439209
0.605713 0.442017 0.457977
0.678314 0.465668 0.485138
0.755432 0.487640 0.509033
0.368378 0.379913 0.371033
0.417908 0.414368 0.403229
0.467682 0.449982 0.428345
0.528046 0.479370 0.457733
0.588715 0.509888 0.480927
0.654663 0.536377 0.510712
0.723297 0.561493 0.540863
0.797638 0.584869 0.564514
0.449799 0.461700 0.402618
0.488129 0.501038 0.438934
0.533478 0.536285 0.478088
0.593781 0.567078 0.500305
0.649139 0.598541 0.532745
0.711121 0.626770 0.564148
0.774353 0.654175 0.596497
0.845673 0.679199 0.619751
0.509766 0.553040 0.441437
0.557678 0.586121 0.484924
0.603546 0.621124 0.523834
0.654541 0.653931 0.561066
0.705566 0.687347 0.594238
0.764893 0.718353 0.618286
0.824463 0.748047 0.648254
0.899048 0.769257 0.682983
0.555054 0.644745 0.517731
0.607208 0.679047 0.543579
0.651855 0.714722 0.582428
0.697418 0.750671 0.616974
0.747467 0.784790 0.649689
0.804016 0.814911 0.685760
0.867096 0.844055 0.709351
0.939148 0.868927 0.731171
0.120850 0.015594 0.360962
0.171967 0.051178 0.382751
0.236450 0.079712 0.405579
0.312012 0.106964 0.405151
0.392273 0.131287 0.407837
0.465698 0.160583 0.402191
0.543274 0.186798 0.402100
0.615051 0.216339 0.399750
0.189941 0.103180 0.394745
0.234589 0.140228 0.426239
0.299866 0.168915 0.446350
0.374207 0.194824 0.456329
0.453186 0.220032 0.457855
0.529205 0.246735 0.458984
0.605225 0.273529 0.459869
0.675781 0.302094 0.466309
0.251770 0.198639 0.406097
0.299622 0.234589 0.434875
0.359711 0.264587 0.461823
0.430359 0.291443 0.477173
0.504364 0.316986 0.490051
0.575592 0.344330 0.501312
0.650482 0.370789 0.507050
0.723846 0.396454 0.520935
0.316254 0.292206 0.420624
0.364532 0.328094 0.448273
0.418915 0.360474 0.478394
0.483307 0.389191 0.500275
0.551758 0.416901 0.517090
0.618805 0.445984 0.530121
0.693817 0.470306 0.547211
0.765137 0.496307 0.564880
0.380951 0.384003 0.443970
0.425446 0.420013 0.481506
0.476562 0.455322 0.504395
0.536285 0.485687 0.530609
0.597717 0.516357 0.550507
0.668915 0.542023 0.570374
0.736115 0.568512 0.597351
0.806793 0.593903 0.619965
0.450531 0.471771 0.475708
0.491394 0.510742 0.506805
0.541748 0.545288 0.536285
0.595978 0.577515 0.567261
0.655182 0.607117 0.599152
0.721619 0.635620 0.617004
0.783447 0.664032 0.647705
0.853241 0.689056 0.675262
0.515717 0.563416 0.498383
0.556427 0.600342 0.541016
0.605560 0.635284 0.571533
0.657898 0.667511 0.608063
0.716339 0.697113 0.641602
0.775574 0.725983 0.677277
0.833252 0.756439 0.708374
0.897400 0.784821 0.732941
0.573761 0.652832 0.552399
0.618164 0.686707 0.601837
0.660889 0.724915 0.632202
0.709442 0.758911 0.668976
0.762299 0.791382 0.702820
0.817322 0.822510 0.737732
0.875183 0.852142 0.772827
0.940918 0.880432 0.793671
0.125977 0.022766 0.437317
0.174286 0.058533 0.465881
0.240906 0.087097 0.482666
0.307281 0.116272 0.497040
0.385651 0.142883 0.492767
0.464966 0.168030 0.493286
0.537903 0.196869 0.491852
0.616272 0.223999 0.484344
0.196808 0.107635 0.481201
0.244781 0.143219 0.511200
0.303711 0.174438 0.535339
0.375610 0.201416 0.546143
0.452667 0.226837 0.551697
0.529602 0.253937 0.548462
0.605377 0.280640 0.550354
0.681946 0.307495 0.549622
0.261017 0.200195 0.501892
0.306427 0.238251 0.525665
0.362061 0.269592 0.557526
0.432098 0.296753 0.572906
0.507812 0.321320 0.586487
0.580872 0.349121 0.590240
0.654816 0.375763 0.597382
0.728088 0.402740 0.604645
0.325562 0.296082 0.503540
0.369720 0.331238 0.546204
0.423859 0.364899 0.569977
0.486633 0.394043 0.594421
0.557068 0.420441 0.612610
0.630188 0.446625 0.624634
0.702759 0.473022 0.637238
0.776459 0.498138 0.653351
0.383514 0.389984 0.533813
0.428101 0.426453 0.568634
0.476868 0.462219 0.595673
0.537903 0.491455 0.624298
0.611603 0.516205 0.642456
0.676697 0.545013 0.662262
0.747803 0.571075 0.680481
0.819885 0.597015 0.696686
0.443970 0.483826 0.557831
0.487274 0.520050 0.597198
0.532532 0.556458 0.630707
0.591431 0.587036 0.657867
0.657257 0.613892 0.686218
0.723724 0.641602 0.708008
0.794800 0.667786 0.725739
0.863251 0.694763 0.746368
0.503754 0.575745 0.593964
0.544464 0.614410 0.627319
0.594513 0.648773 0.658264
0.647217 0.681366 0.691864
0.702911 0.712769 0.723419
0.769318 0.739594 0.750458
0.839050 0.765411 0.773376
0.898102 0.796417 0.798065
0.569885 0.666809 0.617096
0.606323 0.705750 0.660828
0.656525 0.738892 0.697906
0.707092 0.772003 0.734314
0.763336 0.803436 0.764465
0.825195 0.831635 0.796204
0.878998 0.863312 0.831696
0.939697 0.891510 0.866699
