content/luts/vintage/vintage_12.cube
#Created by: Adobe Photoshop Export Color Lookup Plugin
#Copyright: (C) Copyright 2022 inPixio
TITLE "Retro Vintage 12"
#LUT size
LUT_3D_SIZE 8
#data domain
#LUT data points
DOMAIN_MIN 0.000000 0.000000 0.000000
DOMAIN_MAX 0.903226 0.903226 0.903226
0.000000 0.000000 0.000000
0.112427 0.002747 0.030579
0.238556 0.000031 0.053406
0.355133 0.000031 0.087189
0.466919 0.000031 0.134369
0.581573 0.000031 0.173492
0.700104 0.000031 0.201965
0.833038 0.000031 0.191559
0.076660 0.073120 0.090851
0.137512 0.110046 0.078674
0.266663 0.107269 0.093231
0.417999 0.091644 0.116425
0.568420 0.078827 0.126648
0.720673 0.060822 0.160004
0.835876 0.061310 0.195038
0.887268 0.093079 0.236420
0.128021 0.164825 0.150787
0.165802 0.206940 0.174042
0.262512 0.224945 0.165375
0.412476 0.220093 0.134430
0.554199 0.212769 0.139130
0.704590 0.199066 0.154297
0.825470 0.195343 0.196747
0.900269 0.211945 0.255463
0.161865 0.263428 0.221802
0.212616 0.297882 0.250580
0.240021 0.349060 0.253296
0.375244 0.352844 0.215973
0.536194 0.348938 0.149963
0.689240 0.332977 0.170074
0.810608 0.329132 0.211487
0.897522 0.338104 0.278534
0.161255 0.383636 0.271057
0.217987 0.414337 0.303253
0.241425 0.466339 0.312653
0.308899 0.499176 0.304260
0.481720 0.488678 0.241241
0.645081 0.477997 0.204742
0.790222 0.463348 0.239685
0.889648 0.464874 0.312042
0.201721 0.484100 0.313934
0.258148 0.514557 0.348450
0.316345 0.545685 0.374664
0.351440 0.590790 0.388885
0.435638 0.615906 0.376434
0.584320 0.611755 0.345215
0.729431 0.603424 0.346008
0.859802 0.595062 0.387085
0.328094 0.541870 0.351349
0.375092 0.576477 0.389648
0.434448 0.603577 0.434082
0.476746 0.643341 0.457397
0.538330 0.671509 0.490234
0.602692 0.704254 0.490845
0.708893 0.715729 0.491821
0.813782 0.724121 0.512482
0.469635 0.580597 0.449921
0.525574 0.614899 0.465118
0.564392 0.652954 0.507233
0.604523 0.691437 0.543152
0.647186 0.728149 0.581787
0.696198 0.763123 0.612457
0.752380 0.795898 0.635254
0.825714 0.819153 0.662537
0.013855 0.007141 0.052917
0.080719 0.030487 0.097168
0.200623 0.034546 0.100311
0.320496 0.037903 0.107208
0.496796 0.014404 0.104736
0.646057 0.000031 0.126556
0.762146 0.000031 0.161774
0.852234 0.015045 0.187439
0.084320 0.089783 0.109741
0.143768 0.117859 0.148834
0.225555 0.138641 0.166077
0.365997 0.132233 0.169434
0.533447 0.115326 0.155304
0.691620 0.100464 0.155609
0.826477 0.090088 0.195465
0.896790 0.111847 0.238586
0.149841 0.172119 0.181244
0.206818 0.201630 0.219727
0.260712 0.236023 0.240082
0.390259 0.239319 0.220734
0.539612 0.235321 0.186890
0.696716 0.223969 0.171112
0.828339 0.214172 0.216827
0.911011 0.229156 0.262817
0.187469 0.269196 0.250092
0.235291 0.303955 0.285004
0.290131 0.338562 0.301880
0.379486 0.360504 0.292328
0.532959 0.360504 0.225891
0.687805 0.353943 0.190613
0.817230 0.347870 0.221893
0.914886 0.350037 0.296143
0.181854 0.392242 0.297607
0.238220 0.421661 0.337921
0.307800 0.447083 0.363861
0.330872 0.501160 0.362762
0.487274 0.497803 0.306244
0.644653 0.494873 0.244507
0.804352 0.478241 0.250153
0.903473 0.478577 0.330048
0.210449 0.498871 0.339996
0.267487 0.529480 0.371857
0.341949 0.551697 0.401642
0.388702 0.591003 0.415161
0.454742 0.622742 0.416656
0.588623 0.626343 0.384460
0.743866 0.617889 0.358185
0.874878 0.608612 0.402649
0.333221 0.557495 0.382568
0.386047 0.590363 0.414276
0.449432 0.617035 0.450165
0.495361 0.654114 0.477905
0.547058 0.689117 0.501007
0.616394 0.716461 0.517212
0.722137 0.730621 0.504944
0.827179 0.739502 0.522430
0.480713 0.599396 0.447845
0.529602 0.633575 0.483032
0.577606 0.667053 0.524597
0.621796 0.704010 0.557526
0.662476 0.742676 0.591370
0.708801 0.777893 0.627716
0.763367 0.811951 0.648254
0.843384 0.831482 0.677155
0.000031 0.029083 0.102020
0.034851 0.064575 0.168427
0.149323 0.066223 0.199432
0.288940 0.060211 0.202789
0.451355 0.041595 0.211609
0.595673 0.034088 0.210205
0.765015 0.015747 0.198517
0.852051 0.038391 0.191711
0.061096 0.114471 0.169617
0.110138 0.149719 0.198669
0.205475 0.159546 0.237610
0.320770 0.163025 0.256653
0.466919 0.152527 0.266113
0.632568 0.133728 0.267334
0.800720 0.117828 0.245728
0.899719 0.133881 0.241547
0.124908 0.200195 0.227631
0.172821 0.235046 0.262115
0.266541 0.249969 0.278168
0.349609 0.267365 0.310120
0.491089 0.259918 0.316467
0.657227 0.244293 0.298798
0.807404 0.239258 0.268463
0.918091 0.248108 0.270874
0.200104 0.279388 0.290161
0.244965 0.317078 0.317444
0.325867 0.335846 0.348114
0.383423 0.368134 0.369781
0.507538 0.375061 0.346100
0.655121 0.369598 0.324677
0.803406 0.364166 0.301178
0.920837 0.369049 0.306946
0.215912 0.393646 0.326233
0.274414 0.421326 0.370178
0.347198 0.444000 0.401855
0.406036 0.475616 0.423767
0.481415 0.507202 0.400665
0.629791 0.505310 0.358063
0.786499 0.495697 0.334259
0.908112 0.496735 0.348846
0.225708 0.507050 0.383453
0.278687 0.539276 0.417847
0.356354 0.562317 0.434174
0.436951 0.582703 0.457092
0.484100 0.622253 0.468292
0.595581 0.633789 0.454529
0.738373 0.633270 0.419708
0.876648 0.628571 0.419861
0.333435 0.577942 0.401459
0.391327 0.605988 0.445068
0.451355 0.635406 0.475372
0.527222 0.656250 0.508362
0.578918 0.691376 0.531219
0.631775 0.725525 0.555481
0.728210 0.743896 0.546173
0.834259 0.755707 0.545349
0.494568 0.613739 0.462189
0.530060 0.653259 0.505005
0.586761 0.683167 0.541992
0.642822 0.712769 0.582245
0.686646 0.749512 0.617706
0.726227 0.789978 0.644379
0.778381 0.823914 0.671997
0.845276 0.851837 0.691833
0.000031 0.048248 0.128143
0.000031 0.092651 0.241791
0.053864 0.122528 0.286743
0.220520 0.099335 0.308441
0.394989 0.075806 0.310852
0.556946 0.061157 0.299744
0.678589 0.067200 0.287323
0.775909 0.087341 0.265839
0.031586 0.136932 0.258514
0.071442 0.176178 0.291290
0.147003 0.199219 0.313202
0.265625 0.197571 0.350616
0.430328 0.176544 0.366150
0.593353 0.161469 0.354370
0.721466 0.163452 0.346252
0.834320 0.174591 0.330566
0.090332 0.226929 0.307495
0.136780 0.264130 0.333588
0.213135 0.286255 0.358337
0.315643 0.296051 0.377899
0.444305 0.291718 0.402405
0.600037 0.278198 0.402161
0.730560 0.279053 0.393646
0.876221 0.273560 0.377533
0.148834 0.318817 0.347412
0.183899 0.359344 0.386047
0.265381 0.379608 0.407440
0.380768 0.384186 0.419983
0.456970 0.406464 0.444550
0.600952 0.398773 0.445099
0.756805 0.386871 0.435577
0.885651 0.391266 0.412781
0.191925 0.415436 0.403778
0.235626 0.453308 0.433563
0.333191 0.465515 0.453857
0.424530 0.480713 0.475006
0.498505 0.507355 0.482422
0.608917 0.517822 0.476959
0.753052 0.514099 0.455780
0.879211 0.517944 0.442902
0.235931 0.517670 0.427704
0.280609 0.553589 0.464905
0.366791 0.571472 0.485962
0.454773 0.587738 0.510559
0.530518 0.612610 0.522797
0.590973 0.646759 0.526550
0.730225 0.647614 0.493774
0.864868 0.645386 0.490814
0.337952 0.591980 0.442841
0.376038 0.632812 0.471924
0.438202 0.660614 0.505127
0.522400 0.677979 0.534027
0.603333 0.697693 0.559662
0.654510 0.732056 0.587585
0.732056 0.756073 0.599335
0.835876 0.770355 0.591492
0.502747 0.629761 0.482758
0.536835 0.670929 0.520905
0.583191 0.706146 0.557648
0.646881 0.732544 0.594147
0.705322 0.760345 0.637787
0.750305 0.797241 0.668945
0.792114 0.836395 0.696747
0.861115 0.863647 0.714386
0.000031 0.069336 0.144135
0.000031 0.116638 0.242523
0.000031 0.164612 0.337036
0.088745 0.171021 0.412384
0.310791 0.122559 0.418823
0.496674 0.094910 0.412048
0.609100 0.114227 0.353699
0.676758 0.154327 0.306000
0.000031 0.167389 0.310394
0.013824 0.209656 0.397919
0.057465 0.250244 0.413208
0.174225 0.251678 0.438782
0.353088 0.220398 0.470886
0.532654 0.195526 0.466248
0.654388 0.209625 0.410370
0.728546 0.243317 0.379547
0.045471 0.261780 0.372101
0.084778 0.299957 0.412048
0.128296 0.338165 0.440247
0.253723 0.339020 0.445282
0.377899 0.333099 0.490723
0.543671 0.312653 0.500031
0.666565 0.324249 0.454803
0.765137 0.344666 0.428162
0.097076 0.355499 0.420776
0.133698 0.395538 0.457916
0.176605 0.434418 0.484528
0.314575 0.430847 0.479187
0.425323 0.434906 0.507294
0.553925 0.430969 0.529510
0.672455 0.443115 0.493073
0.807129 0.441528 0.486176
0.153320 0.449585 0.455017
0.182800 0.493256 0.492493
0.225311 0.529663 0.532959
0.366638 0.524048 0.529358
0.477722 0.532623 0.532623
0.572937 0.547119 0.546997
0.697540 0.550323 0.541962
0.843536 0.542328 0.538544
0.206116 0.544617 0.493530
0.246277 0.583160 0.528992
0.286591 0.621155 0.567169
0.414307 0.622070 0.565765
0.531464 0.626709 0.573456
0.613556 0.647949 0.587494
0.720734 0.660645 0.578796
0.843689 0.665955 0.567047
0.339233 0.607697 0.484100
0.378662 0.646698 0.519196
0.421631 0.684113 0.553314
0.498474 0.706329 0.576538
0.594147 0.719025 0.599213
0.676117 0.738098 0.625519
0.737915 0.769897 0.638214
0.839233 0.783936 0.638458
0.512756 0.644196 0.507050
0.544525 0.687622 0.539734
0.588257 0.723877 0.577759
0.633972 0.759186 0.615479
0.705475 0.781006 0.655518
0.769745 0.807587 0.689301
0.815765 0.843475 0.723419
0.872589 0.876495 0.743164
0.000031 0.088501 0.170410
0.000031 0.136108 0.267059
0.000031 0.184113 0.361298
0.015991 0.229523 0.426086
0.161896 0.209808 0.485840
0.371185 0.169159 0.485016
0.554779 0.142120 0.481415
0.622803 0.190918 0.385742
0.000031 0.184845 0.345825
0.014282 0.230103 0.415802
0.056854 0.268250 0.447113
0.094421 0.308838 0.478729
0.236145 0.294952 0.518860
0.426575 0.260590 0.535614
0.603088 0.237488 0.530090
0.678192 0.279327 0.452881
0.047638 0.277344 0.411560
0.081787 0.318970 0.447235
0.117310 0.359802 0.483154
0.167542 0.393982 0.515045
0.308899 0.387329 0.516998
0.451416 0.372711 0.558685
0.622498 0.351776 0.556335
0.706879 0.386169 0.493347
0.113800 0.368561 0.434113
0.153687 0.406677 0.472717
0.191956 0.444946 0.515015
0.238220 0.481750 0.543243
0.376129 0.479187 0.533112
0.488770 0.480560 0.570129
0.638977 0.466827 0.585999
0.727173 0.496277 0.539551
0.177490 0.458344 0.471100
0.209839 0.499756 0.512787
0.254456 0.535034 0.553619
0.300690 0.571289 0.584839
0.437958 0.570160 0.568756
0.538361 0.581512 0.585815
0.653107 0.583405 0.614655
0.753052 0.604675 0.579773
0.241852 0.547974 0.506989
0.283936 0.585876 0.540710
0.323669 0.623322 0.583496
0.366791 0.660767 0.617004
0.486725 0.665588 0.615997
0.594757 0.675079 0.622345
0.694000 0.687164 0.638580
0.805023 0.696350 0.638428
0.330963 0.627472 0.529694
0.370850 0.664703 0.572998
0.412201 0.702484 0.609406
0.444672 0.744965 0.645050
0.543213 0.758148 0.657318
0.667145 0.758331 0.670532
0.751709 0.777771 0.687439
0.843811 0.797272 0.683289
0.500946 0.669464 0.532837
0.547699 0.703400 0.575256
0.588806 0.741241 0.611938
0.632721 0.778687 0.643341
0.687042 0.809875 0.679962
0.770203 0.827240 0.711609
0.829712 0.855530 0.749786
0.882874 0.890350 0.769775
0.000031 0.107025 0.200012
0.000031 0.156128 0.288635
0.027374 0.197021 0.346436
0.069519 0.233459 0.387909
0.110809 0.267914 0.442505
0.242340 0.256134 0.498871
0.407776 0.236481 0.505188
0.564575 0.226074 0.485016
0.021027 0.197510 0.349548
0.061401 0.236237 0.383484
0.100677 0.274109 0.425415
0.138062 0.313385 0.464539
0.187103 0.348145 0.496277
0.309082 0.341339 0.552094
0.469208 0.324493 0.557373
0.624298 0.311340 0.557129
0.094421 0.281494 0.390930
0.135742 0.318787 0.430237
0.169098 0.359497 0.472717
0.206635 0.398529 0.512909
0.265808 0.430725 0.530548
0.377441 0.432343 0.569733
0.512817 0.424896 0.592133
0.661621 0.415314 0.589508
0.169922 0.363586 0.436829
0.209564 0.402222 0.473083
0.245483 0.443085 0.507996
0.281921 0.482788 0.547699
0.336975 0.515961 0.571503
0.449951 0.522705 0.579132
0.552795 0.529388 0.614899
0.690796 0.522949 0.624664
0.240509 0.451996 0.462250
0.284241 0.486877 0.507996
0.319366 0.527710 0.545013
0.359375 0.565948 0.582520
0.403015 0.603027 0.616547
0.521637 0.611176 0.601318
0.611511 0.623291 0.643158
0.728210 0.627411 0.654724
0.319794 0.532928 0.504089
0.356049 0.572968 0.542236
0.396057 0.610718 0.582642
0.428894 0.652557 0.620544
0.473328 0.688507 0.658539
0.586060 0.697266 0.655884
0.673126 0.716766 0.665771
0.773071 0.725891 0.696289
0.401215 0.612701 0.546417
0.442444 0.651794 0.575897
0.477661 0.690796 0.622498
0.516998 0.728516 0.665131
0.554626 0.768555 0.699463
0.649811 0.784790 0.704834
0.743805 0.800354 0.716736
0.829956 0.817932 0.739258
0.514252 0.679077 0.574097
0.558990 0.715088 0.610962
0.595306 0.754456 0.652496
0.633789 0.794067 0.686798
0.666199 0.835327 0.729309
0.730286 0.864502 0.749634
0.831879 0.874512 0.770905
0.896057 0.901123 0.804993
0.009460 0.126984 0.196045
0.048187 0.165710 0.234802
0.086884 0.204407 0.273468
0.118469 0.245117 0.320770
0.158966 0.283569 0.356171
0.203888 0.316986 0.406311
0.304596 0.320648 0.464081
0.435638 0.314453 0.491669
0.082489 0.204559 0.273102
0.121033 0.243469 0.310913
0.160217 0.281555 0.351868
0.198181 0.320618 0.390564
0.233093 0.360962 0.431183
0.279358 0.391449 0.493286
0.381073 0.395874 0.543884
0.509705 0.391663 0.567627
0.158264 0.281494 0.345856
0.202545 0.318420 0.378998
0.236511 0.357849 0.426666
0.275513 0.396851 0.463135
0.314240 0.435547 0.501831
0.371307 0.465546 0.537140
0.448120 0.482269 0.589935
0.571381 0.481812 0.607819
0.238922 0.359985 0.396790
0.273712 0.400085 0.438690
0.311096 0.440002 0.474792
0.351837 0.477081 0.516571
0.386444 0.517273 0.558502
0.445526 0.549255 0.577850
0.524475 0.566956 0.619598
0.625244 0.576538 0.645081
0.307281 0.444916 0.447205
0.356934 0.478363 0.484283
0.389221 0.520020 0.524567
0.427124 0.559052 0.563599
0.467682 0.596588 0.603790
0.515686 0.632324 0.632935
0.604065 0.650604 0.646057
0.689484 0.665710 0.683929
0.398285 0.519836 0.489349
0.431458 0.560608 0.532013
0.471497 0.598755 0.570160
0.510193 0.637451 0.608856
0.549133 0.675507 0.650696
0.588501 0.714478 0.685883
0.680573 0.733063 0.687012
0.749176 0.757538 0.720703
0.475464 0.599548 0.543518
0.518341 0.637268 0.575897
0.555817 0.675720 0.619324
0.594513 0.714447 0.658020
0.631653 0.753845 0.697418
0.662933 0.795624 0.740082
0.745850 0.817688 0.747345
0.825287 0.838318 0.771637
0.565430 0.674866 0.586060
0.602966 0.713287 0.629547
0.644196 0.751099 0.666077
0.682617 0.789490 0.707153
0.721344 0.828247 0.745880
0.758514 0.867676 0.784821
0.819977 0.897919 0.806824
0.901733 0.918671 0.824554
