content/luts/vintage/vintage_08.cube
#Created by: Adobe Photoshop Export Color Lookup Plugin
#Copyright: (C) Copyright 2022 inPixio
TITLE "Retro Vintage 8"
#LUT size
LUT_3D_SIZE 32
#data domain
DOMAIN_MIN 0.0 0.0 0.0
DOMAIN_MAX 1.0 1.0 1.0
#LUT data points
0.000000 0.000000 0.000000
0.012756 0.009918 0.000031
0.028564 0.018311 0.000031
0.049042 0.024292 0.000031
0.075409 0.027283 0.000031
0.101135 0.030579 0.000031
0.123505 0.035645 0.000031
0.149872 0.038666 0.000031
0.180298 0.039581 0.000031
0.208160 0.041809 0.000031
0.234528 0.044800 0.000031
0.265137 0.045624 0.000031
0.297424 0.045593 0.000031
0.328064 0.046417 0.000031
0.356354 0.047699 0.003906
0.383209 0.050262 0.004730
0.407990 0.053772 0.006714
0.428741 0.058868 0.010529
0.443359 0.067413 0.013000
0.465118 0.071960 0.017059
0.487335 0.075958 0.022949
0.508240 0.080658 0.028656
0.526764 0.087036 0.032013
0.545258 0.093384 0.035339
0.561676 0.099945 0.043396
0.578674 0.106445 0.050140
0.596802 0.112946 0.054108
0.612854 0.119873 0.061066
0.629181 0.127106 0.065613
0.644135 0.134705 0.071960
0.657990 0.142487 0.080627
0.671570 0.149994 0.091187
0.023102 0.020508 0.000031
0.030975 0.032928 0.000031
0.053314 0.037994 0.000031
0.076996 0.042358 0.000031
0.104218 0.044922 0.000031
0.123718 0.051361 0.000000
0.144989 0.056458 0.002563
0.172302 0.059448 0.000000
0.202087 0.060669 0.000061
0.230652 0.061890 0.003571
0.258575 0.062897 0.010406
0.287018 0.065399 0.007324
0.313080 0.068207 0.009003
0.340240 0.070282 0.011841
0.371796 0.069214 0.019348
0.393616 0.073975 0.022339
0.415070 0.079071 0.024414
0.435547 0.084351 0.028198
0.456360 0.089508 0.032074
0.478149 0.094086 0.036133
0.497925 0.099426 0.041504
0.518646 0.104218 0.047150
0.539734 0.109131 0.051056
0.558289 0.115509 0.054413
0.576782 0.121887 0.057739
0.594299 0.128143 0.064148
0.612823 0.134003 0.070129
0.631866 0.138885 0.080048
0.644775 0.148010 0.083862
0.661530 0.154633 0.090607
0.677032 0.161530 0.099670
0.690582 0.169037 0.110199
0.041351 0.043488 0.000031
0.052856 0.054047 0.000031
0.067474 0.062958 0.000031
0.097748 0.063995 0.000366
0.122101 0.066437 0.008606
0.138855 0.073578 0.012726
0.160950 0.077698 0.018127
0.185577 0.082245 0.014679
0.214722 0.084320 0.011963
0.242401 0.085785 0.016479
0.270874 0.086823 0.021301
0.300659 0.087250 0.025787
0.325165 0.091248 0.025238
0.350494 0.094330 0.027802
0.378784 0.094940 0.035583
0.403076 0.098083 0.040375
0.424622 0.102905 0.043701
0.444489 0.108765 0.045898
0.466370 0.113922 0.046509
0.491089 0.116150 0.055176
0.509552 0.122070 0.061096
0.529083 0.127686 0.065704
0.551483 0.132111 0.069000
0.569763 0.138245 0.074097
0.588287 0.144623 0.077454
0.606628 0.150848 0.082031
0.625397 0.156464 0.088654
0.646179 0.160400 0.098663
0.661041 0.168579 0.102295
0.674164 0.176880 0.109833
0.693451 0.182129 0.117249
0.711578 0.187866 0.124725
0.057831 0.067352 0.000031
0.066772 0.077545 0.008850
0.087341 0.082672 0.013458
0.105896 0.090332 0.009491
0.131958 0.091705 0.019226
0.149017 0.098389 0.024658
0.175201 0.101074 0.026825
0.199158 0.104675 0.030304
0.225769 0.108521 0.025024
0.249695 0.111694 0.030731
0.277130 0.113312 0.035370
0.306976 0.113831 0.038940
0.336243 0.114990 0.040863
0.359650 0.119171 0.042511
0.386475 0.120697 0.049103
0.408905 0.124908 0.053314
0.432739 0.127991 0.060181
0.455597 0.131989 0.064178
0.477570 0.137543 0.062500
0.501404 0.140350 0.070404
0.522064 0.144958 0.077148
0.540253 0.151001 0.083191
0.562897 0.155548 0.084961
0.582001 0.161377 0.089661
0.601044 0.166992 0.095520
0.620880 0.172180 0.101593
0.637604 0.178772 0.108704
0.656250 0.183777 0.118988
0.673523 0.190918 0.121613
0.689301 0.198090 0.127991
0.704041 0.204987 0.138824
0.727692 0.208527 0.143127
0.078827 0.088928 0.000031
0.082947 0.100281 0.016144
0.101074 0.105377 0.027191
0.123444 0.110138 0.028564
0.142090 0.118195 0.022552
0.155670 0.125702 0.033112
0.182373 0.128357 0.034119
0.208832 0.131042 0.035400
0.231781 0.135010 0.039398
0.254211 0.139221 0.043610
0.279938 0.141693 0.048584
0.309082 0.142487 0.052795
0.338562 0.143524 0.054565
0.365082 0.146484 0.054504
0.393219 0.147797 0.058624
0.416931 0.151550 0.061737
0.439636 0.155243 0.068085
0.464264 0.157349 0.077393
0.488861 0.160675 0.080750
0.511169 0.164551 0.087006
0.531982 0.169403 0.092255
0.551514 0.175171 0.095978
0.573883 0.179443 0.100098
0.594482 0.184875 0.102509
0.614899 0.189728 0.108887
0.635437 0.194061 0.117645
0.656250 0.198181 0.126587
0.665588 0.207520 0.138947
0.682953 0.214630 0.141510
0.701202 0.220734 0.146881
0.718750 0.226532 0.156189
0.736267 0.231903 0.167633
0.085114 0.116852 0.006165
0.100830 0.123474 0.015808
0.115112 0.129517 0.032379
0.132599 0.135376 0.041260
0.149048 0.143372 0.041656
0.174286 0.147339 0.039551
0.191681 0.153595 0.046326
0.214355 0.157806 0.050018
0.237823 0.161560 0.053772
0.263977 0.164185 0.056396
0.286377 0.168365 0.060577
0.314697 0.169342 0.066101
0.344574 0.170013 0.068939
0.372650 0.172272 0.068176
0.393311 0.177765 0.070618
0.424561 0.177399 0.075439
0.449677 0.179718 0.082336
0.471375 0.183441 0.091339
0.490082 0.189240 0.097168
0.512665 0.193359 0.101257
0.537262 0.195953 0.108154
0.560120 0.199585 0.114319
0.580841 0.204590 0.119202
0.601471 0.210052 0.121643
0.623199 0.214325 0.127441
0.643799 0.218628 0.136139
0.663574 0.223236 0.145294
0.681732 0.229736 0.149017
0.697235 0.237274 0.154297
0.714874 0.243530 0.160553
0.732086 0.249481 0.169556
0.748108 0.255890 0.179474
0.099304 0.139648 0.018341
0.113220 0.147003 0.028717
0.128143 0.154968 0.033264
0.144379 0.161072 0.044189
0.160065 0.168671 0.048645
0.180542 0.174347 0.050385
0.203430 0.178528 0.053528
0.226410 0.182770 0.056152
0.250183 0.186554 0.059052
0.274384 0.190002 0.062500
0.296417 0.193573 0.071106
0.322876 0.195740 0.075317
0.349243 0.197937 0.079681
0.374420 0.201385 0.080566
0.400940 0.203583 0.084290
0.424377 0.207062 0.089539
0.452576 0.208405 0.093811
0.475403 0.212006 0.100189
0.496216 0.216888 0.105042
0.518280 0.221252 0.109406
0.543671 0.222717 0.120392
0.566711 0.225891 0.128510
0.585358 0.231903 0.133362
0.611664 0.233398 0.141449
0.630463 0.239288 0.146576
0.652374 0.243500 0.152191
0.672791 0.248108 0.160065
0.690857 0.254028 0.166992
0.709259 0.260437 0.170380
0.726288 0.266571 0.178772
0.743103 0.273010 0.186340
0.758240 0.280670 0.192139
0.118347 0.159851 0.031067
0.130371 0.169067 0.036743
0.136627 0.180756 0.045013
0.156433 0.185669 0.052704
0.173584 0.192169 0.058838
0.190155 0.200378 0.057709
0.210388 0.205078 0.065186
0.236450 0.208008 0.066437
0.262299 0.211090 0.067261
0.284760 0.215302 0.071472
0.308044 0.218719 0.077423
0.331024 0.222351 0.083466
0.356964 0.224396 0.089691
0.378601 0.229095 0.093597
0.407898 0.229645 0.098602
0.431641 0.232544 0.106171
0.454987 0.236115 0.111267
0.480133 0.238861 0.115906
0.504364 0.241852 0.121948
0.526794 0.246094 0.126160
0.547516 0.251099 0.130798
0.574860 0.251129 0.143982
0.593781 0.256897 0.149384
0.617828 0.259705 0.156738
0.641327 0.262299 0.166565
0.659668 0.268494 0.171356
0.681458 0.273102 0.175201
0.700348 0.278687 0.181549
0.719360 0.283936 0.189453
0.737854 0.290283 0.193115
0.753082 0.296906 0.204071
0.766449 0.305725 0.208313
0.136414 0.180939 0.041534
0.149170 0.189880 0.046692
0.153381 0.203339 0.050903
0.163727 0.212708 0.060760
0.188995 0.213684 0.074646
0.202606 0.224213 0.068878
0.220978 0.230194 0.074615
0.244080 0.233856 0.080139
0.270569 0.236786 0.080048
0.292999 0.240997 0.084290
0.317719 0.243835 0.089386
0.341034 0.247925 0.091949
0.364166 0.251343 0.098389
0.386017 0.254944 0.107574
0.414948 0.255554 0.113251
0.439758 0.258087 0.120331
0.461853 0.261963 0.127228
0.485382 0.265381 0.132538
0.513184 0.265839 0.142120
0.535889 0.269592 0.148163
0.556763 0.274536 0.152710
0.577026 0.279877 0.156799
0.604675 0.280457 0.166107
0.625885 0.285217 0.170868
0.647919 0.289001 0.178467
0.669434 0.292725 0.187958
0.688599 0.298706 0.191437
0.709351 0.304047 0.194000
0.728790 0.308289 0.206207
0.747253 0.314087 0.212769
0.764679 0.320648 0.217957
0.774353 0.330322 0.227600
0.143250 0.209015 0.045319
0.162231 0.212830 0.061279
0.170898 0.224182 0.064514
0.183563 0.233521 0.067932
0.206116 0.236847 0.076569
0.218231 0.245941 0.082611
0.235748 0.252838 0.085846
0.256439 0.257965 0.089966
0.278198 0.262634 0.093750
0.296692 0.268982 0.097076
0.322235 0.270508 0.107330
0.346130 0.274292 0.109711
0.370178 0.277832 0.113129
0.395416 0.279541 0.123077
0.417847 0.283752 0.127289
0.443970 0.286346 0.130127
0.468323 0.289703 0.133728
0.491882 0.293121 0.139038
0.519684 0.293610 0.148651
0.541931 0.296906 0.158264
0.563934 0.300690 0.165955
0.585999 0.304779 0.171814
0.608734 0.308777 0.176208
0.633301 0.312073 0.179504
0.654724 0.317078 0.182220
0.675018 0.321960 0.188751
0.695068 0.326447 0.197906
0.717529 0.330688 0.202148
0.736267 0.333984 0.221283
0.753479 0.339569 0.232178
0.769775 0.346619 0.237976
0.785248 0.353363 0.247620
0.158997 0.231476 0.055145
0.168732 0.240601 0.067657
0.181366 0.248779 0.077240
0.194855 0.257721 0.080353
0.217590 0.261230 0.087402
0.237213 0.265167 0.100983
0.247833 0.275299 0.105530
0.267426 0.280975 0.109436
0.288879 0.285736 0.113434
0.307404 0.292114 0.116760
0.328247 0.297913 0.116638
0.355835 0.299164 0.122925
0.381042 0.302338 0.125000
0.405914 0.304962 0.131165
0.429626 0.307800 0.139313
0.452057 0.312012 0.143524
0.475586 0.315277 0.149811
0.497620 0.319092 0.157043
0.521118 0.322113 0.164642
0.543427 0.325439 0.174286
0.566925 0.328827 0.179932
0.591034 0.331696 0.186859
0.615448 0.334106 0.195221
0.637451 0.337616 0.204285
0.657471 0.343231 0.207611
0.678192 0.347992 0.213531
0.699493 0.352112 0.221191
0.722717 0.357117 0.218964
0.746124 0.359650 0.229462
0.761719 0.364868 0.246857
0.777252 0.371552 0.256805
0.794403 0.377563 0.265869
0.170837 0.255463 0.066986
0.187042 0.261566 0.078125
0.196625 0.271149 0.088470
0.209045 0.279755 0.096588
0.228973 0.284882 0.102844
0.247131 0.289764 0.114929
0.260681 0.298248 0.120392
0.277557 0.305267 0.124634
0.300537 0.309265 0.128632
0.321564 0.314331 0.131927
0.341980 0.319733 0.135406
0.364380 0.324890 0.134521
0.392151 0.326508 0.138031
0.416626 0.329865 0.141357
0.435944 0.334991 0.149048
0.462280 0.336395 0.157776
0.484375 0.340271 0.164673
0.505707 0.344025 0.174500
0.526642 0.348145 0.183075
0.548431 0.351715 0.192444
0.573273 0.354523 0.197540
0.596497 0.358398 0.201416
0.620178 0.361206 0.209808
0.641266 0.365967 0.214935
0.662750 0.369751 0.224030
0.685822 0.373718 0.227753
0.707611 0.377441 0.236389
0.726105 0.383789 0.239685
0.748474 0.387299 0.248016
0.768677 0.391571 0.257874
0.782013 0.398315 0.273224
0.798035 0.404449 0.284668
0.185547 0.277405 0.082458
0.201447 0.283813 0.092651
0.215881 0.291504 0.099854
0.227264 0.300262 0.109863
0.242584 0.307220 0.118744
0.257477 0.314514 0.126801
0.273193 0.321625 0.133911
0.290375 0.328705 0.137054
0.312195 0.333069 0.142181
0.336182 0.336578 0.146057
0.355988 0.342072 0.150421
0.377228 0.347260 0.152710
0.398743 0.352814 0.152191
0.425110 0.355377 0.154266
0.443207 0.361725 0.158844
0.467896 0.364044 0.167206
0.493378 0.365570 0.177490
0.516022 0.368774 0.186737
0.536713 0.372772 0.196808
0.559753 0.375549 0.206818
0.580719 0.380219 0.212585
0.605774 0.382996 0.217407
0.626190 0.387970 0.222870
0.647186 0.392792 0.227722
0.668945 0.397064 0.233521
0.689789 0.401215 0.242340
0.717133 0.402771 0.247437
0.732452 0.409485 0.257812
0.753174 0.413513 0.267548
0.771851 0.418671 0.276978
0.789703 0.424377 0.285706
0.803040 0.431122 0.301086
0.208099 0.294617 0.101715
0.217133 0.304657 0.110992
0.230621 0.313354 0.115631
0.245148 0.321289 0.121307
0.258362 0.329071 0.131500
0.270813 0.338501 0.134827
0.289459 0.343750 0.143860
0.309143 0.348999 0.150024
0.329132 0.354553 0.153564
0.349091 0.359344 0.161377
0.367950 0.365417 0.165436
0.387726 0.371277 0.168243
0.407623 0.377136 0.170441
0.427094 0.383453 0.171448
0.450195 0.388336 0.170227
0.475311 0.390930 0.175629
0.500000 0.393097 0.184631
0.524109 0.395325 0.195068
0.550110 0.397034 0.202850
0.575714 0.398590 0.213013
0.595490 0.403595 0.220032
0.613861 0.409546 0.226013
0.635620 0.413086 0.235626
0.657379 0.416626 0.245239
0.679718 0.420502 0.251373
0.700073 0.425415 0.257690
0.718567 0.430756 0.266327
0.740326 0.434326 0.275940
0.761780 0.438049 0.285492
0.780609 0.442963 0.295471
0.795532 0.449921 0.305450
0.813416 0.455658 0.314240
0.225983 0.315552 0.113525
0.228149 0.329865 0.118744
0.243469 0.337585 0.123535
0.260864 0.344116 0.128937
0.276825 0.350708 0.138184
0.286652 0.360382 0.147614
0.307098 0.365173 0.153931
0.324646 0.371704 0.159180
0.340424 0.379486 0.162292
0.355621 0.387115 0.167908
0.377289 0.390686 0.177429
0.396210 0.396729 0.181549
0.415039 0.402771 0.185699
0.434021 0.408600 0.190491
0.460358 0.410645 0.195587
0.483215 0.415314 0.196564
0.506500 0.419067 0.200714
0.529999 0.422455 0.206635
0.556305 0.424469 0.212067
0.580322 0.427002 0.220673
0.599487 0.431854 0.230347
0.618073 0.437286 0.238556
0.641449 0.440155 0.247498
0.663208 0.443726 0.257141
0.686310 0.446320 0.268097
0.707031 0.450592 0.276794
0.725555 0.455963 0.285187
0.747620 0.459808 0.292328
0.765961 0.465271 0.301178
0.787750 0.468323 0.313232
0.802887 0.474457 0.326965
0.807281 0.485931 0.341461
0.252563 0.333160 0.119629
0.253937 0.346680 0.131226
0.258667 0.359222 0.138977
0.272583 0.367584 0.144318
0.287964 0.374603 0.152466
0.305695 0.380219 0.162109
0.315887 0.389618 0.171661
0.337799 0.393341 0.180054
0.355011 0.399933 0.185883
0.371216 0.406769 0.192993
0.391144 0.413788 0.188873
0.410309 0.418762 0.197906
0.428040 0.425507 0.201202
0.446075 0.431915 0.205597
0.470673 0.434387 0.213257
0.494476 0.438690 0.213379
0.516205 0.443695 0.215363
0.538177 0.448364 0.218506
0.562439 0.451843 0.221497
0.584839 0.455170 0.230621
0.608734 0.457794 0.239349
0.626160 0.463074 0.251190
0.647003 0.466583 0.263702
0.673279 0.467834 0.273285
0.692108 0.472992 0.282227
0.713470 0.476257 0.294373
0.732422 0.481049 0.304718
0.754364 0.484772 0.313385
0.772980 0.490509 0.319733
0.793945 0.494019 0.331573
0.810120 0.499542 0.345734
0.810059 0.513153 0.360840
0.267456 0.355652 0.131470
0.275360 0.366577 0.139374
0.283356 0.376312 0.153046
0.293518 0.386261 0.159943
0.303314 0.396393 0.167053
0.318268 0.403412 0.176727
0.334351 0.410400 0.183197
0.349518 0.417206 0.193298
0.370300 0.421295 0.202667
0.388153 0.427002 0.211426
0.404236 0.435486 0.210052
0.422882 0.442017 0.212006
0.441650 0.447479 0.219391
0.458801 0.454742 0.221619
0.479553 0.459320 0.228455
0.502625 0.463562 0.230682
0.527557 0.467224 0.231293
0.548462 0.472290 0.235229
0.570892 0.476532 0.239075
0.591125 0.481567 0.244873
0.613129 0.484985 0.254395
0.637024 0.487640 0.263092
0.655243 0.491943 0.278259
0.680267 0.493805 0.287842
0.701538 0.497620 0.297729
0.720673 0.503204 0.303589
0.739838 0.507202 0.317688
0.760437 0.510590 0.331207
0.778748 0.515991 0.340424
0.797150 0.521515 0.348450
0.819244 0.524109 0.362305
0.822510 0.536224 0.376343
0.272156 0.381958 0.150604
0.286987 0.390076 0.154541
0.299500 0.398407 0.163757
0.313171 0.406036 0.173492
0.328857 0.413361 0.179321
0.333099 0.425690 0.189636
0.348297 0.433563 0.193848
0.366974 0.439087 0.201263
0.385345 0.444305 0.211151
0.403198 0.450012 0.219910
0.416229 0.458984 0.224457
0.432434 0.466064 0.230164
0.450989 0.472015 0.235443
0.471130 0.477234 0.240417
0.487793 0.484406 0.244537
0.509155 0.489441 0.247192
0.532990 0.493286 0.249512
0.558533 0.496429 0.251373
0.580292 0.499969 0.260986
0.599213 0.506226 0.263733
0.621002 0.510193 0.270966
0.643005 0.513611 0.280457
0.666809 0.516296 0.289215
0.688599 0.519836 0.298828
0.709442 0.523468 0.310425
0.728119 0.528870 0.318359
0.748230 0.534302 0.322296
0.766479 0.537506 0.343201
0.785309 0.541931 0.356476
0.802795 0.547272 0.368011
0.820251 0.552948 0.377869
0.839539 0.557068 0.391113
0.291168 0.401001 0.169617
0.306915 0.407623 0.179260
0.317474 0.417908 0.183258
0.328308 0.428497 0.184967
0.341400 0.438080 0.185822
0.352203 0.445831 0.202698
0.365570 0.454620 0.206940
0.382050 0.461243 0.214294
0.398865 0.467163 0.224792
0.412933 0.474945 0.232666
0.427002 0.482697 0.240540
0.443451 0.489258 0.248627
0.461548 0.495209 0.255096
0.480225 0.501495 0.258606
0.498749 0.507874 0.261963
0.520172 0.512604 0.266052
0.542664 0.516846 0.270050
0.565125 0.521240 0.273163
0.586090 0.527008 0.272858
0.605469 0.533752 0.271759
0.630005 0.536652 0.277435
0.655304 0.538422 0.287048
0.677246 0.541870 0.296600
0.699005 0.545441 0.306213
0.721588 0.547546 0.321228
0.740082 0.552246 0.333405
0.755188 0.559479 0.341400
0.772705 0.564850 0.352844
0.795258 0.567078 0.367432
0.814270 0.570892 0.382904
0.830780 0.576141 0.397766
0.846497 0.582245 0.410187
0.309814 0.422394 0.177094
0.319977 0.431824 0.186768
0.335693 0.438416 0.196411
0.347839 0.447266 0.203766
0.360779 0.456024 0.209473
0.370728 0.465332 0.220673
0.380554 0.474701 0.231537
0.394745 0.483307 0.234589
0.411163 0.489868 0.242676
0.427460 0.496033 0.252899
0.445312 0.502228 0.259094
0.462280 0.509094 0.263916
0.480530 0.515198 0.269287
0.498535 0.521820 0.272614
0.511993 0.530731 0.275940
0.533630 0.535400 0.279999
0.553955 0.540558 0.285156
0.573792 0.545990 0.289917
0.593018 0.552185 0.292206
0.620239 0.553070 0.300934
0.640961 0.559753 0.296631
0.663666 0.563721 0.301483
0.683197 0.568451 0.310638
0.706512 0.570923 0.321838
0.728027 0.574219 0.333466
0.748901 0.577118 0.349152
0.765991 0.582428 0.362061
0.784576 0.586609 0.376862
0.800507 0.593048 0.386719
0.820282 0.597382 0.397522
0.837158 0.602112 0.414001
0.852814 0.606781 0.434235
0.329102 0.442810 0.188049
0.337036 0.452637 0.201660
0.351898 0.459167 0.214142
0.362854 0.468597 0.221527
0.374756 0.477234 0.230682
0.387451 0.485352 0.240326
0.397552 0.495453 0.246613
0.413422 0.501465 0.259216
0.427460 0.509949 0.263153
0.442322 0.517242 0.271942
0.462708 0.521667 0.280426
0.478455 0.529053 0.285797
0.495361 0.536102 0.289825
0.512726 0.543091 0.293030
0.527863 0.551880 0.292450
0.545746 0.558533 0.295898
0.565887 0.563507 0.302399
0.585022 0.569214 0.307831
0.605286 0.574799 0.310394
0.628540 0.577698 0.319489
0.651642 0.581055 0.326294
0.673065 0.587311 0.322388
0.692017 0.592957 0.328308
0.714905 0.596375 0.335510
0.734619 0.600922 0.345398
0.756714 0.603394 0.359772
0.776276 0.606781 0.376282
0.795074 0.610382 0.393433
0.813232 0.614899 0.407806
0.827362 0.621674 0.421143
0.845001 0.627411 0.430206
0.861511 0.631775 0.449738
0.347595 0.462341 0.205536
0.356384 0.472137 0.217377
0.369843 0.478882 0.232330
0.383179 0.486908 0.240845
0.388672 0.499603 0.245972
0.403931 0.506409 0.255798
0.416565 0.515503 0.260345
0.427185 0.524353 0.271973
0.447540 0.527985 0.284729
0.458527 0.537994 0.289154
0.477081 0.543152 0.298859
0.495483 0.549377 0.303070
0.510010 0.556824 0.311523
0.524536 0.565033 0.316193
0.541840 0.573212 0.313019
0.559662 0.579529 0.318420
0.579620 0.585297 0.321167
0.596832 0.591644 0.328033
0.618622 0.596741 0.329285
0.640472 0.600342 0.338257
0.660706 0.605316 0.344452
0.680420 0.610870 0.348999
0.701447 0.616577 0.348999
0.723785 0.620697 0.354034
0.742767 0.626007 0.361603
0.763153 0.630066 0.372253
0.785187 0.632385 0.387726
0.803680 0.636200 0.404694
0.821991 0.640350 0.420349
0.835907 0.646423 0.437805
0.853516 0.650848 0.454010
0.871796 0.656250 0.463074
0.363922 0.481689 0.230347
0.376465 0.491058 0.233887
0.390717 0.498016 0.245636
0.403229 0.506348 0.254730
0.412598 0.517853 0.255615
0.426208 0.525391 0.266174
0.440430 0.533783 0.270294
0.450073 0.543182 0.281586
0.457581 0.552734 0.297821
0.475769 0.558777 0.303864
0.489471 0.566254 0.314117
0.506836 0.573395 0.316589
0.524323 0.580109 0.320648
0.539520 0.586212 0.334595
0.556580 0.594147 0.333435
0.573914 0.599731 0.344208
0.593475 0.604980 0.350830
0.615204 0.610413 0.350311
0.630127 0.619263 0.350067
0.651215 0.623383 0.358612
0.670898 0.628662 0.364380
0.689514 0.635010 0.367706
0.708099 0.641327 0.371094
0.730164 0.645172 0.377991
0.749023 0.650482 0.386108
0.769470 0.654724 0.395782
0.791901 0.657715 0.406586
0.809753 0.663422 0.415344
0.827423 0.668274 0.428925
0.839691 0.675110 0.446899
0.853546 0.680878 0.465942
0.882477 0.679443 0.482727
0.381836 0.502655 0.242188
0.395782 0.510529 0.250061
0.409912 0.517181 0.263794
0.422577 0.524567 0.277496
0.432159 0.534882 0.284027
0.442749 0.544983 0.288818
0.453094 0.554291 0.298645
0.468414 0.561523 0.306000
0.480957 0.569519 0.317017
0.492676 0.578705 0.323792
0.504761 0.587372 0.332458
0.522675 0.593384 0.339233
0.539490 0.600342 0.343933
0.552490 0.608276 0.353882
0.568909 0.615570 0.357910
0.589691 0.620056 0.365295
0.603699 0.627991 0.372437
0.619049 0.635986 0.375885
0.641144 0.639374 0.385345
0.659363 0.645966 0.388397
0.678467 0.651398 0.394989
0.697540 0.657318 0.399139
0.717651 0.662994 0.401917
0.737946 0.668121 0.407013
0.755737 0.674530 0.411926
0.775269 0.679993 0.417267
0.796600 0.684418 0.423431
0.811310 0.692291 0.429047
0.836975 0.692535 0.445587
0.853973 0.696594 0.465607
0.867706 0.702637 0.483917
0.888336 0.706543 0.494659
0.400574 0.522156 0.259399
0.414490 0.529999 0.267242
0.422424 0.540466 0.277710
0.440186 0.544678 0.294830
0.453857 0.552002 0.306091
0.461731 0.563690 0.309784
0.473114 0.572815 0.317902
0.486053 0.580811 0.327545
0.502380 0.587158 0.336914
0.514221 0.595917 0.345703
0.524323 0.605408 0.355042
0.536377 0.614410 0.362061
0.555298 0.620331 0.366547
0.570312 0.627869 0.373474
0.588837 0.633240 0.381897
0.597504 0.643799 0.389771
0.619568 0.647675 0.396667
0.633667 0.656311 0.399780
0.654510 0.660828 0.406799
0.668884 0.669128 0.410828
0.689667 0.673950 0.416412
0.708221 0.679626 0.423462
0.727600 0.685211 0.428528
0.746643 0.691223 0.432404
0.769379 0.694244 0.442230
0.788025 0.700989 0.443176
0.808990 0.706146 0.446198
0.824097 0.713409 0.453949
0.841034 0.719330 0.464050
0.863220 0.721313 0.480682
0.876648 0.727234 0.500305
0.890442 0.734467 0.511932
0.421661 0.539032 0.284637
0.433594 0.547699 0.293304
0.445740 0.556793 0.299622
0.452911 0.567535 0.310364
0.473602 0.570496 0.325989
0.481110 0.582062 0.331451
0.491058 0.591888 0.339752
0.503479 0.600769 0.346100
0.519196 0.607361 0.355743
0.533234 0.614716 0.366119
0.543243 0.624451 0.374634
0.556213 0.632599 0.383514
0.569641 0.640747 0.390900
0.587524 0.647247 0.395355
0.604889 0.652832 0.405914
0.619080 0.660309 0.415039
0.627350 0.670868 0.424072
0.648987 0.675537 0.428101
0.667480 0.681915 0.431427
0.683228 0.689667 0.434784
0.698090 0.697601 0.439545
0.718994 0.702301 0.445251
0.737061 0.708069 0.453186
0.756287 0.713898 0.457245
0.776794 0.718201 0.466217
0.798065 0.722412 0.473969
0.817871 0.729065 0.472015
0.832642 0.736511 0.479828
0.849640 0.743011 0.486603
0.867554 0.748260 0.497406
0.885895 0.752319 0.513611
0.896210 0.760620 0.528992
0.444336 0.554138 0.314911
0.453461 0.564270 0.323547
0.466248 0.573273 0.328247
0.479706 0.581665 0.334595
0.489288 0.591248 0.344940
0.498932 0.600891 0.354858
0.508575 0.610565 0.364502
0.520111 0.619904 0.371094
0.531708 0.629486 0.375854
0.547424 0.636108 0.385529
0.559021 0.645294 0.392944
0.573120 0.652802 0.401947
0.587830 0.659943 0.411621
0.603455 0.666718 0.420654
0.617126 0.674316 0.430542
0.633392 0.680695 0.439972
0.647888 0.688110 0.448395
0.659241 0.696930 0.458099
0.677765 0.703339 0.461456
0.695740 0.710175 0.463745
0.711182 0.717773 0.468811
0.727722 0.724670 0.474701
0.746185 0.731018 0.478271
0.766174 0.736206 0.483826
0.785126 0.741486 0.491638
0.803894 0.746979 0.499023
0.822662 0.753082 0.503113
0.835114 0.762512 0.506470
0.852234 0.769623 0.509674
0.870880 0.775391 0.516174
0.889862 0.780060 0.527161
0.906708 0.784760 0.544006
0.463318 0.573120 0.333923
0.469757 0.585632 0.337311
0.480927 0.595642 0.341492
0.494690 0.603485 0.349609
0.508331 0.610291 0.363983
0.517334 0.619293 0.379059
0.526978 0.628937 0.388977
0.539154 0.637817 0.396210
0.551056 0.647064 0.402008
0.557617 0.658447 0.410889
0.575378 0.664185 0.419647
0.592010 0.670197 0.429962
0.606384 0.677338 0.440521
0.617188 0.686523 0.449585
0.631836 0.695099 0.452087
0.645508 0.702698 0.461945
