content/luts/vintage/vintage_04.cube
#Created by: Adobe Photoshop Export Color Lookup Plugin
#Copyright: (C) Copyright 2022 inPixio
TITLE "Retro Vintage 4"
#LUT size
LUT_3D_SIZE 32
#data domain
DOMAIN_MIN 0.0 0.0 0.0
DOMAIN_MAX 1.0 1.0 1.0
#LUT data points
0.000000 0.000000 0.000000
0.030884 0.000031 0.003784
0.062286 0.000031 0.006073
0.093079 0.000031 0.010193
0.118164 0.002167 0.017853
0.140594 0.006378 0.022064
0.165375 0.010406 0.021027
0.191559 0.013702 0.019897
0.218933 0.016022 0.020721
0.247406 0.017181 0.024902
0.272095 0.020386 0.028229
0.294281 0.025330 0.029144
0.316864 0.030457 0.028198
0.341034 0.034882 0.026550
0.353485 0.044312 0.029877
0.373566 0.049347 0.036072
0.394226 0.054810 0.038483
0.414093 0.061249 0.037720
0.436523 0.065491 0.041962
0.462555 0.067719 0.046967
0.488586 0.071381 0.044189
0.517578 0.074036 0.038757
0.552612 0.072906 0.037231
0.584534 0.074493 0.029694
0.620728 0.073486 0.024139
0.659210 0.071106 0.020111
0.698883 0.067780 0.017792
0.739807 0.063141 0.019226
0.782837 0.057983 0.017487
0.821014 0.054657 0.018982
0.848083 0.055939 0.026337
0.857086 0.064941 0.041412
0.058746 0.002075 0.001678
0.072021 0.009277 0.014984
0.090149 0.016144 0.016663
0.109314 0.022797 0.016479
0.131348 0.027863 0.017365
0.151031 0.031982 0.029449
0.169922 0.037720 0.035187
0.201630 0.038208 0.033905
0.231842 0.039581 0.032104
0.251770 0.045837 0.032288
0.278229 0.047882 0.037384
0.301880 0.052185 0.037750
0.322083 0.058472 0.036835
0.342041 0.064758 0.036407
0.364685 0.067657 0.047150
0.383636 0.073944 0.049805
0.406647 0.077850 0.053955
0.429169 0.082428 0.055878
0.451630 0.086670 0.060089
0.473328 0.092926 0.055237
0.502350 0.094635 0.054901
0.531952 0.096527 0.052124
0.564209 0.096527 0.052002
0.597534 0.096588 0.048767
0.635345 0.094910 0.042542
0.672394 0.093140 0.039124
0.710266 0.090790 0.036255
0.753754 0.086212 0.030151
0.792480 0.082062 0.034729
0.831512 0.078583 0.035065
0.859833 0.079834 0.039337
0.869293 0.089294 0.050568
0.068512 0.028656 0.005371
0.081055 0.035126 0.024384
0.100708 0.042267 0.020386
0.119171 0.048584 0.024414
0.139740 0.054474 0.024872
0.160461 0.058258 0.035980
0.186005 0.062561 0.031067
0.206146 0.067230 0.039032
0.239899 0.066315 0.039886
0.262146 0.071136 0.041138
0.284058 0.075867 0.044098
0.307800 0.079346 0.048615
0.330505 0.083832 0.050690
0.349670 0.090118 0.052673
0.372559 0.093628 0.059601
0.395752 0.098236 0.059387
0.417145 0.102905 0.064087
0.440735 0.106506 0.068298
0.463165 0.110718 0.072510
0.488434 0.114105 0.073364
0.512512 0.119232 0.068237
0.545105 0.119171 0.067688
0.578400 0.118408 0.069214
0.612946 0.117554 0.067352
0.646851 0.117676 0.062286
0.686615 0.114929 0.056488
0.722626 0.113525 0.053802
0.760895 0.111420 0.048676
0.808014 0.104523 0.045074
0.841858 0.102966 0.049072
0.870270 0.104553 0.051056
0.880219 0.114502 0.058472
0.074097 0.056763 0.012482
0.087585 0.064209 0.023712
0.105865 0.069946 0.031097
0.129089 0.075470 0.026001
0.147552 0.081024 0.033813
0.169617 0.084869 0.041107
0.192780 0.089783 0.039459
0.219604 0.093109 0.036560
0.241547 0.096832 0.044830
0.268982 0.098480 0.049011
0.290436 0.102966 0.054535
0.312134 0.107452 0.059265
0.335327 0.111298 0.063110
0.357727 0.115112 0.069580
0.380890 0.119019 0.073486
0.403687 0.123596 0.074646
0.425110 0.129333 0.073578
0.448181 0.132935 0.079529
0.471497 0.136749 0.083374
0.497192 0.139954 0.084045
0.525421 0.141968 0.084167
0.552856 0.145142 0.080231
0.588806 0.142761 0.082916
0.622406 0.142181 0.082367
0.658875 0.140686 0.078827
0.693298 0.140106 0.076111
0.734558 0.136841 0.069275
0.771729 0.135315 0.063965
0.815430 0.130676 0.057800
0.855499 0.126434 0.059143
0.879974 0.129425 0.064270
0.890228 0.139679 0.069214
0.077850 0.084808 0.024963
0.092407 0.094055 0.023590
0.111786 0.099396 0.030060
0.132721 0.103760 0.037598
0.156403 0.107300 0.041901
0.179169 0.111847 0.043427
0.199127 0.117523 0.046448
0.221802 0.121857 0.049377
0.247375 0.124664 0.052551
0.269806 0.128876 0.056763
0.291962 0.132446 0.065399
0.314240 0.136108 0.072754
0.337036 0.139954 0.078094
0.361420 0.143341 0.081207
0.385925 0.146698 0.084473
0.408081 0.150787 0.090057
0.429779 0.155762 0.092010
0.449829 0.161896 0.092560
0.476501 0.164307 0.094971
0.502014 0.167908 0.094147
0.530731 0.169678 0.094025
0.561798 0.170410 0.093353
0.593262 0.171234 0.091309
0.624542 0.171631 0.091705
0.661346 0.169739 0.089417
0.699615 0.167175 0.086731
0.735382 0.165375 0.086792
0.783997 0.159332 0.074677
0.825256 0.156189 0.066986
0.862213 0.153778 0.067017
0.890350 0.154602 0.073914
0.900024 0.164276 0.083588
0.084198 0.115448 0.016144
0.093872 0.125122 0.025818
0.117340 0.128204 0.033325
0.139923 0.131805 0.040466
0.159302 0.137543 0.044800
0.176819 0.142914 0.056274
0.201080 0.146423 0.059265
0.224640 0.150238 0.062592
0.248901 0.153503 0.066620
0.271057 0.157440 0.073212
0.295502 0.160767 0.076538
0.319580 0.164124 0.080872
0.343048 0.167969 0.084106
0.366089 0.172302 0.085907
0.388885 0.176880 0.087433
0.407257 0.181335 0.101379
0.430298 0.185120 0.106171
0.455353 0.189178 0.104156
0.478729 0.193848 0.103271
0.505096 0.195923 0.108124
0.533936 0.197174 0.110901
0.564911 0.197784 0.110992
0.596619 0.198883 0.106812
0.631805 0.197632 0.105530
0.666504 0.196930 0.102570
0.705933 0.194702 0.095032
0.746338 0.192139 0.086365
0.784454 0.190125 0.081207
0.826324 0.185303 0.080963
0.864563 0.182098 0.081787
0.895508 0.182037 0.085632
0.912537 0.188965 0.090027
0.088928 0.144440 0.020874
0.101837 0.152313 0.031250
0.117310 0.159180 0.040283
0.141632 0.161865 0.047516
0.162170 0.166992 0.052002
0.182678 0.171051 0.062134
0.204010 0.175171 0.069794
0.230133 0.178375 0.069733
0.254944 0.181824 0.071411
0.277252 0.185913 0.076752
0.296387 0.191498 0.082458
0.319519 0.195404 0.086365
0.344269 0.198273 0.091522
0.368469 0.201508 0.096130
0.390991 0.205780 0.099640
0.418243 0.207642 0.103271
0.437500 0.212585 0.112396
0.462341 0.216156 0.113434
0.487274 0.219055 0.117859
0.514160 0.222198 0.115662
0.543793 0.223724 0.114563
0.575897 0.223450 0.116455
0.609131 0.223022 0.115997
0.644836 0.222290 0.110474
0.678680 0.221985 0.107880
0.717743 0.219330 0.103577
0.760284 0.215698 0.095245
0.799347 0.213257 0.089783
0.838623 0.210266 0.086670
0.876160 0.207581 0.086517
0.904572 0.208801 0.090515
0.918274 0.216949 0.097290
0.093567 0.171722 0.035126
0.107849 0.179962 0.039795
0.124451 0.186188 0.049072
0.140381 0.192505 0.059662
0.163208 0.196350 0.064667
0.190430 0.197754 0.070892
0.205475 0.206116 0.072906
0.230286 0.207794 0.084198
0.255432 0.211670 0.082764
0.276764 0.216522 0.086731
0.299316 0.220123 0.093628
0.320892 0.225525 0.094086
0.344543 0.228699 0.100677
0.370209 0.230530 0.108612
0.392639 0.234772 0.112823
0.417694 0.237701 0.116516
0.444397 0.240082 0.118896
0.466492 0.244843 0.121246
0.492706 0.246765 0.127228
0.522705 0.247528 0.129517
0.549072 0.250763 0.128326
0.582184 0.251495 0.121948
0.617035 0.250031 0.122894
0.651794 0.249878 0.116669
0.689270 0.248260 0.111267
0.725555 0.246979 0.106934
0.768860 0.242218 0.102417
0.809967 0.238556 0.098022
0.847107 0.236481 0.095551
0.886200 0.233307 0.094025
0.913971 0.235291 0.096008
0.923645 0.244965 0.105682
0.100189 0.197327 0.052368
0.113525 0.206879 0.052826
0.129272 0.213776 0.060699
0.146545 0.219910 0.068878
0.161102 0.226501 0.081909
0.194550 0.225403 0.084625
0.212402 0.232880 0.083740
0.227722 0.240875 0.086914
0.255188 0.241028 0.099213
0.273712 0.247406 0.102539
0.299042 0.249695 0.109039
0.323059 0.253479 0.111053
0.346893 0.257599 0.112122
0.372284 0.259216 0.122070
0.394714 0.263397 0.126282
0.417938 0.267548 0.128906
0.443604 0.270386 0.131744
0.469727 0.273376 0.132324
0.496582 0.275696 0.134644
0.525574 0.276581 0.138824
0.554993 0.277954 0.139069
0.582062 0.280975 0.137024
0.618408 0.280609 0.127808
0.653381 0.280334 0.122070
0.690582 0.278809 0.116760
0.730957 0.275940 0.110077
0.771271 0.272705 0.105347
0.814606 0.267456 0.103394
0.852020 0.265411 0.100220
0.889771 0.262421 0.101288
0.919128 0.263214 0.104950
0.928802 0.272858 0.114624
0.112396 0.221710 0.061554
0.120941 0.233276 0.064026
0.132843 0.241394 0.075928
0.148315 0.247986 0.086304
0.167236 0.253876 0.091095
0.190796 0.256195 0.102509
0.217407 0.258392 0.105957
0.235901 0.265228 0.107239
0.253204 0.272430 0.109375
0.281647 0.273560 0.113525
0.305969 0.277008 0.116852
0.329132 0.280823 0.120911
0.352173 0.284485 0.126495
0.376007 0.287201 0.134888
0.398438 0.291412 0.139099
0.419708 0.296875 0.139771
0.444611 0.300232 0.141876
0.473450 0.301392 0.145172
0.504364 0.301941 0.145721
0.525665 0.307068 0.148041
0.553864 0.309814 0.144379
0.584778 0.311768 0.137482
0.615295 0.313934 0.130768
0.655060 0.311188 0.125000
0.691345 0.309937 0.120575
0.730103 0.307831 0.114044
0.772369 0.304169 0.106476
0.815399 0.298645 0.106995
0.855865 0.295837 0.099518
0.895844 0.291809 0.100281
0.925781 0.291351 0.108948
0.931061 0.302460 0.122955
0.121613 0.245972 0.079346
0.135651 0.254303 0.084412
0.142120 0.268097 0.080505
0.156769 0.275421 0.089325
0.176208 0.280579 0.096527
0.191376 0.289673 0.094482
0.218872 0.288300 0.114868
0.242432 0.291779 0.119720
0.260925 0.298370 0.122009
0.285095 0.301666 0.126190
0.309814 0.304871 0.129547
0.332977 0.308807 0.133484
0.355286 0.312897 0.138702
0.377838 0.316498 0.145844
0.398712 0.321808 0.148499
0.425934 0.323578 0.152679
0.453125 0.325958 0.153534
0.481079 0.327759 0.155701
0.504303 0.332001 0.157684
0.533600 0.333710 0.156616
0.560333 0.337158 0.153229
0.592163 0.338623 0.146606
0.624664 0.339630 0.140533
0.660828 0.338867 0.133942
0.700226 0.338043 0.118683
0.738190 0.336151 0.113403
0.777435 0.333405 0.109100
0.813110 0.332489 0.104675
0.856781 0.324951 0.113831
0.896790 0.321686 0.110077
0.926849 0.322418 0.112183
0.932861 0.334503 0.119202
0.131561 0.271088 0.090332
0.140594 0.282135 0.094299
0.153076 0.291199 0.099548
0.162659 0.302307 0.102051
0.181946 0.306793 0.113373
0.197357 0.315887 0.110565
0.223297 0.318024 0.116272
0.245911 0.320160 0.131195
0.266632 0.325317 0.134827
0.289062 0.329529 0.139038
0.312134 0.333496 0.143005
0.335022 0.337158 0.148682
0.356781 0.341858 0.152222
0.378632 0.346130 0.157532
0.401581 0.350342 0.160492
0.430511 0.352448 0.158264
0.455078 0.355774 0.161591
0.483337 0.357452 0.163422
0.506592 0.361359 0.167053
0.533356 0.363831 0.168518
0.564056 0.365295 0.165039
0.593933 0.367706 0.158478
0.626648 0.368683 0.151978
0.665802 0.367615 0.139160
0.704559 0.365631 0.132111
0.741455 0.365845 0.118286
0.779602 0.363373 0.115326
0.816345 0.362183 0.109558
0.858582 0.357117 0.109558
0.896759 0.352539 0.117889
0.929443 0.352081 0.119080
0.940155 0.362030 0.124451
0.138367 0.298767 0.096375
0.146027 0.310211 0.102112
0.159302 0.318573 0.109100
0.172485 0.327301 0.114166
0.187622 0.333344 0.128540
0.204315 0.340942 0.130066
0.227570 0.344452 0.135712
0.251617 0.348236 0.138000
0.269897 0.353638 0.147217
0.291992 0.357880 0.152191
0.313080 0.363037 0.155090
0.336731 0.366211 0.161407
0.360413 0.369385 0.167633
0.381195 0.374756 0.170197
0.405151 0.378326 0.173767
0.433533 0.380524 0.172302
0.459961 0.384155 0.169128
0.482056 0.389160 0.169830
0.508606 0.391449 0.173126
0.534729 0.394409 0.174042
0.566040 0.395386 0.171234
0.598938 0.395905 0.166687
0.629272 0.398132 0.159943
0.668854 0.397217 0.144867
0.706268 0.396698 0.133728
0.745667 0.394379 0.126709
0.780670 0.394440 0.118683
0.820465 0.391724 0.112915
0.861755 0.387482 0.110962
0.898285 0.384796 0.113708
0.927704 0.384857 0.121124
0.945557 0.390564 0.129883
0.139404 0.329651 0.100952
0.149353 0.339111 0.111145
0.165710 0.345459 0.120300
0.183167 0.351532 0.128143
0.198395 0.359558 0.131470
0.214142 0.366180 0.141144
0.232697 0.371338 0.150574
0.252777 0.376740 0.154877
0.274078 0.382355 0.154663
0.293732 0.386810 0.165192
0.313232 0.393036 0.166595
0.336548 0.396637 0.171722
0.362366 0.398651 0.178436
0.388397 0.400909 0.183472
0.410828 0.405121 0.187683
0.436493 0.408264 0.188690
0.461182 0.412476 0.186798
0.483612 0.418060 0.183533
0.511292 0.421448 0.177826
0.537170 0.425323 0.174591
0.568634 0.426544 0.170258
0.604492 0.425964 0.163635
0.639923 0.425110 0.159332
0.676361 0.425232 0.147308
0.710510 0.426514 0.135193
0.746094 0.426910 0.124084
0.786316 0.424377 0.115967
0.826080 0.421631 0.110199
0.865082 0.418396 0.108978
0.899628 0.416779 0.111420
0.925568 0.418640 0.118744
0.943420 0.424347 0.127472
0.143097 0.357635 0.113739
0.156006 0.364471 0.129700
0.169922 0.373566 0.130951
0.185394 0.381104 0.136444
0.200226 0.388336 0.145203
0.221741 0.391998 0.154816
0.236786 0.400482 0.156219
0.253143 0.407227 0.163605
0.272217 0.412903 0.169006
0.295959 0.416382 0.173492
0.322021 0.418518 0.178833
0.344208 0.423004 0.182404
0.367371 0.426697 0.187378
0.390625 0.430450 0.191772
0.413025 0.434662 0.195953
0.435486 0.438904 0.200226
0.461517 0.442383 0.198517
0.487335 0.446442 0.194092
0.512848 0.450348 0.191528
0.543121 0.453522 0.180054
0.572784 0.455231 0.177948
0.606689 0.455505 0.171906
0.643158 0.455658 0.159515
0.677582 0.456696 0.148407
0.716431 0.454681 0.141083
0.752228 0.454681 0.131348
0.789062 0.454193 0.121490
0.830780 0.450623 0.114899
0.868408 0.448395 0.112274
0.906281 0.446167 0.108917
0.934021 0.447845 0.112122
0.944855 0.456177 0.125885
0.149902 0.383911 0.127258
0.154846 0.397217 0.130432
0.172546 0.402374 0.142548
0.185822 0.411377 0.145996
0.198822 0.419434 0.155182
0.219849 0.424255 0.160004
0.239655 0.428741 0.169922
0.258606 0.435089 0.172089
0.277283 0.440826 0.178589
0.299683 0.445282 0.181427
0.324280 0.448120 0.187134
0.347992 0.451599 0.191650
0.371216 0.455475 0.195526
0.394348 0.459381 0.199432
0.415283 0.464233 0.204285
0.441345 0.467285 0.204926
0.463806 0.471497 0.209167
0.490326 0.475494 0.203491
0.517914 0.480072 0.191406
0.546631 0.481964 0.190887
0.576904 0.484924 0.180542
0.608856 0.485992 0.175568
0.644745 0.486572 0.162628
0.683624 0.485260 0.151428
0.716675 0.487183 0.138947
0.756165 0.484650 0.132874
0.793274 0.483826 0.123932
0.834076 0.480988 0.116150
0.873901 0.478180 0.110596
0.909943 0.476532 0.108948
0.937592 0.478638 0.110382
0.944611 0.488708 0.125031
0.149109 0.415039 0.135590
0.158752 0.426178 0.137604
0.169556 0.435852 0.144135
0.186951 0.441864 0.152435
0.199280 0.450256 0.161713
0.222626 0.453888 0.166840
0.236725 0.461914 0.173340
0.260895 0.464691 0.180420
0.283295 0.468903 0.184631
0.304382 0.474030 0.187500
0.325623 0.478821 0.192017
0.349670 0.482147 0.196350
0.372253 0.486481 0.199585
0.396393 0.490051 0.202484
0.417755 0.494934 0.206116
0.443176 0.497986 0.208282
0.470062 0.500549 0.209320
0.493073 0.504730 0.212219
0.521210 0.509460 0.197968
0.549500 0.512177 0.194122
0.579315 0.514679 0.187531
0.610870 0.516876 0.177582
0.645355 0.517822 0.166382
0.683960 0.516724 0.154785
0.721893 0.516724 0.139587
0.756805 0.517090 0.130341
0.796631 0.514557 0.123260
0.836975 0.512390 0.113007
0.875061 0.509460 0.112762
0.911804 0.507263 0.112305
0.941101 0.508118 0.115814
0.948273 0.518188 0.130188
0.140778 0.450958 0.138733
0.156342 0.458710 0.142822
0.171021 0.466644 0.147980
0.183044 0.475647 0.155090
0.198120 0.483154 0.161438
0.225372 0.483856 0.171509
0.239807 0.491821 0.177185
0.258118 0.497986 0.182220
0.285065 0.499908 0.186401
0.307526 0.504150 0.190643
0.326660 0.510223 0.193848
0.348724 0.514709 0.197327
0.373749 0.517700 0.201080
0.396332 0.522339 0.202667
0.418823 0.527008 0.204285
0.445709 0.529602 0.204987
0.472778 0.531708 0.207733
0.499146 0.534454 0.209198
0.524384 0.538422 0.207123
0.551727 0.541718 0.202820
0.581146 0.544952 0.193146
0.612183 0.547913 0.180664
0.646759 0.548859 0.169312
0.683655 0.548828 0.156647
0.721252 0.548981 0.141357
0.760315 0.547913 0.128418
0.797577 0.546234 0.123688
0.838135 0.544525 0.110229
0.875671 0.541595 0.111877
0.911743 0.538696 0.116913
0.940277 0.539398 0.123322
0.955322 0.545349 0.138367
0.135529 0.485168 0.142609
0.148010 0.494629 0.145996
0.165527 0.502167 0.145538
0.180420 0.510742 0.147034
0.192413 0.519958 0.152679
0.213531 0.522858 0.167725
0.236267 0.526611 0.173279
0.258514 0.530762 0.178558
0.282623 0.533875 0.183929
0.305054 0.538086 0.188171
0.325745 0.543488 0.190674
0.347412 0.548187 0.194366
0.372162 0.551056 0.199493
0.399231 0.552582 0.205566
0.419891 0.558044 0.208008
0.449341 0.560059 0.204590
0.479004 0.561340 0.204834
0.506622 0.563171 0.207581
0.531860 0.567169 0.205475
0.558716 0.569977 0.205017
0.587952 0.572998 0.196899
0.618561 0.576324 0.184021
0.650024 0.579407 0.169525
0.688995 0.578918 0.153870
0.724304 0.579590 0.141876
0.761688 0.578918 0.131348
0.800842 0.576813 0.123932
0.836334 0.575897 0.119965
0.875732 0.573029 0.115967
0.914307 0.569336 0.118347
0.945160 0.568817 0.124908
0.958893 0.576233 0.135864
0.122345 0.525421 0.135773
0.134796 0.534821 0.139099
0.151093 0.541626 0.146271
0.169708 0.548096 0.148712
0.185638 0.555664 0.152496
0.207825 0.559662 0.158997
0.226501 0.565155 0.166534
0.250061 0.569366 0.167480
0.273682 0.573242 0.170197
0.294678 0.578064 0.174988
0.324219 0.578400 0.180786
0.348877 0.581787 0.183167
0.373413 0.585449 0.184540
0.399506 0.588257 0.186340
0.421631 0.592682 0.190277
0.450409 0.594269 0.191193
0.479858 0.596344 0.187988
0.508362 0.598175 0.188416
0.537628 0.599731 0.188202
0.564758 0.602844 0.185242
0.593933 0.605835 0.177612
0.624573 0.608124 0.169769
0.655792 0.609741 0.163910
0.694763 0.609222 0.148254
0.730560 0.610107 0.133942
0.769440 0.608643 0.123993
0.810272 0.605713 0.116394
0.844421 0.605713 0.111084
0.884918 0.601837 0.109467
0.919098 0.600433 0.111725
0.946838 0.601227 0.119751
0.958862 0.609100 0.132538
0.104004 0.569305 0.123505
0.116760 0.577118 0.134705
0.132111 0.584900 0.139099
0.155273 0.588318 0.145538
0.176270 0.593353 0.149200
0.196564 0.598480 0.154327
0.219818 0.602905 0.154938
0.238190 0.609100 0.159485
0.264252 0.612427 0.158508
0.288605 0.615875 0.161957
0.316223 0.617554 0.165680
0.346924 0.618164 0.166412
0.373352 0.620300 0.170807
0.399292 0.623474 0.171234
0.426483 0.625885 0.171967
0.453400 0.628754 0.171051
0.481659 0.631195 0.168915
0.509552 0.633911 0.166443
0.540497 0.634491 0.167053
0.572845 0.634430 0.167114
0.599060 0.638275 0.162964
0.631409 0.640259 0.151825
0.664062 0.640533 0.149292
0.701019 0.639801 0.140472
0.739258 0.639313 0.126709
0.772705 0.640747 0.115753
0.813873 0.637421 0.109375
0.850067 0.636017 0.106079
0.886536 0.634186 0.104248
0.924744 0.630371 0.108795
0.950226 0.631317 0.122284
0.961975 0.638000 0.142120
0.081299 0.615417 0.110901
0.096832 0.621826 0.122375
0.115448 0.626160 0.136322
0.135315 0.633118 0.132629
0.164795 0.633759 0.136719
0.183716 0.639282 0.143494
0.206940 0.643799 0.143951
0.232788 0.647217 0.142975
0.253326 0.652588 0.146057
0.283936 0.653320 0.146790
0.310150 0.656036 0.148468
0.340271 0.656799 0.150269
0.371307 0.657715 0.148529
0.397583 0.659485 0.155609
0.428314 0.660614 0.153687
0.457092 0.662811 0.151489
0.485138 0.665009 0.151154
0.512604 0.668701 0.144470
0.543976 0.669342 0.143219
0.575684 0.669159 0.145813
0.607544 0.670044 0.142120
0.636932 0.672089 0.139130
0.673065 0.671814 0.130096
0.708496 0.670807 0.126953
0.744720 0.670319 0.118652
0.781555 0.669861 0.108429
0.814026 0.670959 0.101959
0.852478 0.667908 0.101410
0.888641 0.665863 0.101776
0.924652 0.662659 0.108704
0.951019 0.662872 0.123718
0.963654 0.666992 0.154907
0.055939 0.662018 0.103119
0.075989 0.667786 0.105469
0.100433 0.668701 0.121704
0.125946 0.670929 0.128357
0.149109 0.678528 0.112274
0.170868 0.682098 0.121918
0.193787 0.686401 0.124451
0.221130 0.688934 0.124237
0.251221 0.690186 0.123444
0.277863 0.692566 0.125824
0.303101 0.696045 0.126404
0.333099 0.696564 0.129700
0.365051 0.696259 0.132050
0.396240 0.697205 0.129944
0.425354 0.699005 0.128723
0.454376 0.700806 0.127869
0.484375 0.701691 0.129639
0.515381 0.701843 0.132050
0.550110 0.703186 0.118195
0.577454 0.705109 0.121155
0.608521 0.706299 0.118195
0.643646 0.705872 0.112579
0.680359 0.703491 0.113098
0.715515 0.702240 0.111847
0.749664 0.702118 0.107422
0.784393 0.702026 0.101501
0.819946 0.701294 0.096222
0.855133 0.700043 0.094971
0.891876 0.697327 0.097443
0.928314 0.693146 0.108459
0.955750 0.691986 0.127655
0.958832 0.701172 0.158081
0.044189 0.701874 0.094421
0.050934 0.714722 0.095093
0.073792 0.718964 0.098083
0.103455 0.718292 0.108521
0.134674 0.718750 0.108978
0.157654 0.723511 0.108704
0.186127 0.726166 0.104797
0.214600 0.727966 0.105560
0.244202 0.728729 0.108582
0.270386 0.730621 0.115295
0.301422 0.731567 0.113342
0.333710 0.731720 0.112457
0.366730 0.731323 0.112457
0.398010 0.732239 0.110352
0.429169 0.733154 0.108246
0.455841 0.734924 0.114166
0.487701 0.735657 0.111084
0.521362 0.735626 0.107666
0.552917 0.736328 0.105835
0.587036 0.737061 0.096954
0.617218 0.738007 0.097504
0.651733 0.737366 0.094604
0.690216 0.734589 0.092590
0.721130 0.735168 0.093170
0.756317 0.733917 0.091919
0.791107 0.733063 0.089508
0.825897 0.731903 0.088867
0.858032 0.730255 0.097870
0.900360 0.725525 0.095795
0.931793 0.723083 0.111298
0.955719 0.723846 0.129913
0.963776 0.733398 0.144775
0.023346 0.746307 0.085724
0.034668 0.756866 0.086395
0.056335 0.760956 0.093384
0.083221 0.763824 0.092834
0.117004 0.762573 0.095123
0.147675 0.763641 0.093933
0.175354 0.765503 0.096313
0.204803 0.767609 0.092590
0.235229 0.768341 0.093567
0.263885 0.769653 0.096375
0.297607 0.768707 0.097351
0.328156 0.770905 0.090454
0.363556 0.769531 0.089172
0.396423 0.769379 0.088531
0.423218 0.771881 0.090027
0.458282 0.769989 0.092316
0.486786 0.771149 0.096497
0.521423 0.770874 0.091309
0.554657 0.770447 0.090881
0.588196 0.770874 0.085205
0.623871 0.769348 0.084076
0.655762 0.769745 0.083191
0.691681 0.768585 0.079376
0.724335 0.768738 0.077393
0.759796 0.767029 0.077942
0.795929 0.765320 0.076263
0.831879 0.763428 0.076385
0.866058 0.760681 0.085785
0.899261 0.758575 0.094696
0.934814 0.754425 0.107758
0.957275 0.754761 0.132721
0.967987 0.762695 0.149017
0.003784 0.789642 0.079956
0.019043 0.797668 0.083038
0.041290 0.802460 0.084686
0.072906 0.801697 0.090485
0.103210 0.803772 0.084747
0.137085 0.803253 0.083191
0.168945 0.803467 0.083160
0.198578 0.804413 0.085236
0.227020 0.806305 0.085602
0.257263 0.807434 0.084991
0.294220 0.805420 0.082947
0.325592 0.806458 0.079681
0.356049 0.808441 0.074097
0.392120 0.806305 0.074982
0.419586 0.807983 0.078949
0.454987 0.806335 0.079315
0.489807 0.804779 0.080811
0.522064 0.804779 0.080811
0.557800 0.803314 0.079346
0.590179 0.803467 0.078094
0.626862 0.801544 0.076294
0.662994 0.799225 0.078033
0.695007 0.800232 0.073364
0.727173 0.801544 0.066559
0.762268 0.800079 0.066620
0.798798 0.797150 0.070892
0.835724 0.794586 0.071899
0.871368 0.790802 0.082886
0.905426 0.787903 0.093506
0.934692 0.786560 0.109009
0.956055 0.786926 0.136719
0.966034 0.793365 0.162872
0.000031 0.822601 0.086578
0.012238 0.833466 0.082825
0.034607 0.838287 0.083832
0.063843 0.839691 0.084473
0.100769 0.837158 0.085327
0.132263 0.837891 0.083435
0.163239 0.839020 0.081024
0.195435 0.839478 0.078552
0.228149 0.838776 0.081146
0.254486 0.840820 0.086243
0.291595 0.839233 0.081848
0.324799 0.839539 0.077637
0.354523 0.841309 0.075073
0.385712 0.841644 0.075928
0.418304 0.840576 0.080933
0.455505 0.838226 0.079834
0.491455 0.836670 0.078278
0.524384 0.836456 0.077576
0.561707 0.834320 0.075439
0.595276 0.833221 0.077637
0.628876 0.832397 0.078339
0.666656 0.829712 0.077637
0.701813 0.828430 0.076630
0.732788 0.830963 0.066620
0.767578 0.830078 0.064240
0.802643 0.827820 0.068665
0.838745 0.824432 0.076447
0.873718 0.819946 0.093170
0.909515 0.816284 0.102936
0.939270 0.814178 0.121307
0.959290 0.816467 0.142456
0.959564 0.825867 0.179169
0.000153 0.852783 0.097046
0.025238 0.859650 0.079620
0.046356 0.865448 0.079254
0.072174 0.867737 0.084442
0.105164 0.865814 0.092773
0.141815 0.863007 0.096008
0.164703 0.867798 0.095642
0.193146 0.870575 0.091064
0.227905 0.869690 0.089020
0.270264 0.862701 0.098999
0.297241 0.865387 0.098907
0.328705 0.866211 0.096710
0.358948 0.867615 0.094696
0.388733 0.868958 0.094116
0.423279 0.867065 0.098297
0.458038 0.865784 0.098297
