content/luts/vintage/vintage_07.cube
#Created by: Adobe Photoshop Export Color Lookup Plugin
#Copyright: (C) Copyright 2022 inPixio
TITLE "Retro Vintage 7"
#LUT size
LUT_3D_SIZE 8
#data domain
#LUT data points
DOMAIN_MIN 0.000000 0.000000 0.000000
DOMAIN_MAX 0.903226 0.903226 0.903226
0.000000 0.000000 0.000000
0.058441 0.023285 0.067566
0.186371 0.019531 0.090881
0.321442 0.013062 0.108948
0.464142 0.000031 0.141998
0.575165 0.000031 0.190918
0.697937 0.000031 0.207886
0.752960 0.046600 0.159821
0.035492 0.088745 0.119354
0.098602 0.118225 0.140991
0.206909 0.127075 0.149841
0.354065 0.117279 0.153320
0.551758 0.080505 0.163116
0.757843 0.036743 0.187927
0.866302 0.044159 0.204193
0.802979 0.140228 0.213348
0.079437 0.180511 0.199371
0.111450 0.223907 0.231110
0.226440 0.233521 0.217987
0.373749 0.227783 0.198578
0.559753 0.202881 0.177185
0.744415 0.174866 0.175385
0.850983 0.179749 0.210754
0.807861 0.258453 0.257965
0.112976 0.281738 0.256927
0.140686 0.328674 0.281372
0.233734 0.347565 0.278503
0.372406 0.349915 0.239349
0.548767 0.335968 0.185425
0.725769 0.312714 0.179260
0.822937 0.320068 0.226471
0.805603 0.380554 0.301361
0.131866 0.402222 0.251526
0.163605 0.445953 0.282135
0.221680 0.481384 0.285797
0.370117 0.476776 0.257416
0.541931 0.463501 0.212128
0.689148 0.451202 0.228302
0.780457 0.459045 0.289398
0.789978 0.504852 0.369629
0.258240 0.464935 0.262665
0.302277 0.504272 0.283264
0.352325 0.537628 0.319672
0.435211 0.560059 0.325287
0.534393 0.575623 0.323242
0.662262 0.573853 0.336151
0.732147 0.591980 0.399963
0.781982 0.617554 0.478638
0.427307 0.494995 0.332184
0.470276 0.531097 0.373505
0.503662 0.572357 0.412842
0.561066 0.602448 0.446716
0.613464 0.635864 0.476593
0.679413 0.663727 0.499146
0.743561 0.690308 0.533691
0.798737 0.718903 0.581543
0.541565 0.546631 0.435822
0.573517 0.591736 0.458527
0.619415 0.625885 0.502411
0.663269 0.662262 0.539429
0.706146 0.697662 0.584595
0.749725 0.735199 0.616272
0.795532 0.770599 0.653076
0.843018 0.805176 0.690186
0.000031 0.017151 0.036957
0.039276 0.049133 0.110229
0.148529 0.057678 0.118408
0.277161 0.057678 0.119537
0.464142 0.026642 0.128113
0.631714 0.000031 0.165619
0.754456 0.000031 0.182709
0.765869 0.062897 0.166351
0.039001 0.106049 0.146027
0.097046 0.137024 0.173462
0.186554 0.152924 0.195679
0.321838 0.151703 0.185455
0.503021 0.127258 0.174194
0.724884 0.077942 0.185730
0.857117 0.072662 0.205109
0.821777 0.151947 0.228088
0.109222 0.186768 0.213470
0.160126 0.219177 0.252960
0.218475 0.251892 0.269989
0.355255 0.255219 0.231049
0.542267 0.232910 0.192596
0.731506 0.203217 0.187653
0.852631 0.201752 0.217224
0.825897 0.272186 0.264221
0.156494 0.280212 0.275665
0.192322 0.321960 0.305664
0.247589 0.355743 0.325897
0.370300 0.365509 0.290619
0.557617 0.350983 0.209564
0.724823 0.334290 0.195129
0.836792 0.334320 0.241211
0.829010 0.390778 0.311737
0.188721 0.392761 0.276245
0.220398 0.435608 0.311737
0.256958 0.481018 0.320587
0.377563 0.489014 0.300537
0.553192 0.477539 0.235138
0.698792 0.467438 0.244019
0.795959 0.473022 0.301117
0.809265 0.515289 0.389923
0.289185 0.470337 0.278290
0.329071 0.509430 0.311707
0.372742 0.548431 0.335175
0.440216 0.576172 0.354187
0.542419 0.591766 0.343689
0.677277 0.587616 0.350281
0.750916 0.603668 0.415192
0.790619 0.634521 0.493347
0.439728 0.508148 0.356750
0.479004 0.547699 0.389709
0.526154 0.582336 0.427124
0.569641 0.618591 0.465790
0.620544 0.655060 0.483521
0.692566 0.679016 0.510132
0.762604 0.702759 0.544006
0.814331 0.732239 0.596619
0.558472 0.561127 0.441071
0.593170 0.601776 0.480072
0.633759 0.640717 0.512573
0.676544 0.676666 0.554962
0.714752 0.716400 0.589783
0.764069 0.750275 0.625275
0.809021 0.786224 0.661499
0.859100 0.819122 0.700714
0.000031 0.036133 0.064240
0.000031 0.081757 0.171417
0.110901 0.087372 0.190826
0.248322 0.082733 0.192810
0.396515 0.072632 0.194824
0.667999 0.005981 0.163727
0.811066 0.000031 0.157410
0.773132 0.082428 0.170868
0.020172 0.131866 0.187897
0.097687 0.152863 0.215607
0.160522 0.179382 0.253906
0.276337 0.184906 0.260529
0.445648 0.166016 0.251923
0.686218 0.117676 0.207123
0.852112 0.100189 0.200256
0.826660 0.172028 0.236023
0.102417 0.205902 0.258514
0.163757 0.235870 0.282562
0.226288 0.265503 0.304718
0.322357 0.279358 0.320221
0.492462 0.264099 0.290161
0.719299 0.226318 0.226044
0.859039 0.222351 0.218323
0.839111 0.286926 0.277954
0.177277 0.288605 0.302795
0.228668 0.320770 0.342010
0.282562 0.354675 0.365051
0.361481 0.380463 0.363495
0.525146 0.373322 0.307404
0.718658 0.353668 0.237030
0.843353 0.353271 0.250824
0.836945 0.408356 0.324738
0.222351 0.391724 0.318970
0.277252 0.422211 0.357819
0.325470 0.461212 0.368866
0.391937 0.493164 0.368042
0.544952 0.490295 0.318237
0.702759 0.483154 0.277832
0.806335 0.489838 0.311584
0.825317 0.528687 0.403198
0.322479 0.469849 0.319061
0.373505 0.503662 0.350220
0.419128 0.541962 0.372192
0.473297 0.575256 0.397888
0.556976 0.599976 0.389099
0.680267 0.604095 0.382874
0.760620 0.619690 0.431732
0.805176 0.649078 0.504730
0.465637 0.516235 0.371643
0.507965 0.551605 0.418762
0.551147 0.589081 0.451721
0.592926 0.627716 0.482239
0.644562 0.662140 0.508942
0.704254 0.692474 0.535248
0.770477 0.720245 0.557587
0.827423 0.746338 0.614136
0.572693 0.574585 0.459106
0.610657 0.614563 0.492737
0.650391 0.652802 0.531342
0.683929 0.694672 0.567169
0.731903 0.727966 0.609955
0.775665 0.765442 0.641205
0.824036 0.800110 0.675140
0.874268 0.832642 0.715759
0.000031 0.055084 0.091522
0.000031 0.105133 0.174896
0.060028 0.124695 0.258270
0.192871 0.122650 0.258911
0.398743 0.084351 0.254883
0.602203 0.046967 0.252167
0.809814 0.005585 0.259735
0.797424 0.089172 0.197449
0.000031 0.156403 0.240295
0.032990 0.196686 0.286102
0.139618 0.206146 0.296356
0.243011 0.215942 0.313873
0.425110 0.189148 0.312866
0.627930 0.152771 0.306732
0.842804 0.111847 0.292114
0.851501 0.180054 0.254425
0.074036 0.237579 0.294891
0.129639 0.270172 0.320648
0.214020 0.290192 0.334839
0.300385 0.306335 0.364410
0.441254 0.299164 0.370880
0.627686 0.271667 0.361633
0.839386 0.240509 0.303619
0.860474 0.296906 0.295380
0.154388 0.316956 0.342133
0.221130 0.341949 0.377869
0.293304 0.366547 0.401215
0.360260 0.395416 0.415558
0.475403 0.403656 0.409363
0.664581 0.380829 0.367798
0.830566 0.371216 0.318329
0.861542 0.417389 0.338440
0.244507 0.394440 0.372894
0.301422 0.425018 0.405762
0.357117 0.457428 0.432007
0.422089 0.490784 0.427521
0.522217 0.508423 0.411896
0.674622 0.503204 0.376068
0.800903 0.505798 0.369934
0.840454 0.542938 0.414520
0.314362 0.491455 0.354218
0.368317 0.523407 0.387665
0.438538 0.548096 0.415771
0.507538 0.573700 0.442139
0.573334 0.603546 0.454651
0.671906 0.622192 0.437500
0.766296 0.633728 0.469910
0.822418 0.662292 0.515808
0.464417 0.537018 0.392548
0.507996 0.574158 0.426636
0.564941 0.602356 0.471954
0.610474 0.638306 0.506744
0.657837 0.673401 0.541199
0.708160 0.709808 0.560516
0.787109 0.731689 0.580017
0.840607 0.762421 0.621002
0.583374 0.590729 0.472198
0.626373 0.628021 0.506714
0.664978 0.666626 0.546570
0.707916 0.702118 0.590912
0.747192 0.742004 0.621948
0.790802 0.778015 0.661621
0.836334 0.814697 0.692383
0.887177 0.848358 0.725372
0.000031 0.074921 0.114197
0.000031 0.124878 0.198334
0.000031 0.173737 0.287994
0.156311 0.151154 0.334717
0.323181 0.133301 0.327362
0.564270 0.082428 0.294586
0.723083 0.071747 0.270721
0.749054 0.128448 0.247498
0.000031 0.179138 0.247284
0.000031 0.230072 0.325989
0.072906 0.252350 0.359741
0.211182 0.244446 0.376770
0.372040 0.227692 0.380005
0.598206 0.184143 0.348480
0.767120 0.167755 0.327759
0.824829 0.207031 0.311523
0.019501 0.280243 0.343872
0.057251 0.319885 0.380219
0.183350 0.320374 0.385529
0.281464 0.332062 0.406952
0.399475 0.335541 0.418549
0.604614 0.302490 0.388397
0.783630 0.279388 0.376160
0.869598 0.304779 0.357147
0.082703 0.367828 0.393768
0.149536 0.394958 0.417755
0.262329 0.401245 0.428558
0.355621 0.416595 0.443665
0.451935 0.431549 0.452942
0.616364 0.416473 0.436981
0.800751 0.389740 0.429230
0.877197 0.420868 0.406067
0.177094 0.444153 0.419098
0.248413 0.467773 0.450073
0.342499 0.481903 0.469635
0.427643 0.501404 0.484436
0.517609 0.521790 0.481934
0.647644 0.523407 0.470398
0.790497 0.521210 0.444550
0.849426 0.554291 0.458160
0.301178 0.511536 0.411591
0.356293 0.543030 0.444092
0.431915 0.565125 0.471375
0.513947 0.584686 0.494476
0.593262 0.608582 0.502197
0.667847 0.635223 0.507568
0.771912 0.647064 0.512085
0.824768 0.678894 0.549255
0.452332 0.561615 0.422974
0.495941 0.599182 0.454315
0.552948 0.629333 0.488922
0.620422 0.652679 0.531860
0.674469 0.685242 0.561371
0.728394 0.716858 0.596802
0.795837 0.744843 0.614563
0.849701 0.776581 0.649200
0.586639 0.610291 0.487457
0.625641 0.649658 0.522156
0.676666 0.681580 0.563446
0.716431 0.719086 0.605499
0.767365 0.752075 0.641754
0.797882 0.794098 0.684937
0.848389 0.829559 0.708984
0.897888 0.864746 0.737244
0.000031 0.094116 0.140228
0.000031 0.145203 0.218231
0.000031 0.196594 0.294495
0.018341 0.225708 0.440002
0.287933 0.158875 0.415314
0.494904 0.121460 0.403442
0.603241 0.148346 0.315826
0.624939 0.211670 0.268585
0.000031 0.197754 0.276520
0.000031 0.250031 0.347870
0.000031 0.303131 0.415070
0.128876 0.295868 0.454376
0.339386 0.252228 0.466522
0.534882 0.220642 0.454437
0.655823 0.240387 0.370667
0.699341 0.290375 0.335907
0.000031 0.309052 0.371521
0.000031 0.361633 0.441498
0.021729 0.407837 0.486176
0.234131 0.371399 0.454407
0.381683 0.355347 0.490082
0.561249 0.330872 0.483704
0.672913 0.352234 0.416382
0.740967 0.386292 0.399811
0.035461 0.406769 0.442932
0.071320 0.447937 0.475891
0.158447 0.466034 0.493500
0.321136 0.452454 0.474213
0.433136 0.457306 0.494995
0.581268 0.444855 0.509399
0.697540 0.459473 0.465668
0.795807 0.475128 0.465881
0.125580 0.488403 0.451324
0.166718 0.524963 0.495117
0.272644 0.533630 0.511627
0.397614 0.536774 0.505646
0.505096 0.544556 0.522797
0.610504 0.555359 0.529175
0.734680 0.560242 0.516602
0.848267 0.567200 0.521271
0.230103 0.560120 0.473846
0.282593 0.592773 0.507385
0.377106 0.607849 0.520813
0.483002 0.617249 0.533478
0.579865 0.630096 0.552277
0.670135 0.648621 0.558563
0.774658 0.659058 0.569214
0.843781 0.686157 0.587616
0.416595 0.596466 0.462372
0.453430 0.635468 0.504669
0.518707 0.663177 0.529724
0.601562 0.681122 0.559692
0.679260 0.701263 0.591461
0.745667 0.728088 0.618408
0.792145 0.763947 0.651337
0.858093 0.791321 0.676453
0.600403 0.623810 0.506531
0.634186 0.664398 0.548676
0.671326 0.704590 0.583527
0.721924 0.737762 0.619476
0.775269 0.769196 0.657501
0.819733 0.805939 0.690948
0.864410 0.841003 0.732971
0.913879 0.877075 0.756531
0.000031 0.111145 0.177917
0.000031 0.161469 0.260132
0.000031 0.213409 0.333130
0.000031 0.263824 0.414703
0.162415 0.230835 0.500671
0.399780 0.179413 0.480865
0.583984 0.159454 0.437622
0.563019 0.257019 0.323425
0.000031 0.211060 0.334137
0.000031 0.263428 0.405090
0.000031 0.314972 0.480774
0.048340 0.350311 0.511200
0.240875 0.311951 0.543823
0.455811 0.271606 0.525757
0.641296 0.248505 0.495575
0.628418 0.341034 0.386566
0.012238 0.316101 0.429321
0.063568 0.348083 0.469910
0.092224 0.391266 0.511719
0.158417 0.420929 0.524292
0.322327 0.401245 0.534607
0.495605 0.377289 0.542633
0.660278 0.362610 0.524139
0.662384 0.441132 0.448975
0.115997 0.389984 0.442108
0.149109 0.430817 0.484589
0.188446 0.469757 0.520630
0.261871 0.494781 0.537933
0.417511 0.483917 0.523773
0.538422 0.481964 0.556244
0.677551 0.478821 0.545868
0.702728 0.539642 0.502716
0.218231 0.464142 0.457794
0.256897 0.501556 0.503693
0.294586 0.541504 0.538574
0.352417 0.571930 0.569397
0.496277 0.567871 0.550903
0.593292 0.580994 0.567596
0.707428 0.586487 0.579010
0.749908 0.632416 0.568634
0.331238 0.533264 0.471008
0.370758 0.570984 0.512909
0.404633 0.613342 0.545166
0.459106 0.644287 0.582428
0.570831 0.652161 0.587646
0.672974 0.664093 0.596924
0.745819 0.689514 0.613617
0.810669 0.718323 0.634308
0.447845 0.598358 0.496033
0.482178 0.638519 0.538849
0.525665 0.675171 0.575500
0.574463 0.709839 0.608368
0.660278 0.729584 0.620422
0.739929 0.748779 0.652252
0.807648 0.775024 0.678619
0.875458 0.801178 0.705170
0.600952 0.643066 0.530609
0.638275 0.682678 0.568573
0.683167 0.718597 0.605133
0.723358 0.756744 0.642639
0.770966 0.791595 0.678101
0.834503 0.818176 0.713928
0.877075 0.854797 0.753601
0.919464 0.893402 0.782715
0.019165 0.121857 0.197144
0.058075 0.160400 0.236420
0.094147 0.199524 0.279999
0.129822 0.237213 0.332336
0.175629 0.270996 0.378143
0.289917 0.270050 0.423492
0.438995 0.257721 0.434937
0.544922 0.276245 0.398560
0.088654 0.200867 0.276123
0.129944 0.237061 0.321198
0.171509 0.274323 0.359985
0.196167 0.318481 0.407532
0.251160 0.347168 0.455963
0.363251 0.348419 0.495300
0.499756 0.345551 0.490112
0.616364 0.357300 0.461151
0.178284 0.273804 0.332489
0.216766 0.313416 0.367065
0.250397 0.353119 0.413971
0.285645 0.393402 0.453888
0.350311 0.421387 0.479309
0.439758 0.435577 0.511353
0.559387 0.436920 0.529541
0.655426 0.456085 0.516785
0.262115 0.352692 0.372803
0.300812 0.391388 0.411499
0.336853 0.431488 0.450073
0.367310 0.472931 0.496582
0.429413 0.503662 0.514557
0.516235 0.520508 0.539124
0.613739 0.532379 0.561615
0.707947 0.548798 0.568298
0.346100 0.432617 0.407196
0.392792 0.467407 0.445282
0.427582 0.506531 0.492493
0.462341 0.547729 0.528503
0.502747 0.586365 0.563080
0.600525 0.601135 0.568878
0.666809 0.627472 0.598877
0.750580 0.647247 0.616241
0.438324 0.507507 0.446289
0.481262 0.544373 0.483154
0.520050 0.582794 0.523468
0.556671 0.621948 0.565247
0.595581 0.660065 0.606812
0.670898 0.684692 0.620941
0.735199 0.712402 0.648773
0.809265 0.736267 0.670868
0.537292 0.577911 0.490997
0.576111 0.615967 0.532715
0.612640 0.655762 0.571381
0.650543 0.694794 0.610809
0.682404 0.736816 0.650269
0.744843 0.764832 0.681702
0.807190 0.795166 0.700806
0.867432 0.822632 0.740936
0.624969 0.652039 0.546143
0.663574 0.690643 0.585907
0.708099 0.726288 0.625092
0.744629 0.765381 0.667358
0.784729 0.803711 0.704651
0.828857 0.840118 0.740814
0.883545 0.872406 0.770569
0.932281 0.906219 0.808044
