content/luts/vintage/vintage_06.cube
#Created by: Adobe Photoshop Export Color Lookup Plugin
#Copyright: (C) Copyright 2022 inPixio
TITLE "Retro Vintage 6"
#LUT size
LUT_3D_SIZE 5
#data domain
#LUT data points
DOMAIN_MIN 0.000000 0.000000 0.000000
DOMAIN_MAX 0.903226 0.903226 0.903226
0.000000 0.000000 0.000000
0.088348 0.060516 0.050385
0.231323 0.097900 0.075623
0.410980 0.120514 0.080292
0.631439 0.123901 0.076843
0.048492 0.179932 0.113892
0.172791 0.225433 0.146606
0.316895 0.259979 0.184082
0.503387 0.280212 0.182800
0.726379 0.281342 0.184204
0.014893 0.406006 0.203888
0.180511 0.434265 0.216431
0.403015 0.436920 0.211243
0.603577 0.445190 0.235840
0.775269 0.463318 0.286194
0.211700 0.526917 0.230042
0.311340 0.579285 0.293121
0.477875 0.601227 0.337341
0.652618 0.617340 0.390015
0.798645 0.646698 0.450134
0.479980 0.584106 0.402679
0.556305 0.645874 0.479126
0.646912 0.702820 0.542419
0.750244 0.751770 0.613861
0.844940 0.801666 0.704010
0.000031 0.028351 0.073853
0.111511 0.076477 0.127197
0.245819 0.118561 0.150940
0.418488 0.144592 0.156342
0.640045 0.147797 0.150848
0.108887 0.181488 0.166443
0.195740 0.241150 0.225464
0.333771 0.280762 0.252319
0.520508 0.299866 0.256500
0.742767 0.301270 0.258514
0.122986 0.384857 0.248474
0.238586 0.433136 0.290192
0.427094 0.451141 0.295166
0.610229 0.467529 0.323700
0.789368 0.486023 0.351654
0.268799 0.528870 0.289551
0.366791 0.583740 0.343781
0.517151 0.612671 0.394196
0.677582 0.637360 0.440125
0.816833 0.670227 0.500092
0.510773 0.604248 0.436646
0.580994 0.670044 0.507751
0.675140 0.724487 0.574829
0.776733 0.773712 0.649872
0.870636 0.825226 0.733246
0.000031 0.052521 0.169891
0.123688 0.087372 0.261322
0.286316 0.116180 0.279083
0.542297 0.094208 0.314941
0.695648 0.138031 0.277191
0.081848 0.215302 0.284607
0.203979 0.258270 0.337067
0.381470 0.277100 0.367676
0.609497 0.272858 0.384430
0.765717 0.310425 0.372772
0.203583 0.369690 0.335663
0.308105 0.422455 0.383240
0.464661 0.452789 0.409637
0.635254 0.476471 0.433105
0.800171 0.503387 0.454956
0.379974 0.498230 0.376526
0.463104 0.560150 0.433624
0.569214 0.611603 0.483826
0.705963 0.648407 0.529480
0.836487 0.689484 0.568939
0.549133 0.617462 0.487030
0.616364 0.686035 0.551331
0.707916 0.742310 0.615692
0.803802 0.794159 0.692200
0.899445 0.845947 0.769043
0.000031 0.074371 0.278503
0.120483 0.093048 0.465454
0.346802 0.091644 0.471680
0.564087 0.096161 0.470856
0.695160 0.153229 0.422913
0.008606 0.252625 0.509949
0.197418 0.267883 0.529236
0.426514 0.265259 0.534088
0.640839 0.270050 0.539764
0.767090 0.325317 0.514832
0.201141 0.389893 0.459991
0.316132 0.436310 0.513000
0.485870 0.459290 0.542664
0.675171 0.475159 0.557159
0.804077 0.520844 0.576385
0.417816 0.506104 0.457031
0.495331 0.569702 0.519989
0.615326 0.614716 0.567261
0.734467 0.660095 0.614929
0.859558 0.703461 0.656891
0.590240 0.628174 0.543060
0.665588 0.691284 0.614746
0.745392 0.753113 0.681366
0.832275 0.813171 0.738434
0.920197 0.869843 0.810120
0.000031 0.095245 0.392395
0.111755 0.112671 0.609802
0.323120 0.120453 0.607361
0.534882 0.133087 0.578003
0.662506 0.190918 0.535736
0.094208 0.230072 0.623260
0.231506 0.269592 0.652649
0.423492 0.285217 0.661072
0.615875 0.303406 0.654846
0.747559 0.355896 0.630157
0.291870 0.369934 0.545013
0.377930 0.428406 0.612762
0.515594 0.465149 0.656036
0.671082 0.496857 0.677887
0.809082 0.537354 0.700043
0.441162 0.516937 0.560944
0.520935 0.580109 0.620239
0.622406 0.633148 0.675018
0.743561 0.676880 0.725952
0.868317 0.722595 0.756104
0.606171 0.649200 0.612640
0.679779 0.714447 0.677643
0.761902 0.776825 0.734955
0.859711 0.831238 0.792023
0.945953 0.889648 0.859680
