content/luts/vintage/vintage_11.cube
#Created by: Adobe Photoshop Export Color Lookup Plugin
#Copyright: (C) Copyright 2022 inPixio
TITLE "Retro Vintage 11"
#LUT size
LUT_3D_SIZE 8
#data domain
#LUT data points
DOMAIN_MIN 0.000000 0.000000 0.000000
DOMAIN_MAX 0.903226 0.903226 0.903226
0.000000 0.000000 0.000000
0.109497 0.000031 0.053284
0.232880 0.000031 0.068848
0.349457 0.000031 0.102570
0.463806 0.000031 0.142822
0.580109 0.000031 0.177429
0.706665 0.000031 0.184265
0.762482 0.039001 0.174622
0.100098 0.061249 0.090729
0.158752 0.091309 0.121185
0.279175 0.093842 0.131165
0.408325 0.090668 0.147858
0.560822 0.075928 0.162964
0.699615 0.066956 0.184479
0.811646 0.071869 0.204559
0.814392 0.129883 0.237671
0.166992 0.143463 0.159149
0.217834 0.177734 0.188873
0.292236 0.203827 0.197632
0.426331 0.202667 0.189911
0.565887 0.199127 0.180542
0.697601 0.195374 0.193115
0.808960 0.198059 0.227173
0.829010 0.244202 0.276825
0.228333 0.231232 0.213287
0.257416 0.276398 0.243622
0.327393 0.303986 0.256805
0.433655 0.318817 0.239105
0.551483 0.330078 0.209656
0.684265 0.326874 0.216309
0.795135 0.327301 0.263428
0.821899 0.368256 0.322968
0.233337 0.350250 0.253357
0.258820 0.398499 0.276917
0.299194 0.440521 0.293518
0.405243 0.453735 0.285095
0.533325 0.459442 0.257294
0.655212 0.460175 0.272797
0.752930 0.466431 0.324860
0.791565 0.499756 0.392487
0.247528 0.465118 0.290924
0.280609 0.507568 0.324646
0.324982 0.545624 0.351440
0.388489 0.576874 0.362701
0.503326 0.584656 0.359497
0.620911 0.589386 0.365631
0.717621 0.595917 0.418427
0.771179 0.621887 0.484894
0.371521 0.518372 0.358856
0.413055 0.556641 0.392578
0.456329 0.594116 0.425354
0.510071 0.626190 0.458344
0.570343 0.656372 0.484192
0.645355 0.679504 0.507324
0.720123 0.701782 0.536072
0.777191 0.729401 0.584167
0.506348 0.562378 0.447510
0.545013 0.604462 0.468109
0.586121 0.640656 0.513916
0.624634 0.679901 0.550110
0.673279 0.712585 0.594208
0.719666 0.748627 0.626312
0.769684 0.782715 0.658630
0.821503 0.815033 0.696136
0.033295 0.000031 0.038177
0.091614 0.028107 0.080231
0.216156 0.026917 0.099030
0.343689 0.026184 0.106873
0.492920 0.013458 0.120361
0.637665 0.000031 0.149475
0.761932 0.000031 0.162537
0.774963 0.055664 0.180389
0.120331 0.071259 0.110840
0.162018 0.109161 0.145599
0.252441 0.124695 0.167450
0.382935 0.124878 0.162811
0.537964 0.109589 0.173615
0.683472 0.098755 0.186951
0.808929 0.095947 0.211700
0.828064 0.144928 0.248535
0.186554 0.151001 0.194519
0.234009 0.186951 0.224274
0.300171 0.216675 0.236267
0.419281 0.225739 0.214478
0.560120 0.222076 0.202240
0.699677 0.214630 0.213257
0.814178 0.216705 0.241882
0.841187 0.259644 0.289642
0.261749 0.232880 0.242371
0.301208 0.271606 0.278839
0.344208 0.311829 0.297913
0.438354 0.333252 0.277985
0.565186 0.342896 0.232330
0.691589 0.343933 0.233887
0.802887 0.345551 0.273438
0.841827 0.380188 0.333527
0.277588 0.346161 0.283783
0.307892 0.389130 0.322449
0.331757 0.440308 0.334808
0.429230 0.457703 0.327667
0.549316 0.471130 0.279968
0.661896 0.478607 0.284668
0.768494 0.480865 0.334106
0.809021 0.513397 0.400787
0.282501 0.465912 0.320190
0.314880 0.510315 0.345612
0.348969 0.553009 0.375275
0.410461 0.585297 0.386444
0.514557 0.599579 0.377686
0.636932 0.603394 0.375580
0.732910 0.610199 0.429169
0.783325 0.637970 0.494904
0.391479 0.528870 0.377319
0.429749 0.570404 0.402039
0.468658 0.609070 0.440460
0.523193 0.639954 0.477783
0.572968 0.676056 0.500488
0.649841 0.699432 0.517273
0.735840 0.715851 0.546844
0.794250 0.741241 0.602966
0.517517 0.579132 0.456177
0.564056 0.615540 0.485748
0.597382 0.657104 0.523895
0.640747 0.692749 0.566376
0.683655 0.730072 0.601044
0.731537 0.764801 0.636017
0.783173 0.797363 0.672241
0.841003 0.827484 0.705017
0.039429 0.010345 0.094971
0.082367 0.045807 0.139557
0.184113 0.057098 0.153503
0.313660 0.054474 0.166046
0.451691 0.047485 0.179199
0.634033 0.023285 0.163422
0.756927 0.027374 0.158295
0.777496 0.076172 0.192291
0.114990 0.092224 0.141937
0.173187 0.121307 0.179016
0.234802 0.149780 0.210114
0.347412 0.154388 0.230286
0.492981 0.144043 0.240448
0.664764 0.127991 0.210327
0.800751 0.124329 0.210846
0.836121 0.164642 0.250031
0.194366 0.169952 0.200592
0.243164 0.203552 0.239227
0.307861 0.229431 0.275726
0.394409 0.248688 0.288300
0.534851 0.243378 0.285858
0.689636 0.238251 0.243073
0.814941 0.240356 0.241882
0.854248 0.275635 0.297241
0.281067 0.241730 0.271210
0.322906 0.279785 0.304810
0.371429 0.314117 0.340424
0.438812 0.344330 0.346466
0.553528 0.356293 0.321259
0.688751 0.362610 0.270630
0.806122 0.366150 0.283295
0.855682 0.394073 0.350433
0.321106 0.341888 0.316956
0.354523 0.382477 0.360352
0.396271 0.422485 0.383636
0.446594 0.461182 0.390442
0.547302 0.481018 0.361450
0.664520 0.494385 0.321960
0.776123 0.498077 0.349945
0.820282 0.529205 0.414337
0.319305 0.466309 0.346771
0.366333 0.500305 0.387970
0.401764 0.543579 0.410889
0.440521 0.585907 0.430420
0.529419 0.607330 0.424652
0.641235 0.617950 0.414795
0.740875 0.626404 0.449677
0.794952 0.653809 0.507294
0.413391 0.537628 0.399597
0.462097 0.572296 0.432892
0.499298 0.612640 0.466797
0.541260 0.651184 0.497223
0.598846 0.682465 0.524567
0.665192 0.711243 0.540955
0.748871 0.730530 0.561523
0.803558 0.757751 0.618225
0.533905 0.591980 0.471527
0.572144 0.631989 0.504486
0.618256 0.666687 0.544617
0.658295 0.704956 0.582001
0.697235 0.744171 0.617401
0.749451 0.776917 0.651154
0.797485 0.811279 0.687561
0.854309 0.842560 0.716919
0.029755 0.029755 0.146393
0.076538 0.063751 0.188110
0.150299 0.085541 0.222260
0.268677 0.089294 0.231110
0.431915 0.068420 0.249725
0.590393 0.050598 0.265137
0.739197 0.043030 0.251495
0.802887 0.083496 0.212891
0.107605 0.111145 0.189697
0.144867 0.150299 0.229889
0.228424 0.167725 0.260193
0.321686 0.181152 0.286011
0.470551 0.166656 0.309601
0.619110 0.154816 0.320038
0.780640 0.141266 0.303925
0.857513 0.173645 0.272308
0.189026 0.185608 0.260101
0.237000 0.223206 0.279633
0.313507 0.246735 0.296448
0.378113 0.271484 0.339294
0.498169 0.271454 0.364319
0.642578 0.263916 0.362701
0.795563 0.257294 0.332916
0.869202 0.287415 0.322449
0.264374 0.269440 0.297028
0.323639 0.296448 0.342499
0.379700 0.329468 0.364380
0.441101 0.357086 0.400757
0.530640 0.374908 0.412964
0.661224 0.377838 0.393036
0.791260 0.382751 0.363647
0.870239 0.407471 0.367767
0.347198 0.346191 0.351868
0.390106 0.382660 0.391113
0.442535 0.415985 0.421295
0.475922 0.459229 0.450104
0.548462 0.488983 0.444702
0.653992 0.504974 0.422852
0.767517 0.515167 0.410797
0.845276 0.538666 0.424286
0.344788 0.469269 0.390442
0.391907 0.504272 0.425934
0.441650 0.538818 0.456970
0.488159 0.577087 0.476776
0.538147 0.616058 0.483368
0.641754 0.629852 0.478577
0.743652 0.643097 0.481537
0.812897 0.665649 0.523712
0.413361 0.557709 0.420959
0.458923 0.593384 0.457275
0.517456 0.622467 0.493561
0.567993 0.656433 0.525391
0.611633 0.694000 0.556976
0.675598 0.724548 0.570221
0.754578 0.747375 0.584442
0.824615 0.768707 0.630951
0.548676 0.606232 0.483795
0.591858 0.641571 0.528351
0.632812 0.679504 0.565155
0.673798 0.717194 0.602966
0.715393 0.756256 0.632141
0.764465 0.790375 0.667053
0.809631 0.827057 0.699066
0.869598 0.855194 0.736420
0.009430 0.050812 0.217651
0.048340 0.089722 0.255066
0.112701 0.117889 0.280090
0.234589 0.115326 0.313416
0.376099 0.107269 0.322723
0.536163 0.092529 0.316925
0.672516 0.090485 0.308075
0.754547 0.120270 0.276489
0.088898 0.129242 0.272583
0.130341 0.168671 0.299988
0.195099 0.197113 0.322876
0.302979 0.201050 0.359283
0.423401 0.201508 0.380524
0.578430 0.189026 0.376251
0.722839 0.182434 0.369537
0.815247 0.206024 0.343140
0.169434 0.211426 0.303925
0.209381 0.249481 0.343109
0.286499 0.273743 0.354462
0.367004 0.292999 0.383453
0.465088 0.302002 0.419678
0.599091 0.298889 0.422760
0.742828 0.291962 0.419983
0.849945 0.306396 0.402130
0.230164 0.301758 0.346039
0.283661 0.332245 0.388428
0.363831 0.353485 0.407990
0.437378 0.377655 0.429413
0.506470 0.402466 0.460144
0.622498 0.406921 0.471436
0.769073 0.398682 0.467743
0.866455 0.420135 0.439117
0.311859 0.378052 0.406372
0.363098 0.412476 0.433838
0.437500 0.434875 0.462555
0.497681 0.464813 0.489746
0.548523 0.502747 0.499695
0.644928 0.516907 0.512482
0.760498 0.528381 0.487885
0.841614 0.554230 0.479828
0.359192 0.478241 0.431946
0.408997 0.511475 0.469604
0.471313 0.540497 0.496094
0.523804 0.573273 0.528870
0.563049 0.617432 0.536987
0.641510 0.642639 0.539795
0.740723 0.658752 0.534515
0.817841 0.680847 0.557770
0.405823 0.580048 0.450867
0.451782 0.616364 0.482513
0.507446 0.647217 0.517059
0.575134 0.672028 0.551483
0.634216 0.701141 0.585907
0.685638 0.736084 0.610474
0.763031 0.760773 0.618561
0.831024 0.785736 0.651154
0.546722 0.628693 0.497772
0.590759 0.665131 0.534210
0.636200 0.698578 0.582550
0.685242 0.733429 0.613739
0.731171 0.767731 0.656525
0.772034 0.805054 0.696625
0.824646 0.839691 0.719513
0.877197 0.871246 0.758667
0.000031 0.078979 0.221466
0.006165 0.121429 0.329010
0.045288 0.160553 0.364349
0.154846 0.162079 0.409149
0.335632 0.133453 0.421753
0.484131 0.123596 0.421387
0.581207 0.154022 0.345306
0.629364 0.204468 0.295410
0.043884 0.161438 0.351562
0.077942 0.205322 0.375092
0.127808 0.238617 0.412689
0.240234 0.242310 0.437988
0.390717 0.224884 0.473083
0.536804 0.217010 0.468872
0.624146 0.249084 0.410370
0.696991 0.284607 0.373169
0.116180 0.250275 0.369965
0.159546 0.287689 0.403046
0.204834 0.321991 0.447235
0.326080 0.324829 0.453491
0.431427 0.329590 0.492401
0.566772 0.323608 0.507416
0.646423 0.358643 0.454041
0.737610 0.381775 0.433258
0.181641 0.338623 0.409729
0.220917 0.376770 0.449890
0.284485 0.405457 0.474518
0.394867 0.414337 0.477722
0.485779 0.426941 0.514374
0.586853 0.437439 0.534088
0.672791 0.466095 0.497864
0.779877 0.477173 0.498444
0.238220 0.431274 0.450592
0.274139 0.471863 0.487152
0.356018 0.491547 0.509857
0.459137 0.502167 0.523407
0.535828 0.527130 0.532532
0.610291 0.549164 0.563080
0.710693 0.565857 0.551666
0.831848 0.568848 0.556976
0.295410 0.524384 0.487335
0.345367 0.558899 0.517914
0.423126 0.580505 0.541931
0.507141 0.599487 0.562683
0.586700 0.618988 0.593414
0.642181 0.655975 0.595367
0.742340 0.671265 0.592041
0.829651 0.691772 0.595856
0.385681 0.606293 0.494202
0.425140 0.645874 0.525970
0.486511 0.672882 0.565582
0.565552 0.693207 0.593018
0.635590 0.718445 0.618530
0.701355 0.747406 0.635803
0.769165 0.773712 0.661530
0.836823 0.801056 0.682251
0.555359 0.643402 0.524353
0.592346 0.683411 0.560699
0.631866 0.721558 0.600128
0.678345 0.756897 0.635712
0.739624 0.784515 0.672424
0.791290 0.817108 0.708679
0.837280 0.851318 0.751770
0.889130 0.886749 0.772125
0.000031 0.100708 0.233948
0.000031 0.146667 0.339478
0.028717 0.186218 0.400635
0.068237 0.224487 0.439514
0.224396 0.200592 0.493958
0.407471 0.175446 0.481201
0.564545 0.164185 0.465240
0.556824 0.255981 0.345673
0.021484 0.189728 0.389984
0.063507 0.227570 0.424164
0.094849 0.269562 0.465637
0.148590 0.304077 0.485718
0.296936 0.284668 0.537170
0.464722 0.264465 0.539978
0.615387 0.257629 0.517334
0.618591 0.341064 0.413300
0.096222 0.275482 0.418182
0.129852 0.317322 0.454193
0.166534 0.357025 0.492889
0.228210 0.386749 0.517273
0.356232 0.381897 0.545868
0.496796 0.373444 0.560028
0.643799 0.365753 0.552094
0.654114 0.441620 0.468933
0.159363 0.367859 0.442749
0.197845 0.406708 0.481079
0.238983 0.444031 0.520721
0.306122 0.471100 0.544342
0.422119 0.477783 0.544067
0.529297 0.482361 0.579163
0.655792 0.483368 0.580658
0.689392 0.542267 0.524963
0.223907 0.458313 0.473755
0.262604 0.496002 0.517883
0.307129 0.533173 0.549103
0.359833 0.566040 0.580841
0.487030 0.568237 0.574066
0.569244 0.587463 0.598724
0.679047 0.596191 0.604523
0.722473 0.643402 0.584473
0.301514 0.543640 0.496552
0.345337 0.579468 0.536591
0.380951 0.619629 0.575989
0.437439 0.650726 0.606934
0.542267 0.662201 0.611725
0.631226 0.679565 0.627808
0.709351 0.702667 0.642548
0.789490 0.726227 0.649689
0.398010 0.618347 0.524872
0.437225 0.656433 0.565247
0.474884 0.696777 0.597961
0.525391 0.728699 0.641144
0.616791 0.745300 0.654602
0.701721 0.763824 0.675659
0.769714 0.791626 0.692932
0.847168 0.814026 0.713348
0.557434 0.660889 0.553894
0.587006 0.704010 0.593964
0.635376 0.738983 0.626129
0.674286 0.778290 0.661133
0.731812 0.807953 0.697021
0.796234 0.834686 0.729706
0.852417 0.864319 0.769684
0.898224 0.901245 0.798401
0.000031 0.127167 0.220947
0.025452 0.169159 0.278442
0.064148 0.207855 0.317169
0.100037 0.247406 0.358978
0.156433 0.275330 0.407288
0.272705 0.272308 0.458282
0.418152 0.261780 0.470001
0.544037 0.270050 0.434235
0.062042 0.205719 0.322632
0.099426 0.245667 0.358246
0.141632 0.284210 0.388550
0.179565 0.321472 0.436859
0.230743 0.352783 0.481445
0.348572 0.350098 0.526428
0.482849 0.346985 0.528503
0.603760 0.356323 0.500671
0.143860 0.284393 0.369659
0.176147 0.326569 0.407257
0.216156 0.363800 0.450195
0.249481 0.405701 0.486542
0.316193 0.432434 0.513031
0.412476 0.442047 0.551117
0.531342 0.445312 0.561188
0.643036 0.457428 0.543335
0.215149 0.369354 0.411621
0.255249 0.407928 0.447144
0.291107 0.447601 0.488586
0.326874 0.487396 0.529388
0.383331 0.519928 0.552826
0.478546 0.534180 0.568481
0.579742 0.543427 0.594910
0.689240 0.554260 0.590179
0.300446 0.449188 0.442749
0.341919 0.487152 0.478149
0.375885 0.527161 0.522614
0.413208 0.567047 0.558685
0.457001 0.603241 0.597168
0.554047 0.619446 0.597534
0.633820 0.639008 0.627106
0.724548 0.656250 0.639038
0.387451 0.526855 0.481171
0.425293 0.566223 0.518646
0.465790 0.604462 0.554993
0.501862 0.644562 0.593567
0.539948 0.682373 0.638733
0.624695 0.702850 0.649719
0.697449 0.727295 0.671997
0.774872 0.749817 0.691895
0.478271 0.602386 0.520660
0.523560 0.637787 0.558960
0.564240 0.675201 0.599030
0.600464 0.715210 0.637787
0.631866 0.756744 0.681091
0.695007 0.785950 0.704498
0.769379 0.809601 0.726349
0.841003 0.833801 0.753235
0.586731 0.666168 0.574585
0.618805 0.709503 0.606781
0.661163 0.746918 0.642426
0.697479 0.786041 0.685211
0.734558 0.825623 0.723816
0.786407 0.858276 0.759094
0.855774 0.883606 0.786194
0.906738 0.917114 0.819183
