content/luts/vintage/vintage_06.cube
#Created by: Adobe Photoshop Export Color Lookup Plugin
#Copyright: (C) Copyright 2022 inPixio
TITLE "Retro Vintage 6"
#LUT size
LUT_3D_SIZE 8
#data domain
#LUT data points
DOMAIN_MIN 0.000000 0.000000 0.000000
DOMAIN_MAX 0.903226 0.903226 0.903226
0.000000 0.000000 0.000000
0.043060 0.037994 0.030548
0.106445 0.066467 0.057098
0.186066 0.089050 0.070587
0.280609 0.105896 0.074524
0.378510 0.120422 0.081207
0.508667 0.120544 0.077423
0.631439 0.123901 0.076843
0.042511 0.096893 0.056549
0.086365 0.133423 0.092682
0.166595 0.153717 0.116882
0.244568 0.176758 0.132629
0.328918 0.197327 0.144196
0.438599 0.207214 0.144226
0.564148 0.209045 0.143646
0.693176 0.210052 0.138062
0.053284 0.206726 0.130066
0.120209 0.234070 0.152740
0.201508 0.256409 0.163177
0.286530 0.274902 0.183685
0.378113 0.290436 0.202759
0.481628 0.303741 0.201019
0.611877 0.304596 0.193268
0.735809 0.306183 0.198425
0.030334 0.336456 0.188965
0.105835 0.361481 0.200592
0.216187 0.369751 0.207336
0.320953 0.381927 0.208130
0.440765 0.387756 0.202179
0.531281 0.400482 0.238708
0.650208 0.405029 0.241974
0.761017 0.411743 0.255768
0.006989 0.472534 0.214844
0.095276 0.489716 0.233673
0.220795 0.492920 0.226379
0.343262 0.495697 0.229279
0.487915 0.488159 0.227173
0.605408 0.493439 0.230316
0.701294 0.501312 0.278534
0.785217 0.517914 0.312469
0.163910 0.521637 0.215637
0.219849 0.552032 0.251953
0.300903 0.571350 0.278900
0.406097 0.580292 0.296173
0.514740 0.586334 0.319305
0.624054 0.590790 0.349304
0.715851 0.603668 0.381897
0.796448 0.621002 0.420868
0.339691 0.546021 0.297577
0.381897 0.583923 0.331055
0.440369 0.613525 0.364594
0.510406 0.636780 0.400604
0.586884 0.656342 0.439392
0.664978 0.676605 0.469543
0.740967 0.696167 0.509216
0.809479 0.720276 0.544952
0.479980 0.584106 0.402679
0.518585 0.622681 0.442535
0.569000 0.653503 0.491577
0.623322 0.685303 0.524658
0.674194 0.717987 0.562744
0.735352 0.744965 0.603027
0.791626 0.773285 0.649445
0.844940 0.801666 0.704010
0.000031 0.018341 0.030670
0.053925 0.049255 0.069611
0.117767 0.078308 0.091583
0.183380 0.107513 0.107880
0.270813 0.126465 0.119873
0.380005 0.137115 0.116760
0.507172 0.137909 0.117523
0.638184 0.137604 0.113953
0.062378 0.105530 0.085022
0.112671 0.137329 0.129120
0.165192 0.170776 0.158264
0.243530 0.194305 0.170410
0.329803 0.213654 0.183167
0.445068 0.220154 0.186127
0.565063 0.226410 0.176941
0.692780 0.226471 0.180298
0.095215 0.203247 0.163391
0.142395 0.241058 0.183899
0.225311 0.260468 0.205322
0.289825 0.288452 0.231262
0.383026 0.305725 0.236389
0.492401 0.315674 0.236481
0.622620 0.316315 0.230072
0.744080 0.319000 0.236298
0.083801 0.330353 0.204742
0.143005 0.361084 0.230408
0.231049 0.378296 0.250031
0.338623 0.390106 0.244873
0.444733 0.400452 0.252075
0.541718 0.411652 0.279327
0.660431 0.416901 0.279266
0.771881 0.424225 0.288269
0.066284 0.463898 0.228455
0.143585 0.484741 0.257660
0.246002 0.496857 0.265350
0.368317 0.500305 0.265259
0.492279 0.502411 0.267731
0.615448 0.504395 0.273132
0.712860 0.513000 0.313385
0.793396 0.530640 0.350739
0.185272 0.528320 0.250519
0.244080 0.557434 0.285828
0.321136 0.580475 0.303802
0.425842 0.589020 0.324524
0.533081 0.595062 0.351654
0.633698 0.604462 0.378662
0.728699 0.617249 0.402832
0.805908 0.636169 0.442871
0.351868 0.560089 0.317841
0.402130 0.593750 0.352142
0.455719 0.625366 0.388306
0.524109 0.649994 0.421539
0.601379 0.670959 0.450348
0.679291 0.689301 0.491180
0.754425 0.711517 0.519257
0.822540 0.734375 0.562714
0.497467 0.598053 0.409180
0.534637 0.635590 0.458466
0.580505 0.671722 0.491455
0.632019 0.703125 0.534363
0.687866 0.733124 0.573364
0.749542 0.758759 0.619232
0.806061 0.786957 0.665649
0.860870 0.816345 0.710846
0.000031 0.031403 0.089569
0.056335 0.061890 0.124146
0.134674 0.082947 0.149628
0.218292 0.103180 0.165039
0.309143 0.120667 0.175415
0.411377 0.134979 0.171539
0.522369 0.145264 0.165497
0.642731 0.149750 0.165192
0.061249 0.120453 0.137146
0.110596 0.154510 0.171692
0.183716 0.177155 0.202576
0.273834 0.193665 0.220215
0.359589 0.213593 0.231201
0.457306 0.228455 0.237030
0.582855 0.231812 0.228516
0.700348 0.236084 0.237122
0.120636 0.209167 0.191071
0.163452 0.247314 0.221771
0.229919 0.273071 0.254333
0.309174 0.295105 0.271729
0.400024 0.313232 0.278687
0.508667 0.322449 0.284882
0.632660 0.325745 0.281097
0.758026 0.326385 0.287415
0.144501 0.314514 0.253174
0.195923 0.350128 0.273834
0.256195 0.381287 0.294403
0.353088 0.397125 0.296936
0.451263 0.409637 0.314117
0.553864 0.421387 0.323090
0.673767 0.424805 0.329529
0.782318 0.433289 0.340057
0.147614 0.441895 0.253632
0.202637 0.471222 0.298401
0.285004 0.491211 0.318268
0.385895 0.504456 0.323914
0.510071 0.507294 0.322205
0.618591 0.514984 0.336853
0.718536 0.524231 0.366608
0.801636 0.542328 0.394806
0.251495 0.512848 0.282074
0.299316 0.546600 0.322449
0.369232 0.572021 0.347229
0.458069 0.587738 0.372681
0.557129 0.598602 0.396088
0.647797 0.613892 0.418701
0.739838 0.626984 0.449249
0.817383 0.646973 0.482635
0.393433 0.556885 0.350555
0.437622 0.593353 0.386536
0.487823 0.626312 0.424561
0.547729 0.655243 0.457916
0.617706 0.679932 0.486664
0.696320 0.699982 0.516693
0.769928 0.721222 0.553986
0.835571 0.746124 0.593201
0.516876 0.606049 0.442474
0.559448 0.642181 0.484314
0.605896 0.677734 0.518982
0.656952 0.709320 0.562073
0.709320 0.740814 0.602539
0.767120 0.769135 0.644806
0.819275 0.800049 0.688599
0.874664 0.827728 0.741058
0.000031 0.045197 0.144714
0.054169 0.071503 0.207611
0.144867 0.089355 0.216461
0.221130 0.114502 0.225555
0.343353 0.112213 0.256531
0.477570 0.107697 0.266449
0.595825 0.116394 0.249207
0.680603 0.140961 0.238251
0.054718 0.132904 0.217010
0.106812 0.166016 0.249237
0.197388 0.182587 0.265076
0.280182 0.201233 0.291321
0.399628 0.202515 0.310547
0.528137 0.202393 0.312683
0.641479 0.211761 0.305237
0.728821 0.233429 0.302490
0.108643 0.227295 0.255737
0.159241 0.263458 0.275726
0.238190 0.281189 0.317261
0.331909 0.296509 0.331268
0.446411 0.301819 0.342407
0.554779 0.311890 0.344635
0.660645 0.323639 0.345154
0.748657 0.344208 0.346497
0.171143 0.318512 0.288269
0.227997 0.347778 0.327942
0.289673 0.379089 0.343933
0.375671 0.397430 0.362640
0.468292 0.413879 0.373901
0.571167 0.426056 0.379883
0.684998 0.431458 0.392273
0.781494 0.446747 0.399048
0.221863 0.415527 0.321655
0.280731 0.446564 0.346741
0.343964 0.475433 0.371277
0.420135 0.500488 0.380920
0.532410 0.506836 0.392731
0.623474 0.522888 0.410065
0.719543 0.535736 0.431091
0.805695 0.553345 0.453644
0.322968 0.489594 0.340820
0.364319 0.528534 0.371033
0.421234 0.560150 0.398193
0.489014 0.585541 0.428925
0.579254 0.601532 0.449097
0.666687 0.617737 0.475555
0.749725 0.636871 0.498230
0.825958 0.658997 0.523895
0.422089 0.559113 0.389465
0.466431 0.595581 0.425049
0.516785 0.629242 0.458984
0.571533 0.660950 0.491333
0.640015 0.686066 0.522003
0.714447 0.708496 0.550385
0.782471 0.731995 0.590942
0.847778 0.757843 0.626160
0.538910 0.614166 0.467957
0.578125 0.652130 0.509186
0.619141 0.689117 0.550964
0.667175 0.723724 0.586090
0.725189 0.752625 0.624847
0.781891 0.781647 0.666412
0.837646 0.810822 0.709503
0.890442 0.840729 0.757355
0.000031 0.060181 0.193298
0.041718 0.082184 0.313568
0.146851 0.092834 0.321564
0.259064 0.100708 0.325012
0.360077 0.114410 0.328064
0.506134 0.101074 0.353058
0.641602 0.096893 0.358002
0.699799 0.140137 0.319275
0.018219 0.155090 0.326630
0.102051 0.174530 0.345459
0.197937 0.187958 0.364075
0.309479 0.195251 0.372620
0.411346 0.207520 0.380981
0.561798 0.191132 0.410492
0.690613 0.192169 0.405487
0.752991 0.230652 0.380829
0.083771 0.248352 0.339722
0.147095 0.274872 0.376709
0.243469 0.287506 0.397827
0.351318 0.295776 0.411285
0.461670 0.303009 0.423462
0.607117 0.292999 0.432404
0.709076 0.306915 0.431671
0.778229 0.338623 0.424896
0.150299 0.339661 0.360687
0.212311 0.367157 0.395782
0.293152 0.388916 0.410797
0.391327 0.399811 0.436249
0.505310 0.406372 0.442322
0.626282 0.408539 0.452576
0.715820 0.427643 0.457642
0.792267 0.453125 0.464508
0.240753 0.419891 0.375854
0.302246 0.446960 0.414825
0.370209 0.475464 0.428406
0.456696 0.493530 0.447601
0.550079 0.509613 0.458618
0.637878 0.526794 0.478729
0.729065 0.542480 0.497925
0.811737 0.562286 0.518158
0.357544 0.487335 0.387665
0.406219 0.521057 0.425812
0.471771 0.548187 0.453552
0.540314 0.574219 0.478973
0.603668 0.602142 0.508423
0.684937 0.622192 0.530853
0.756897 0.647614 0.550079
0.839478 0.666809 0.573944
0.470032 0.550598 0.433716
0.514740 0.587616 0.465027
0.558685 0.623810 0.502899
0.602539 0.660614 0.537903
0.661743 0.691101 0.564606
0.728943 0.716400 0.597870
0.797913 0.741364 0.627655
0.859131 0.770081 0.658386
0.558624 0.620483 0.509277
0.604340 0.656952 0.540955
0.643921 0.695160 0.580048
0.693787 0.728973 0.614471
0.744385 0.761078 0.656219
0.797119 0.791809 0.699341
0.850006 0.823822 0.735504
0.901978 0.854523 0.780792
0.000031 0.072296 0.257263
0.019440 0.094208 0.438934
0.151215 0.094177 0.431427
0.271790 0.096863 0.439941
0.409546 0.092621 0.438995
0.528717 0.096191 0.446625
0.647491 0.101868 0.444305
0.692993 0.151825 0.404083
0.000031 0.169617 0.427338
0.085693 0.181854 0.479919
0.202484 0.187958 0.480835
0.326660 0.189667 0.484680
0.457886 0.187286 0.491791
0.578674 0.191315 0.492401
0.696655 0.197601 0.488800
0.748688 0.241425 0.463806
0.049591 0.264282 0.476318
0.132904 0.284821 0.491058
0.242310 0.293549 0.497742
0.363464 0.295288 0.510101
0.496582 0.291901 0.517059
0.610138 0.299042 0.520935
0.722931 0.308258 0.515869
0.772491 0.351746 0.498993
0.152344 0.347412 0.442566
0.209625 0.377350 0.477448
0.300232 0.392822 0.499359
0.398621 0.404449 0.520477
0.520599 0.405975 0.531860
0.638123 0.411041 0.535797
0.731567 0.428955 0.536621
0.797394 0.460754 0.538574
0.249939 0.425507 0.449524
0.296844 0.462311 0.476196
0.377075 0.483704 0.494598
0.468933 0.498535 0.516235
0.565430 0.511780 0.534271
0.664337 0.524414 0.548462
0.746155 0.545776 0.562744
0.820557 0.570740 0.577820
0.379852 0.490417 0.439301
0.422699 0.527161 0.477203
0.487244 0.553528 0.511902
0.556091 0.580261 0.532318
0.630280 0.603333 0.558533
0.702667 0.628265 0.579071
0.769073 0.655731 0.602356
0.848328 0.676544 0.626709
0.487793 0.557739 0.476044
0.528290 0.595978 0.512360
0.574371 0.631287 0.548950
0.635101 0.660797 0.577301
0.689697 0.692200 0.611755
0.745514 0.723999 0.640778
0.806824 0.753296 0.668304
0.880493 0.776367 0.695526
0.585663 0.625885 0.535675
0.626953 0.662384 0.579254
0.675964 0.696594 0.613983
0.719696 0.733246 0.649750
0.759613 0.771606 0.687256
0.813995 0.803741 0.718353
0.865326 0.834564 0.764984
0.914734 0.868195 0.801636
0.000031 0.085876 0.313446
0.004700 0.104401 0.553375
0.146179 0.099884 0.543427
0.283081 0.095856 0.543671
0.414398 0.095581 0.539124
0.547485 0.094604 0.533173
0.640564 0.116058 0.516083
0.695587 0.159454 0.485077
0.000031 0.177734 0.512817
0.072235 0.193298 0.584320
0.203308 0.191315 0.589417
0.333466 0.191803 0.583588
0.469604 0.186981 0.590424
0.594391 0.189697 0.587158
0.690094 0.210388 0.567139
0.755432 0.246643 0.546570
0.054565 0.266693 0.578796
0.141174 0.285126 0.595947
0.253265 0.292725 0.601166
0.373779 0.296356 0.605042
0.502655 0.296539 0.604584
0.623932 0.300964 0.602173
0.715210 0.321411 0.595184
0.779755 0.357239 0.578888
0.185425 0.339905 0.521454
0.238831 0.371796 0.556641
0.314728 0.393433 0.585602
0.415192 0.406219 0.594971
0.534668 0.409180 0.605255
0.642639 0.419220 0.608734
0.734467 0.438202 0.608490
0.797668 0.471405 0.609680
0.277405 0.425293 0.504974
0.337494 0.454620 0.535828
0.404633 0.482666 0.554016
0.484741 0.502319 0.581879
0.572632 0.518616 0.606903
0.671570 0.531647 0.619049
0.754883 0.552490 0.631927
0.821350 0.581787 0.645264
0.397736 0.495026 0.494781
0.442902 0.529816 0.536896
0.495514 0.563446 0.564972
0.562805 0.590149 0.590149
0.635529 0.613892 0.616547
0.712494 0.635956 0.640015
0.785980 0.659119 0.667206
0.853180 0.685944 0.692139
0.494141 0.570679 0.518311
0.536987 0.606812 0.559387
0.588623 0.640259 0.590912
0.645081 0.670868 0.624969
0.703278 0.701508 0.653687
0.763855 0.729950 0.688080
0.831726 0.756592 0.711792
0.894287 0.785248 0.739197
0.593353 0.640533 0.565033
0.635529 0.675995 0.611755
0.679718 0.711487 0.652771
0.729279 0.746094 0.683868
0.780396 0.778625 0.721832
0.834412 0.810883 0.753326
0.879395 0.845490 0.797150
0.929657 0.879303 0.830597
0.000031 0.095245 0.392395
0.025818 0.108185 0.604553
0.140167 0.113983 0.613434
0.260742 0.118835 0.610291
0.391327 0.120087 0.599426
0.507812 0.128815 0.586639
0.606384 0.147675 0.568909
0.662506 0.190918 0.535736
0.018005 0.170593 0.631042
0.096466 0.192993 0.648895
0.205414 0.202148 0.654755
0.326233 0.206696 0.652618
0.448669 0.210083 0.652466
0.564697 0.218719 0.641724
0.667419 0.235779 0.621735
0.732025 0.270691 0.610352
0.121307 0.250336 0.613892
0.186981 0.277313 0.641785
0.273499 0.295898 0.657959
0.384705 0.304138 0.662659
0.488525 0.316956 0.662445
0.601898 0.325104 0.661591
0.697784 0.343719 0.652252
0.758911 0.380676 0.638977
0.227448 0.331573 0.580688
0.277466 0.365631 0.613342
0.348999 0.390625 0.636169
0.439819 0.407318 0.650696
0.531555 0.423889 0.663757
0.632294 0.437225 0.669220
0.729767 0.452454 0.673981
0.799622 0.481812 0.677643
0.327942 0.415253 0.549957
0.382660 0.447693 0.578735
0.435486 0.479889 0.613861
0.505127 0.503998 0.646301
0.585815 0.524200 0.670074
0.668732 0.544006 0.689453
0.760223 0.560852 0.701508
0.832886 0.587250 0.713715
0.416199 0.498535 0.554718
0.464905 0.533356 0.586975
0.510193 0.570404 0.616821
0.573792 0.597321 0.650696
0.640137 0.622925 0.684387
0.713348 0.645935 0.713226
0.793243 0.667267 0.732788
0.860626 0.695679 0.748444
0.504944 0.578186 0.577667
0.549347 0.614746 0.612213
0.595612 0.650513 0.646088
0.648712 0.682220 0.683105
0.707520 0.713074 0.709167
0.769012 0.742065 0.737885
0.834717 0.767792 0.772583
0.894318 0.798828 0.795288
0.606171 0.649200 0.612640
0.641876 0.689697 0.650116
0.687897 0.725586 0.683716
0.737427 0.760071 0.715424
0.793274 0.789978 0.754822
0.845032 0.823639 0.784943
0.895386 0.856934 0.821259
0.945953 0.889648 0.859680
