content/luts/vintage/vintage_01.cube
#Created by: Adobe Photoshop Export Color Lookup Plugin
#Copyright: (C) Copyright 2022 inPixio
TITLE "Retro Vintage 1"
#LUT size
LUT_3D_SIZE 8
#data domain
#LUT data points
DOMAIN_MIN 0.000000 0.000000 0.000000
DOMAIN_MAX 0.903226 0.903226 0.903226
0.047058 0.070587 0.062744
0.083862 0.078796 0.071350
0.140289 0.098053 0.089447
0.216949 0.114349 0.091339
0.321075 0.144867 0.110443
0.452118 0.176483 0.137268
0.613922 0.206848 0.164703
0.774323 0.252502 0.198853
0.065521 0.115997 0.074890
0.083496 0.112823 0.079193
0.144196 0.131317 0.094116
0.219360 0.148499 0.107025
0.313232 0.177856 0.123474
0.454926 0.206848 0.148895
0.611511 0.237457 0.170135
0.766998 0.278442 0.206451
0.047058 0.198975 0.115997
0.077179 0.214294 0.112457
0.161285 0.215424 0.121429
0.239197 0.226807 0.125732
0.329681 0.236572 0.139404
0.465912 0.267181 0.161804
0.625549 0.297028 0.191284
0.775726 0.338257 0.229614
0.009491 0.322327 0.164185
0.070465 0.334076 0.161804
0.188599 0.342163 0.177094
0.309021 0.366089 0.177094
0.440979 0.374664 0.187988
0.509918 0.361389 0.201019
0.639221 0.377869 0.216949
0.776978 0.414276 0.259705
0.041504 0.487061 0.228729
0.127380 0.504883 0.236572
0.248840 0.506775 0.232513
0.380768 0.521332 0.253632
0.543488 0.539795 0.270966
0.670105 0.549927 0.296173
0.721710 0.518555 0.299591
0.788361 0.513367 0.320831
0.300720 0.638733 0.344360
0.341339 0.644928 0.350922
0.400757 0.649231 0.359650
0.495270 0.655151 0.380035
0.613434 0.660095 0.405823
0.711090 0.675903 0.432404
0.800751 0.688568 0.471375
0.847687 0.671875 0.478333
0.550812 0.743713 0.502472
0.569519 0.741821 0.507782
0.584839 0.746735 0.507294
0.637939 0.752045 0.522095
0.690094 0.750793 0.540039
0.755737 0.758392 0.560791
0.817596 0.764954 0.592041
0.864502 0.779877 0.610138
0.732452 0.810638 0.646423
0.723969 0.812531 0.638977
0.737885 0.811768 0.654785
0.761932 0.810760 0.655273
0.782684 0.813019 0.667175
0.810638 0.818329 0.686035
0.841248 0.820251 0.706909
0.861603 0.818329 0.720673
0.057678 0.078430 0.096405
0.084625 0.079193 0.099548
0.144958 0.099945 0.115234
0.208710 0.124603 0.129272
0.303741 0.152832 0.144226
0.442017 0.184570 0.166351
0.604828 0.214691 0.192017
0.771912 0.256409 0.230103
0.071350 0.116394 0.101837
0.095642 0.120300 0.111328
0.135101 0.136749 0.117126
0.202759 0.153564 0.128906
0.305023 0.180267 0.151031
0.436066 0.212769 0.170410
0.602417 0.239349 0.197357
0.756622 0.278168 0.235809
0.085907 0.185577 0.142181
0.097534 0.196198 0.132690
0.159760 0.203674 0.146484
0.223511 0.212646 0.155975
0.321716 0.235413 0.166473
0.459961 0.267914 0.185211
0.622406 0.298401 0.216187
0.768890 0.340302 0.252869
0.065277 0.307251 0.177216
0.105743 0.318268 0.182037
0.185822 0.327240 0.198608
0.295624 0.344452 0.194550
0.414276 0.362152 0.211884
0.489441 0.351654 0.212646
0.634918 0.379120 0.240845
0.765839 0.412628 0.280945
0.107910 0.479340 0.236053
0.158264 0.487549 0.257690
0.255402 0.495789 0.256439
0.383301 0.508301 0.268829
0.530457 0.527161 0.283875
0.657318 0.535004 0.308044
0.713745 0.513123 0.312714
0.781525 0.512970 0.329407
0.313477 0.629608 0.359528
0.350555 0.636200 0.364594
0.407837 0.639343 0.371307
0.500824 0.649353 0.388641
0.603424 0.650360 0.417084
0.705505 0.662384 0.443909
0.801788 0.680969 0.478333
0.836945 0.668579 0.483124
0.546112 0.734985 0.498810
0.560669 0.733582 0.499817
0.582428 0.739777 0.511566
0.624542 0.737762 0.517792
0.684265 0.743713 0.532959
0.749542 0.753693 0.556488
0.809479 0.761414 0.585693
0.865784 0.771301 0.609985
0.724091 0.806580 0.644012
0.722076 0.809601 0.636688
0.735474 0.806458 0.643280
0.750153 0.806824 0.652008
0.779144 0.809631 0.666412
0.813538 0.810364 0.681610
0.838959 0.816956 0.699188
0.855774 0.814789 0.716400
0.043152 0.090942 0.149658
0.088165 0.094482 0.156342
0.152039 0.102722 0.161407
0.239716 0.123840 0.187592
0.353973 0.141052 0.201385
0.467041 0.174713 0.212006
0.611389 0.221771 0.245911
0.771912 0.267670 0.286407
0.077667 0.121063 0.155609
0.101593 0.132812 0.156342
0.153198 0.140289 0.169647
0.244019 0.159515 0.195190
0.339935 0.185822 0.203796
0.461609 0.213928 0.220612
0.618225 0.242889 0.253754
0.767487 0.288940 0.287659
0.094757 0.192780 0.170776
0.130920 0.208099 0.193176
0.182526 0.225677 0.200623
0.245148 0.230347 0.208862
0.350037 0.249969 0.220123
0.477814 0.277802 0.240479
0.633392 0.306244 0.267792
0.774078 0.350037 0.300201
0.157104 0.314087 0.251099
0.170380 0.330658 0.237701
0.220367 0.335968 0.246674
0.322449 0.355194 0.257294
0.403168 0.351654 0.258179
0.508148 0.357483 0.259216
0.648834 0.387604 0.287292
0.777344 0.421234 0.327362
0.196228 0.474670 0.297546
0.226074 0.488434 0.306641
0.295135 0.495911 0.312592
0.405945 0.505646 0.324249
0.541962 0.525757 0.339783
0.641510 0.528412 0.352692
0.695038 0.502991 0.345367
0.785461 0.519806 0.379517
0.390411 0.630127 0.407227
0.412292 0.634033 0.411774
0.456177 0.640991 0.421265
0.528412 0.644165 0.435669
0.620758 0.650879 0.458588
0.709167 0.666565 0.483124
0.791656 0.676544 0.503754
0.836945 0.665680 0.507782
0.578644 0.732819 0.523865
0.598480 0.735992 0.533722
0.615692 0.739929 0.542206
0.644775 0.743347 0.550537
0.699707 0.748505 0.562195
0.753082 0.755615 0.577759
0.812012 0.763580 0.596222
0.868073 0.773071 0.629486
0.728912 0.807983 0.662231
0.738403 0.806580 0.655670
0.749146 0.807220 0.660980
0.765594 0.810760 0.672241
0.787476 0.811127 0.681854
0.813660 0.813019 0.698181
0.839355 0.815308 0.714478
0.865387 0.818848 0.724854
0.029083 0.097534 0.238312
0.087280 0.104614 0.241486
0.167236 0.108917 0.246674
0.242249 0.127777 0.249451
0.394562 0.139923 0.292084
0.551422 0.157623 0.315247
0.684509 0.195068 0.330658
0.797974 0.264404 0.353058
0.055664 0.142944 0.228058
0.100708 0.148010 0.237305
0.167480 0.150421 0.240723
0.243378 0.158630 0.252106
0.388000 0.181030 0.294739
0.538910 0.198608 0.313965
0.678802 0.229462 0.330780
0.785950 0.287415 0.349518
0.099945 0.215302 0.251343
0.124084 0.220367 0.246033
0.190643 0.233398 0.263733
0.284119 0.237701 0.276398
0.418732 0.257294 0.302582
0.536621 0.277679 0.313965
0.662872 0.312469 0.335846
0.780518 0.367340 0.377228
0.153687 0.301056 0.273621
0.184692 0.310028 0.284607
0.249939 0.337860 0.303467
0.346069 0.359375 0.321289
0.426178 0.361389 0.318268
0.538757 0.376709 0.333435
0.661591 0.402527 0.359375
0.772308 0.444153 0.391144
0.272003 0.464539 0.363068
0.313873 0.465057 0.374054
0.364563 0.486786 0.377106
0.433014 0.500458 0.384827
0.558167 0.520447 0.407837
0.613434 0.505280 0.397095
0.686646 0.497528 0.397461
0.786346 0.532837 0.436188
0.457947 0.614288 0.464020
0.468933 0.615448 0.463135
0.496521 0.620880 0.461853
0.558258 0.633911 0.482086
0.632904 0.642517 0.501221
0.718536 0.657318 0.522827
0.776611 0.661377 0.529938
0.819733 0.652252 0.520050
0.604919 0.724243 0.557251
0.604797 0.726501 0.561798
0.628082 0.725616 0.560028
0.654785 0.731445 0.567352
0.702728 0.739777 0.587097
0.760651 0.748383 0.601257
0.814789 0.758759 0.626068
0.861603 0.769012 0.638458
0.742950 0.806824 0.670197
0.742310 0.800629 0.665527
0.749786 0.806580 0.679321
0.768005 0.806458 0.681854
0.792175 0.807831 0.690460
0.817444 0.809998 0.707794
0.841125 0.814301 0.721832
0.863251 0.817322 0.731934
0.006317 0.115875 0.356384
0.085388 0.121063 0.360413
0.190369 0.127014 0.359650
0.299042 0.130554 0.367767
0.404694 0.148132 0.373566
0.592041 0.157501 0.424316
0.760803 0.205841 0.468323
0.850220 0.299683 0.472748
0.031006 0.168488 0.349152
0.102844 0.164581 0.348663
0.186707 0.174072 0.358398
0.295258 0.172791 0.360779
0.405334 0.184937 0.371796
0.591919 0.202148 0.426575
0.754486 0.248840 0.462250
0.837585 0.320953 0.461365
0.096405 0.255524 0.356354
0.128510 0.249573 0.362823
0.217834 0.247559 0.365082
0.316742 0.251099 0.371307
0.436188 0.262482 0.394073
0.616699 0.289307 0.443390
0.746002 0.340546 0.458954
0.832886 0.395325 0.472870
0.160400 0.345093 0.374451
0.199982 0.352173 0.380005
0.269928 0.363037 0.383698
0.369751 0.370880 0.406586
0.496765 0.380127 0.425690
0.631775 0.411743 0.449219
0.725250 0.431488 0.456696
0.799896 0.463745 0.473267
0.290344 0.455933 0.410645
0.319427 0.458710 0.420258
0.381165 0.474762 0.430878
0.482727 0.507294 0.461884
0.567902 0.524994 0.472260
0.637726 0.514740 0.467682
0.710815 0.524231 0.479706
0.794800 0.552063 0.498291
0.493622 0.600647 0.505371
0.507660 0.604553 0.507660
0.555359 0.610748 0.519806
0.598999 0.626556 0.534119
0.649597 0.639099 0.548889
0.724487 0.661743 0.566376
0.761810 0.643646 0.554474
0.806702 0.639099 0.545471
0.648834 0.711578 0.604065
0.653259 0.715240 0.598877
0.661469 0.720306 0.598755
0.674011 0.726868 0.603546
0.712219 0.739929 0.619873
0.763824 0.749023 0.630859
0.818481 0.758881 0.652008
0.849701 0.763184 0.657440
0.754852 0.804810 0.691467
0.759033 0.799988 0.689056
0.762817 0.803925 0.695007
0.778992 0.805176 0.697662
0.799377 0.809235 0.710052
0.824158 0.808350 0.719788
0.843903 0.813171 0.739044
0.864380 0.813416 0.744598
0.000000 0.148895 0.505005
0.083374 0.145355 0.503357
0.214905 0.148895 0.500977
0.342682 0.149658 0.503876
0.482635 0.147247 0.508942
0.616699 0.164459 0.524872
0.761169 0.216187 0.551056
0.879333 0.346741 0.587219
0.001526 0.190765 0.486176
0.099426 0.188751 0.495514
0.211639 0.189117 0.495636
0.340790 0.195068 0.499207
0.478577 0.188751 0.504364
0.613800 0.205933 0.517548
0.756226 0.254913 0.542694
0.872864 0.368378 0.580536
0.071350 0.273132 0.491974
0.135986 0.277557 0.486908
0.240967 0.276398 0.489075
0.359650 0.275635 0.502350
0.495544 0.281219 0.510956
0.623810 0.300690 0.529175
0.768005 0.354828 0.558655
0.867554 0.455017 0.599243
0.201019 0.389496 0.492493
0.244781 0.392548 0.500702
0.309296 0.386719 0.497925
0.399353 0.393036 0.507416
0.532837 0.392151 0.517273
0.644806 0.412140 0.536133
0.760284 0.465637 0.567505
0.850098 0.522949 0.592804
0.327148 0.491089 0.510437
0.356628 0.499329 0.517395
0.416321 0.506775 0.521332
0.499817 0.520569 0.533081
0.597626 0.532349 0.545624
0.684784 0.544495 0.566498
0.772308 0.572296 0.590027
0.828217 0.583191 0.592407
0.495026 0.589630 0.542572
0.513855 0.593170 0.547882
0.549286 0.603668 0.555969
0.602020 0.614685 0.563202
0.670715 0.635559 0.591278
0.719055 0.640625 0.597473
0.762299 0.642883 0.593933
0.821747 0.649963 0.604187
0.632904 0.696655 0.613922
0.644287 0.700073 0.618713
0.658813 0.704742 0.623016
0.697662 0.713470 0.633545
0.730682 0.726013 0.654663
0.763062 0.742950 0.658203
0.815308 0.756989 0.683380
0.847321 0.744354 0.667694
0.763062 0.791534 0.706757
0.770264 0.794434 0.714478
0.775452 0.793793 0.713867
0.793030 0.796326 0.723083
0.798615 0.804047 0.722076
0.824158 0.804810 0.732208
0.844788 0.808868 0.748657
0.863617 0.811249 0.756470
0.000000 0.183289 0.641113
0.101959 0.180023 0.636047
0.237305 0.189514 0.637054
0.380127 0.188995 0.644043
0.517670 0.197235 0.637695
0.657562 0.201141 0.640472
0.771790 0.254150 0.652496
0.877411 0.350555 0.658813
0.008728 0.222778 0.633545
0.115112 0.228729 0.625824
0.246277 0.228577 0.628357
0.380890 0.231750 0.626709
0.520966 0.234039 0.638214
0.659729 0.243896 0.635559
0.763458 0.288696 0.640869
0.864655 0.371033 0.658569
0.122070 0.310944 0.625183
0.187225 0.319672 0.631775
0.284760 0.321198 0.628082
0.406830 0.323730 0.630615
0.535736 0.328003 0.629730
0.661102 0.336884 0.634155
0.771027 0.380280 0.648712
0.869080 0.453644 0.664276
0.302460 0.435028 0.613281
0.322174 0.435791 0.620514
0.361664 0.429077 0.620636
0.453613 0.436157 0.620483
0.566620 0.438812 0.630249
0.675659 0.448578 0.636688
0.772308 0.479431 0.648590
0.856659 0.534851 0.671478
0.416473 0.543579 0.611755
0.445312 0.545349 0.619354
0.485138 0.552307 0.619751
0.546753 0.553223 0.628845
0.615692 0.550049 0.636200
0.695404 0.559906 0.644928
0.776733 0.577484 0.652008
0.858063 0.619751 0.686035
0.541199 0.629974 0.628845
0.556610 0.631622 0.635925
0.582794 0.634277 0.638214
0.623016 0.640625 0.642639
0.676788 0.650360 0.652618
0.728912 0.656799 0.662872
0.803162 0.670837 0.686157
0.856415 0.697784 0.701324
0.631622 0.696655 0.655792
0.636688 0.699554 0.659576
0.657562 0.699829 0.655151
0.685883 0.706787 0.662506
0.727509 0.714874 0.675537
0.774841 0.730682 0.692993
0.813660 0.738525 0.693756
0.841248 0.732971 0.690186
0.751678 0.786957 0.718781
0.759644 0.784180 0.726501
0.766724 0.787354 0.727631
0.783295 0.794067 0.734222
0.805817 0.796448 0.740173
0.831757 0.803680 0.748505
0.843903 0.809235 0.761292
0.870087 0.810242 0.768768
0.114349 0.251373 0.749390
0.182922 0.251617 0.752441
0.297272 0.261230 0.762054
0.416931 0.269318 0.753082
0.552826 0.280579 0.752930
0.681091 0.303619 0.752808
0.796082 0.352051 0.754578
0.881348 0.425568 0.753204
0.161926 0.293243 0.747131
0.216187 0.293243 0.743073
0.313843 0.297150 0.745483
0.433136 0.304504 0.748657
0.551178 0.316254 0.749908
0.678070 0.337769 0.749542
0.795319 0.377625 0.748383
0.870850 0.441498 0.754730
0.271851 0.388855 0.736359
0.309937 0.380768 0.744843
0.379639 0.392029 0.744843
0.476898 0.396698 0.747009
0.579529 0.406708 0.743469
0.697662 0.425171 0.751038
0.797363 0.453766 0.751801
0.877167 0.502960 0.750671
0.408600 0.495239 0.727264
0.432007 0.496124 0.737396
0.469818 0.498779 0.738647
0.534576 0.501953 0.733856
0.620636 0.511047 0.738892
0.711182 0.514618 0.739166
0.795715 0.531189 0.742706
0.867035 0.563568 0.753326
0.534851 0.601135 0.727905
0.545868 0.607086 0.724731
0.571930 0.605591 0.733337
0.602142 0.596100 0.730927
0.661865 0.597595 0.740417
0.726624 0.603180 0.742554
0.805054 0.610016 0.744965
0.865784 0.634155 0.753082
0.611633 0.682098 0.727905
0.622131 0.680328 0.730927
0.636078 0.680847 0.733459
0.668182 0.679565 0.734222
0.707153 0.682098 0.740051
0.750031 0.681335 0.748657
0.810516 0.690216 0.753815
0.862366 0.704376 0.757751
0.686035 0.738007 0.739899
0.689331 0.742584 0.739929
0.697540 0.738403 0.739410
0.719299 0.741302 0.738647
0.747620 0.745239 0.739655
0.784821 0.750793 0.745239
0.818207 0.752930 0.754089
0.859192 0.764832 0.767242
0.749268 0.793793 0.750549
0.761292 0.795959 0.760529
0.767120 0.793182 0.750153
0.780762 0.796326 0.757233
0.796967 0.792419 0.757233
0.824036 0.797607 0.757629
0.845428 0.803162 0.765198
0.862885 0.807983 0.772675
