content/luts/vintage/vintage_04.cube
#Created by: Adobe Photoshop Export Color Lookup Plugin
#Copyright: (C) Copyright 2022 inPixio
TITLE "Retro Vintage 4"
#LUT size
LUT_3D_SIZE 5
#data domain
#LUT data points
DOMAIN_MIN 0.000000 0.000000 0.000000
DOMAIN_MAX 0.903226 0.903226 0.903226
0.000000 0.000000 0.000000
0.191559 0.013702 0.019897
0.353485 0.044312 0.029877
0.517578 0.074036 0.038757
0.782837 0.057983 0.017487
0.093567 0.171722 0.035126
0.230286 0.207794 0.084198
0.392639 0.234772 0.112823
0.582184 0.251495 0.121948
0.847107 0.236481 0.095551
0.143097 0.357635 0.113739
0.253143 0.407227 0.163605
0.413025 0.434662 0.195953
0.606689 0.455505 0.171906
0.868408 0.448395 0.112274
0.081299 0.615417 0.110901
0.232788 0.647217 0.142975
0.428314 0.660614 0.153687
0.636932 0.672089 0.139130
0.888641 0.665863 0.101776
0.027222 0.871490 0.096039
0.206787 0.891052 0.117249
0.430695 0.890808 0.123566
0.661316 0.887360 0.129120
0.907471 0.873444 0.148193
0.041382 0.000031 0.112976
0.187744 0.033417 0.150177
0.311096 0.084259 0.157135
0.473297 0.114777 0.166748
0.775726 0.079590 0.146637
0.125641 0.173065 0.165863
0.234283 0.224518 0.209473
0.378418 0.258759 0.248627
0.558899 0.280457 0.255920
0.848877 0.254791 0.218506
0.183472 0.359039 0.222046
0.282867 0.413025 0.277283
0.425385 0.449921 0.306366
0.610596 0.472168 0.297729
0.880554 0.461823 0.232849
0.102814 0.623413 0.235016
0.257568 0.654175 0.263885
0.441803 0.672821 0.277100
0.651001 0.682617 0.270081
0.903290 0.676971 0.227997
0.001587 0.901398 0.231323
0.208344 0.909668 0.238708
0.440521 0.905945 0.241547
0.681305 0.897614 0.245361
0.918304 0.889313 0.259460
0.050568 0.004120 0.291779
0.166321 0.056519 0.310547
0.305542 0.100891 0.308838
0.476990 0.126953 0.317322
0.792206 0.074432 0.355133
0.132660 0.186035 0.303070
0.240753 0.237213 0.349670
0.376892 0.276581 0.382843
0.562378 0.292786 0.406006
0.867920 0.249939 0.418427
0.194275 0.370209 0.358459
0.293915 0.424072 0.413330
0.437439 0.460327 0.443359
0.618408 0.481873 0.450134
0.900238 0.457825 0.426605
0.061493 0.651520 0.422760
0.232483 0.674622 0.448547
0.440460 0.683868 0.447296
0.656952 0.689209 0.444153
0.908630 0.680420 0.420807
0.000031 0.903870 0.448303
0.185608 0.923737 0.451111
0.439209 0.909668 0.450989
0.682190 0.900269 0.454468
0.920593 0.890991 0.469727
0.000031 0.041321 0.455933
0.139709 0.069763 0.538086
0.318359 0.094940 0.531647
0.502991 0.118134 0.519684
0.802094 0.071136 0.571472
0.075287 0.209015 0.562225
0.210632 0.249207 0.593445
0.394318 0.268707 0.603455
0.586060 0.286224 0.602386
0.874756 0.247406 0.639343
0.075592 0.428009 0.597809
0.234619 0.456238 0.628296
0.431671 0.468353 0.641815
0.642395 0.475006 0.647583
0.894501 0.460175 0.655151
0.040833 0.665771 0.628693
0.160004 0.709839 0.682892
0.417633 0.696350 0.668488
0.653442 0.692657 0.661285
0.891357 0.686798 0.659729
0.145569 0.839935 0.619690
0.297668 0.871613 0.651001
0.492035 0.882294 0.679626
0.689728 0.895050 0.687958
0.907654 0.895142 0.708801
0.000031 0.094482 0.396454
0.084778 0.091095 0.799133
0.312836 0.091858 0.788757
0.550232 0.086090 0.788177
0.826691 0.057800 0.801788
0.000031 0.253510 0.754761
0.151428 0.268951 0.874420
0.390167 0.263031 0.871124
0.633270 0.254608 0.869171
0.893433 0.238007 0.864594
0.000031 0.462799 0.842926
0.138489 0.495087 0.908142
0.403717 0.478210 0.891266
0.644897 0.471710 0.884125
0.897644 0.460449 0.870972
0.000031 0.685181 0.861664
0.169281 0.709076 0.887421
0.425842 0.696808 0.869598
0.650665 0.697479 0.868744
0.880524 0.696747 0.861298
0.174774 0.832825 0.804108
0.316284 0.868225 0.844177
0.507935 0.882538 0.860382
0.724365 0.885773 0.868835
0.902466 0.904999 0.895905
