content/luts/vintage/vintage_07.cube
#Created by: Adobe Photoshop Export Color Lookup Plugin
#Copyright: (C) Copyright 2022 inPixio
TITLE "Retro Vintage 7"
#LUT size
LUT_3D_SIZE 5
#data domain
#LUT data points
DOMAIN_MIN 0.000000 0.000000 0.000000
DOMAIN_MAX 0.903226 0.903226 0.903226
0.000000 0.000000 0.000000
0.152588 0.021393 0.085144
0.406952 0.000031 0.121796
0.605347 0.000031 0.196686
0.752960 0.046600 0.159821
0.062683 0.160736 0.178070
0.193085 0.205475 0.198273
0.460144 0.188324 0.177826
0.787445 0.136169 0.180969
0.807281 0.228027 0.249542
0.127716 0.338959 0.255737
0.179352 0.422729 0.281555
0.458801 0.406433 0.222534
0.741425 0.380737 0.205536
0.788696 0.446991 0.337067
0.303162 0.471405 0.278229
0.388733 0.532806 0.331299
0.505188 0.582489 0.363159
0.680756 0.603455 0.388031
0.785431 0.643005 0.505859
0.541565 0.546631 0.435822
0.609222 0.616913 0.490173
0.683411 0.680756 0.561218
0.762817 0.743195 0.625549
0.843018 0.805176 0.690186
0.000031 0.031342 0.057770
0.092194 0.077789 0.172913
0.320587 0.075195 0.179810
0.706024 0.000031 0.147827
0.771301 0.077057 0.172302
0.090973 0.179260 0.227356
0.189514 0.235565 0.272491
0.395142 0.244629 0.278900
0.764313 0.187836 0.192627
0.836792 0.252228 0.265259
0.199310 0.334686 0.309387
0.278656 0.398712 0.365570
0.456390 0.431091 0.322693
0.757355 0.409210 0.235260
0.824982 0.466705 0.358185
0.353180 0.480316 0.319916
0.426453 0.548035 0.372681
0.531555 0.601501 0.415039
0.702698 0.628571 0.418976
0.801331 0.672821 0.528473
0.565002 0.573975 0.451141
0.639557 0.638153 0.519257
0.703430 0.707611 0.588440
0.786377 0.770081 0.643066
0.868469 0.830627 0.710205
0.000031 0.064850 0.103851
0.000031 0.151550 0.254547
0.250031 0.132294 0.291809
0.654205 0.044556 0.276062
0.803101 0.092651 0.227509
0.028259 0.237854 0.309692
0.160309 0.278076 0.349915
0.334259 0.297852 0.385132
0.677216 0.242523 0.362457
0.868225 0.267975 0.320862
0.170807 0.376862 0.386627
0.295227 0.420441 0.429199
0.446075 0.455200 0.447235
0.697632 0.448792 0.411713
0.852173 0.489227 0.389160
0.342987 0.515778 0.383301
0.443726 0.568573 0.441162
0.571533 0.610626 0.482849
0.701111 0.656464 0.499329
0.825958 0.696655 0.559174
0.581146 0.602020 0.482483
0.659943 0.663727 0.552155
0.731232 0.731110 0.612213
0.808502 0.794708 0.676422
0.888092 0.859497 0.727448
0.000031 0.098969 0.146423
0.000031 0.188599 0.281555
0.125183 0.205566 0.465149
0.536499 0.119537 0.420746
0.589142 0.235596 0.270233
0.000031 0.284424 0.362854
0.000031 0.378937 0.471832
0.269257 0.353516 0.489624
0.596344 0.300934 0.495514
0.687653 0.389130 0.389252
0.083069 0.449554 0.461945
0.157074 0.514984 0.524841
0.410400 0.505798 0.499207
0.622162 0.507019 0.530792
0.784790 0.543060 0.509644
0.277679 0.572296 0.484009
0.368530 0.630890 0.537781
0.551453 0.647461 0.565735
0.705536 0.679993 0.586884
0.844910 0.718658 0.615326
0.603821 0.626709 0.513763
0.665344 0.698883 0.574768
0.749573 0.757050 0.648865
0.835022 0.817688 0.706482
0.911835 0.883118 0.761810
0.019165 0.121857 0.197144
0.084747 0.190125 0.268036
0.143494 0.259247 0.352844
0.325256 0.268707 0.422150
0.544922 0.276245 0.398560
0.155701 0.254761 0.323334
0.220154 0.324127 0.391052
0.282471 0.394440 0.459961
0.450470 0.414673 0.509155
0.646454 0.430389 0.506287
0.310913 0.389954 0.385803
0.372162 0.459808 0.459961
0.431030 0.531830 0.528931
0.579620 0.566071 0.556091
0.723145 0.601196 0.591858
0.462280 0.525879 0.455566
0.535492 0.590393 0.525482
0.597534 0.659546 0.601196
0.708557 0.710449 0.641144
0.823822 0.758423 0.685150
0.624969 0.652039 0.546143
0.697052 0.716522 0.619629
0.761993 0.785889 0.685944
0.843140 0.848083 0.747009
0.932281 0.906219 0.808044
