content/luts/vintage/vintage_01.cube
#Created by: Adobe Photoshop Export Color Lookup Plugin
#Copyright: (C) Copyright 2022 inPixio
TITLE "Retro Vintage 1"
#LUT size
LUT_3D_SIZE 5
#data domain
#LUT data points
DOMAIN_MIN 0.000000 0.000000 0.000000
DOMAIN_MAX 0.903226 0.903226 0.903226
0.047058 0.070587 0.062744
0.123596 0.095764 0.085632
0.265503 0.135345 0.100708
0.491608 0.179504 0.141296
0.774323 0.252502 0.198853
0.047058 0.178497 0.109161
0.139282 0.191895 0.113098
0.272095 0.207581 0.129791
0.503357 0.258331 0.161560
0.778259 0.320557 0.230621
0.000641 0.402252 0.188995
0.178986 0.416290 0.195557
0.433746 0.450592 0.227692
0.617706 0.450195 0.237701
0.783417 0.462341 0.287903
0.365479 0.664032 0.380768
0.431396 0.676025 0.393311
0.580505 0.681976 0.430878
0.742462 0.702209 0.475922
0.853760 0.706787 0.517029
0.732452 0.810638 0.646423
0.737396 0.809998 0.648438
0.774323 0.813171 0.667816
0.819244 0.813538 0.686798
0.861603 0.818329 0.720673
0.045410 0.087921 0.133698
0.130798 0.092865 0.140930
0.276001 0.132080 0.177856
0.487305 0.197479 0.207977
0.770416 0.264648 0.272491
0.085632 0.170013 0.151031
0.155975 0.194550 0.173309
0.278656 0.219086 0.192261
0.498810 0.262878 0.220734
0.769775 0.330292 0.280945
0.128510 0.389099 0.252747
0.212646 0.400238 0.253754
0.427185 0.439209 0.281586
0.581146 0.426025 0.280945
0.783447 0.476135 0.342438
0.424561 0.657196 0.420380
0.473114 0.666290 0.426575
0.593292 0.671875 0.463257
0.739532 0.692108 0.504639
0.849579 0.700317 0.537384
0.726868 0.807983 0.656677
0.738770 0.807983 0.656677
0.773926 0.809601 0.674011
0.818207 0.812531 0.690582
0.860596 0.817078 0.721313
0.023529 0.109161 0.297516
0.156616 0.112091 0.295868
0.314606 0.136627 0.304108
0.634155 0.159912 0.390869
0.827179 0.274902 0.411377
0.083984 0.213776 0.294250
0.163452 0.214783 0.301453
0.341400 0.222626 0.320435
0.624664 0.266785 0.386200
0.810883 0.352295 0.416290
0.210602 0.370148 0.339386
0.286133 0.396942 0.356720
0.464996 0.443359 0.398224
0.614685 0.449585 0.400513
0.785950 0.503601 0.455261
0.536377 0.636566 0.513336
0.559143 0.638092 0.515625
0.623779 0.657440 0.529663
0.750916 0.689453 0.569641
0.828339 0.679718 0.555237
0.742950 0.799377 0.670959
0.747131 0.801147 0.678436
0.778625 0.805939 0.690460
0.826935 0.807983 0.711060
0.866150 0.815826 0.739410
0.001007 0.153961 0.542450
0.187103 0.155975 0.539917
0.422119 0.152435 0.544861
0.662262 0.178619 0.557251
0.878052 0.349030 0.606445
0.038940 0.261230 0.528656
0.216187 0.259186 0.531311
0.434265 0.264526 0.540558
0.671356 0.286530 0.561035
0.870605 0.440338 0.619232
0.279175 0.453491 0.524628
0.358887 0.467285 0.539795
0.515717 0.470184 0.556488
0.696411 0.491821 0.576111
0.855408 0.573822 0.624817
0.541565 0.617981 0.566864
0.570526 0.634552 0.584564
0.660950 0.646301 0.603149
0.746368 0.667938 0.624817
0.830627 0.672485 0.626953
0.761292 0.789764 0.703491
0.774689 0.789764 0.717407
0.801636 0.798859 0.734344
0.830231 0.806335 0.736511
0.865143 0.811523 0.758759
0.114349 0.251373 0.749390
0.265411 0.259216 0.759277
0.482727 0.279572 0.757874
0.712708 0.312988 0.750031
0.881348 0.425568 0.753204
0.250092 0.360535 0.747772
0.336884 0.367737 0.746124
0.519409 0.376587 0.749390
0.724243 0.411011 0.750275
0.876160 0.490326 0.751923
0.498779 0.565186 0.730438
0.514587 0.557617 0.737640
0.608215 0.556610 0.734222
0.746124 0.572296 0.746735
0.867554 0.603668 0.754578
0.630371 0.697021 0.730682
0.653503 0.696777 0.737244
0.699677 0.699310 0.741180
0.768250 0.701599 0.748627
0.861603 0.722595 0.754211
0.749268 0.793793 0.750549
0.763306 0.793427 0.754974
0.785187 0.795715 0.761047
0.830872 0.801147 0.761932
0.862885 0.807983 0.772675
