content/luts/vintage/vintage_05.cube
#Created by: Adobe Photoshop Export Color Lookup Plugin
#Copyright: (C) Copyright 2022 inPixio
TITLE "Retro Vintage 5"
#LUT size
LUT_3D_SIZE 5
#data domain
#LUT data points
DOMAIN_MIN 0.000000 0.000000 0.000000
DOMAIN_MAX 0.903226 0.903226 0.903226
0.000000 0.000000 0.000000
0.152649 0.036896 0.001617
0.319427 0.062378 0.025818
0.486847 0.089508 0.039520
0.638855 0.122345 0.064789
0.147156 0.141602 0.050385
0.246429 0.196075 0.103241
0.392212 0.231323 0.132263
0.565430 0.253845 0.155060
0.732086 0.278961 0.181549
0.250549 0.300262 0.128326
0.347351 0.355835 0.182281
0.472015 0.402069 0.209778
0.628326 0.430847 0.245148
0.785919 0.456390 0.294342
0.367188 0.454468 0.194489
0.445312 0.517670 0.258331
0.558044 0.566650 0.304169
0.696259 0.606079 0.331573
0.840759 0.634827 0.398895
0.488007 0.593872 0.328613
0.557037 0.660889 0.396637
0.652008 0.717438 0.450134
0.762451 0.767151 0.498077
0.881958 0.812775 0.543457
0.054688 0.008270 0.032196
0.155670 0.065094 0.067749
0.286560 0.107697 0.098206
0.449554 0.135681 0.119385
0.617310 0.161255 0.140625
0.180054 0.156525 0.106171
0.268738 0.215485 0.164124
0.387421 0.261169 0.211212
0.549713 0.290131 0.229279
0.715118 0.316254 0.253510
0.289459 0.312714 0.181274
0.380463 0.368683 0.248779
0.491791 0.420197 0.284454
0.633453 0.456573 0.318939
0.785828 0.486755 0.357605
0.405609 0.465576 0.255951
0.479126 0.530487 0.323273
0.584229 0.583221 0.369415
0.710419 0.629333 0.393646
0.851135 0.660126 0.460754
0.510376 0.617401 0.367035
0.588745 0.679810 0.434418
0.679321 0.736633 0.498413
0.786224 0.788239 0.545990
0.910339 0.833191 0.582336
0.081085 0.014435 0.153076
0.188995 0.068054 0.186829
0.308716 0.121002 0.192322
0.459625 0.156281 0.207245
0.596008 0.197144 0.231781
0.204926 0.169891 0.192535
0.291260 0.231415 0.242920
0.409363 0.278564 0.283508
0.547241 0.316742 0.318756
0.696259 0.350281 0.348389
0.320312 0.324219 0.261475
0.408813 0.382996 0.320251
0.515686 0.434601 0.367920
0.636292 0.479919 0.411987
0.767242 0.520172 0.454773
0.440491 0.473663 0.343231
0.520782 0.535980 0.406036
0.613495 0.593262 0.461578
0.726440 0.642670 0.504395
0.853180 0.683655 0.554871
0.543488 0.628510 0.443024
0.612549 0.697296 0.501465
0.698822 0.756500 0.564362
0.806702 0.807434 0.613007
0.926514 0.853394 0.655426
0.114197 0.014130 0.289917
0.214813 0.069977 0.331970
0.346497 0.116638 0.338409
0.477264 0.166321 0.331268
0.610870 0.210999 0.342834
0.223572 0.176514 0.332123
0.322235 0.232544 0.378418
0.444031 0.278961 0.412689
0.571747 0.325592 0.430206
0.706451 0.367798 0.452454
0.332489 0.339935 0.369812
0.427246 0.395599 0.428375
0.533905 0.449280 0.465363
0.648041 0.499023 0.503326
0.778839 0.538605 0.549744
0.473114 0.483002 0.429993
0.544067 0.549652 0.494751
0.639221 0.607239 0.542206
0.742889 0.659546 0.594910
0.859894 0.704285 0.651672
0.560730 0.646088 0.527435
0.639893 0.709595 0.586639
0.725922 0.769196 0.648376
0.823456 0.823944 0.704681
0.940277 0.871857 0.744720
0.125977 0.022766 0.437317
0.223663 0.080200 0.478821
0.347351 0.129150 0.494598
0.487854 0.173492 0.489349
0.616272 0.223999 0.484344
0.242767 0.178406 0.495270
0.331696 0.238220 0.547638
0.454895 0.285645 0.573059
0.586670 0.332123 0.580322
0.718048 0.377747 0.593292
0.351929 0.344818 0.516113
0.437256 0.405243 0.575165
0.548340 0.456238 0.614624
0.669647 0.502899 0.649261
0.800842 0.546570 0.672943
0.455688 0.508942 0.564209
0.534790 0.571869 0.626648
0.633514 0.626190 0.681976
0.753571 0.672211 0.723694
0.874817 0.718964 0.757690
0.569885 0.666809 0.617096
0.641449 0.730896 0.693970
0.732758 0.789185 0.748077
0.840118 0.839233 0.802795
0.939697 0.891510 0.866699
