content/luts/vintage/vintage_05.cube
#Created by: Adobe Photoshop Export Color Lookup Plugin
#Copyright: (C) Copyright 2022 inPixio
TITLE "Retro Vintage 5"
#LUT size
LUT_3D_SIZE 32
#data domain
DOMAIN_MIN 0.0 0.0 0.0
DOMAIN_MAX 1.0 1.0 1.0
#LUT data points
0.000000 0.000000 0.000000
0.016968 0.007782 0.000031
0.035980 0.014526 0.000031
0.055084 0.021210 0.000031
0.073669 0.028168 0.000031
0.099121 0.031616 0.000031
0.126648 0.034058 0.000031
0.152649 0.036896 0.001617
0.174103 0.041656 0.005615
0.192596 0.048004 0.008942
0.222992 0.048828 0.009613
0.244263 0.053864 0.012634
0.264496 0.059326 0.016174
0.291290 0.061554 0.018921
0.319427 0.062378 0.025818
0.341614 0.066864 0.029144
0.365143 0.070648 0.032928
0.391113 0.072968 0.037659
0.415680 0.076263 0.040955
0.437958 0.080078 0.047546
0.461304 0.085205 0.044342
0.486847 0.089508 0.039520
0.515045 0.090759 0.043823
0.537140 0.094635 0.050720
0.555725 0.101837 0.049591
0.578186 0.106812 0.049408
0.604614 0.108978 0.054077
0.620636 0.115906 0.060974
0.638855 0.122345 0.064789
0.659271 0.127075 0.071808
0.680389 0.130859 0.081665
0.700043 0.135345 0.092194
0.028076 0.018036 0.000031
0.037476 0.029633 0.000031
0.064789 0.032166 0.000031
0.088409 0.036163 0.001740
0.100891 0.044830 0.009155
0.118042 0.051758 0.013428
0.138977 0.057007 0.016144
0.162079 0.061493 0.016846
0.185791 0.065491 0.018829
0.210175 0.068604 0.023468
0.232452 0.072937 0.027649
0.259979 0.074646 0.031372
0.282074 0.079163 0.034882
0.305939 0.083069 0.036652
0.329193 0.087311 0.038605
0.354462 0.090088 0.042633
0.379852 0.092926 0.046112
0.405548 0.095367 0.050964
0.425079 0.100861 0.056458
0.455811 0.101959 0.054779
0.478851 0.105774 0.059235
0.503174 0.109863 0.058899
0.530212 0.112000 0.061768
0.552948 0.116516 0.063507
0.573944 0.121552 0.067047
0.594452 0.127289 0.068481
0.617920 0.130890 0.072937
0.635742 0.137085 0.079132
0.657379 0.141632 0.083710
0.675995 0.147339 0.090302
0.695709 0.152252 0.098236
0.715820 0.157196 0.104950
0.050934 0.038605 0.000031
0.064850 0.047913 0.000031
0.074768 0.058319 0.005188
0.102631 0.059113 0.013062
0.117279 0.066681 0.020630
0.129730 0.075348 0.028046
0.156708 0.077393 0.031342
0.176178 0.083344 0.034241
0.198273 0.088226 0.035858
0.222687 0.091125 0.041779
0.245270 0.095245 0.046021
0.267700 0.099457 0.050232
0.295441 0.100891 0.054596
0.320679 0.104126 0.056549
0.342346 0.109467 0.056946
0.366516 0.113037 0.059906
0.391083 0.116302 0.063171
0.417694 0.118774 0.065521
0.438477 0.124390 0.066559
0.464966 0.126282 0.072144
0.494873 0.127747 0.070587
0.517151 0.132080 0.074646
0.541473 0.135498 0.078217
0.566589 0.138367 0.082092
0.590546 0.142090 0.084930
0.611176 0.147552 0.087341
0.633087 0.152008 0.091553
0.653412 0.156860 0.098053
0.669525 0.164124 0.103149
0.690887 0.169067 0.106323
0.712280 0.172638 0.116577
0.736176 0.175018 0.126587
0.070129 0.061127 0.000031
0.088196 0.067322 0.005463
0.099335 0.075806 0.017365
0.111420 0.084106 0.027924
0.132355 0.089081 0.032166
0.142212 0.098969 0.040253
0.167694 0.101654 0.044220
0.191620 0.105103 0.048676
0.211121 0.110931 0.052246
0.233246 0.114838 0.058685
0.255676 0.119049 0.063019
0.278076 0.123260 0.067230
0.302246 0.126923 0.069763
0.332367 0.127441 0.072784
0.355225 0.132080 0.073395
0.378143 0.136292 0.076324
0.402893 0.139740 0.078522
0.428253 0.142578 0.082001
0.452728 0.146942 0.079773
0.477020 0.150024 0.085114
0.503967 0.152008 0.088776
0.532074 0.153809 0.090576
0.552917 0.158600 0.095734
0.577911 0.161591 0.099487
0.602325 0.165253 0.101379
0.626556 0.168488 0.105743
0.646881 0.174133 0.108368
0.668060 0.178619 0.114349
0.686737 0.184631 0.119354
0.703796 0.191589 0.123291
0.725098 0.195953 0.129913
0.753265 0.194885 0.146698
0.087067 0.082764 0.010681
0.106140 0.087402 0.021759
0.118347 0.095184 0.034851
0.130554 0.103241 0.046295
0.146759 0.110718 0.049988
0.157104 0.121033 0.054260
0.179932 0.125153 0.057739
0.201782 0.129700 0.061890
0.220551 0.135529 0.067352
0.242981 0.139740 0.071564
0.265411 0.143982 0.075775
0.288574 0.147766 0.080353
0.312134 0.151611 0.083405
0.338593 0.154541 0.083313
0.365021 0.157074 0.085724
0.388977 0.160797 0.088318
0.412262 0.164703 0.091827
0.437897 0.167816 0.093170
0.466400 0.168976 0.097382
0.489594 0.172821 0.101501
0.514740 0.175934 0.104218
0.541473 0.178040 0.107971
0.567444 0.179840 0.115326
0.590424 0.184326 0.116516
0.613312 0.188995 0.117035
0.636871 0.192993 0.119476
0.659882 0.196625 0.125153
0.678375 0.202972 0.128448
0.700592 0.207336 0.132446
0.720428 0.212921 0.136261
0.739380 0.218567 0.142670
0.762268 0.220184 0.159485
0.109558 0.102234 0.017975
0.124603 0.108154 0.033020
0.136597 0.116486 0.043488
0.149475 0.124298 0.054840
0.166443 0.130402 0.063599
0.181396 0.139282 0.063385
0.197968 0.145721 0.071350
0.216492 0.151733 0.076599
0.233704 0.158569 0.080902
0.252716 0.164673 0.084351
0.275116 0.168884 0.088531
0.301361 0.170837 0.094543
0.326416 0.173492 0.100006
0.349457 0.177551 0.103302
0.370117 0.183044 0.105743
0.397339 0.186340 0.101715
0.421173 0.189941 0.105316
0.444855 0.192993 0.112274
0.473328 0.194122 0.116455
0.498199 0.197266 0.119843
0.523956 0.200348 0.121033
0.551392 0.202484 0.122650
0.579346 0.203888 0.127228
0.604553 0.207825 0.125092
0.627014 0.211823 0.130371
0.650085 0.215302 0.136719
0.672791 0.218750 0.144257
0.689270 0.226013 0.148468
0.713043 0.229675 0.151764
0.732483 0.235474 0.155762
0.749023 0.242401 0.161438
0.765930 0.248169 0.172272
0.127411 0.122101 0.035828
0.139740 0.130371 0.045624
0.155273 0.136810 0.056854
0.166718 0.145844 0.065033
0.181519 0.153046 0.074097
0.195496 0.160950 0.081512
0.213409 0.167725 0.084259
0.231628 0.173828 0.090088
0.248108 0.181061 0.094299
0.264130 0.188477 0.098663
0.287628 0.191467 0.106598
0.309052 0.196716 0.107788
0.333862 0.199646 0.112488
0.356659 0.203735 0.116333
0.382050 0.207123 0.116669
0.404144 0.211609 0.120544
0.430420 0.215332 0.117035
0.454712 0.218506 0.121613
0.483185 0.219666 0.125793
0.504517 0.224304 0.130676
0.531097 0.225830 0.137909
0.558075 0.227875 0.141479
0.585297 0.229553 0.146057
0.609985 0.233002 0.148254
0.634949 0.236694 0.148163
0.659363 0.239868 0.152466
0.683441 0.243073 0.157928
0.701233 0.249725 0.161560
0.722992 0.254303 0.165741
0.745911 0.257721 0.172729
0.764282 0.263824 0.178070
0.781494 0.270294 0.184265
0.147156 0.141602 0.050385
0.157196 0.151886 0.055725
0.166992 0.160919 0.068573
0.183594 0.167145 0.077850
0.196320 0.176056 0.083344
0.208801 0.185028 0.089020
0.224976 0.191711 0.096985
0.246429 0.196075 0.103241
0.263763 0.202789 0.107666
0.277954 0.210907 0.113617
0.299652 0.215271 0.118774
0.322418 0.219177 0.123932
0.344727 0.224030 0.125000
0.367462 0.228088 0.129272
0.392212 0.231323 0.132263
0.417145 0.235107 0.132141
0.440643 0.238861 0.135895
0.464874 0.243103 0.134949
0.490723 0.245697 0.138550
0.514832 0.248657 0.145050
0.539215 0.251923 0.149078
0.565430 0.253845 0.155060
0.590912 0.256561 0.158905
0.614258 0.260162 0.164032
0.640625 0.261993 0.170135
0.663574 0.266479 0.171600
0.689026 0.269409 0.174286
0.708984 0.274963 0.177948
0.732086 0.278961 0.181549
0.754486 0.283142 0.185974
0.773376 0.288239 0.195404
0.790192 0.295197 0.200043
0.168518 0.160675 0.062653
0.177094 0.172272 0.065125
0.184601 0.182831 0.075806
0.196259 0.191193 0.087463
0.212311 0.197754 0.096313
0.222412 0.208984 0.096527
0.238953 0.215668 0.103699
0.256744 0.221588 0.111267
0.279297 0.225128 0.118622
0.293243 0.233002 0.126495
0.312500 0.239014 0.129578
0.334778 0.243317 0.133667
0.357483 0.247437 0.137756
0.381866 0.250793 0.141113
0.403992 0.254730 0.147583
0.427429 0.259064 0.148499
0.451813 0.262939 0.149353
0.477112 0.265717 0.153381
0.498047 0.270966 0.155975
0.523773 0.273163 0.161957
0.549133 0.275757 0.166840
0.575073 0.278687 0.168488
0.598389 0.283386 0.167511
0.621826 0.286713 0.173889
0.646423 0.289307 0.181030
0.671387 0.291748 0.187775
0.692688 0.296844 0.190338
0.715271 0.300995 0.194489
0.739838 0.303925 0.199677
0.761108 0.308716 0.203735
0.781586 0.313904 0.208160
0.793365 0.322662 0.216888
0.187561 0.179718 0.081665
0.196136 0.191315 0.084167
0.203949 0.202179 0.092346
0.216064 0.210999 0.100189
0.232666 0.218109 0.104523
0.236328 0.230865 0.114258
0.255646 0.236145 0.121155
0.273407 0.242676 0.125793
0.289398 0.250427 0.128723
0.307892 0.256775 0.132050
0.324158 0.264069 0.136444
0.345947 0.268402 0.141785
0.369415 0.271881 0.147034
0.391937 0.276062 0.151215
0.414368 0.280273 0.155426
0.435364 0.285461 0.158325
0.457123 0.290253 0.161469
0.480804 0.293701 0.166168
0.508942 0.294525 0.173065
0.535431 0.296967 0.175659
0.559448 0.300476 0.179413
0.582855 0.304413 0.182343
0.607788 0.307983 0.182983
0.636292 0.309143 0.187195
0.658600 0.313629 0.190155
0.680359 0.318298 0.193695
0.703064 0.322418 0.197693
0.727661 0.325745 0.201019
0.753082 0.327393 0.210632
0.772034 0.332825 0.217712
0.787292 0.340607 0.222565
0.803467 0.347931 0.226990
0.194611 0.207123 0.088715
0.208008 0.214813 0.098938
0.223328 0.222443 0.103912
0.233063 0.232697 0.110382
0.245300 0.242279 0.113617
0.263123 0.248932 0.117249
0.269470 0.259338 0.132202
0.286194 0.265442 0.141724
0.302216 0.272614 0.147400
0.320740 0.278992 0.150726
0.339569 0.285675 0.151459
0.357391 0.292389 0.155121
0.379272 0.296783 0.159668
0.402191 0.300751 0.163849
0.429932 0.302277 0.168060
0.447571 0.308929 0.172302
0.470673 0.313293 0.173645
0.495056 0.316681 0.176880
0.518402 0.319550 0.185822
0.540314 0.325256 0.183685
0.567688 0.326813 0.188690
0.593811 0.328644 0.195587
0.620392 0.330322 0.201935
0.643341 0.334290 0.206146
0.665924 0.338654 0.208984
0.690155 0.342133 0.212219
0.714478 0.345215 0.217316
0.732056 0.351135 0.225647
0.760010 0.352539 0.229706
0.781555 0.356598 0.237061
0.798523 0.363464 0.242035
0.816345 0.370178 0.245697
0.203003 0.232727 0.101166
0.214447 0.242157 0.107544
0.228455 0.249817 0.116119
0.246185 0.256683 0.119171
0.256348 0.267212 0.122894
0.273956 0.272919 0.132141
0.291626 0.278442 0.142212
0.301727 0.288300 0.149933
0.317749 0.295258 0.156860
0.336243 0.301605 0.160187
0.354889 0.308075 0.162720
0.376099 0.313110 0.165741
0.394592 0.319458 0.169067
0.415283 0.324707 0.172668
0.435852 0.330353 0.174255
0.462372 0.331848 0.182068
0.480408 0.337708 0.189453
0.505676 0.340820 0.191681
0.528717 0.344238 0.198395
0.552216 0.348297 0.200653
0.574005 0.352997 0.203857
0.600677 0.354767 0.209534
0.627289 0.356323 0.216553
0.651520 0.360413 0.216827
0.673767 0.364716 0.220886
0.694946 0.369293 0.226624
0.720276 0.371765 0.232239
0.737244 0.378082 0.240082
0.762238 0.380066 0.249146
0.788025 0.382080 0.255951
0.805023 0.388824 0.261444
0.821259 0.396332 0.264771
0.216217 0.256592 0.110229
0.227936 0.266022 0.115875
0.240692 0.274475 0.123688
0.253143 0.282990 0.131805
0.269775 0.290894 0.132141
0.284454 0.297241 0.146057
0.301422 0.303436 0.154297
0.319946 0.308807 0.163208
0.332672 0.318512 0.164551
0.350433 0.325256 0.167908
0.368927 0.331604 0.171204
0.388580 0.337341 0.174805
0.410889 0.341431 0.180023
0.429718 0.347626 0.183411
0.446838 0.355133 0.184479
0.469910 0.358734 0.189972
0.494080 0.361603 0.197052
0.515442 0.365295 0.206787
0.540619 0.368195 0.210693
0.562897 0.372620 0.214020
0.586029 0.376404 0.218536
0.607666 0.380829 0.223969
0.631958 0.384247 0.227264
0.656219 0.388275 0.227234
0.680023 0.391968 0.230560
0.703613 0.395081 0.237579
0.725464 0.398712 0.246277
0.744568 0.404419 0.251984
0.766388 0.407990 0.261261
0.790222 0.410431 0.271027
0.811523 0.414032 0.281586
0.824188 0.423157 0.285919
0.235474 0.279114 0.110260
0.249084 0.287170 0.117767
0.263367 0.294586 0.126862
0.275696 0.302917 0.136688
0.284943 0.312622 0.147308
0.298523 0.320160 0.157867
0.313873 0.327911 0.162323
0.330139 0.334961 0.168121
0.347992 0.340637 0.176849
0.360443 0.350067 0.180176
0.378693 0.356537 0.183746
0.397552 0.362762 0.187195
0.417419 0.368195 0.191620
0.439209 0.372284 0.198242
0.461639 0.376495 0.202423
0.483887 0.380798 0.206726
0.505798 0.385498 0.209656
0.527466 0.390198 0.213226
0.555634 0.391022 0.220154
0.575287 0.396790 0.223877
0.596161 0.401733 0.228180
0.618164 0.406250 0.231934
0.638855 0.411652 0.234436
0.661285 0.415863 0.238647
0.685181 0.419006 0.244568
0.709564 0.421509 0.252625
0.734711 0.423370 0.262085
0.757141 0.427582 0.266296
0.775879 0.432922 0.274536
0.795715 0.437592 0.283264
0.815063 0.442139 0.294006
0.830170 0.448120 0.309082
0.250549 0.300262 0.128326
0.260895 0.310608 0.132599
0.279266 0.316956 0.136322
0.295807 0.324005 0.141602
0.307617 0.332947 0.149628
0.310394 0.344147 0.169708
0.334076 0.346588 0.180237
0.347351 0.355835 0.182281
0.358429 0.366241 0.184235
0.370880 0.375671 0.187592
0.388794 0.381836 0.193481
0.409882 0.386719 0.197723
0.431488 0.391388 0.201782
0.453552 0.395721 0.206482
0.472015 0.402069 0.209778
0.492828 0.407043 0.214783
0.516022 0.411377 0.216064
0.539581 0.415588 0.217377
0.562103 0.418762 0.226624
0.585022 0.422699 0.231049
0.606201 0.426941 0.238464
0.628326 0.430847 0.245148
0.650391 0.435333 0.248993
0.672821 0.439545 0.253204
0.697693 0.441650 0.262146
0.720306 0.444763 0.271729
0.741669 0.448547 0.281189
0.764069 0.452759 0.285400
0.785919 0.456390 0.294342
0.804962 0.462006 0.300079
0.821564 0.468750 0.306580
0.832367 0.477661 0.317383
0.264160 0.324768 0.132996
0.278778 0.332153 0.141541
0.291412 0.340485 0.150238
0.308960 0.347382 0.153351
0.323486 0.355499 0.158020
0.334747 0.363708 0.171326
0.342194 0.374054 0.183563
0.360962 0.378387 0.196991
0.373871 0.387543 0.200836
0.392883 0.393646 0.204163
0.406586 0.402802 0.205841
0.424988 0.409058 0.210083
0.446259 0.414001 0.213501
0.467712 0.418762 0.217255
0.487244 0.424011 0.223755
0.504883 0.431885 0.221405
0.526276 0.436584 0.226074
0.549957 0.440521 0.228241
0.571716 0.444061 0.237854
0.594086 0.448212 0.242523
0.616302 0.452209 0.248413
0.637054 0.456757 0.255493
0.657898 0.461792 0.259521
0.684357 0.463226 0.267761
0.703308 0.468536 0.275360
0.727203 0.471405 0.282928
0.748108 0.475616 0.291199
0.770142 0.479431 0.298798
0.789246 0.482727 0.317017
0.809113 0.487915 0.322937
0.826385 0.494812 0.326813
0.838348 0.503723 0.334229
0.280792 0.347473 0.138977
0.295624 0.354706 0.147736
0.305176 0.364899 0.154907
0.321014 0.370850 0.167694
0.334869 0.379395 0.172058
0.346893 0.388000 0.181427
0.361816 0.394836 0.191803
0.372040 0.404694 0.198975
0.386383 0.411438 0.211823
0.409393 0.415497 0.215088
0.423096 0.423859 0.220825
0.439697 0.431366 0.223267
0.458099 0.437622 0.227631
0.478546 0.443024 0.230621
0.499542 0.447571 0.236938
0.517700 0.453827 0.241821
0.537415 0.461395 0.235718
0.559784 0.465546 0.240479
0.581635 0.469177 0.249329
0.604004 0.473328 0.253967
0.624084 0.478241 0.260773
0.646301 0.482239 0.266785
0.665680 0.488068 0.270508
0.691681 0.489563 0.279663
0.714355 0.493225 0.286377
0.733978 0.497925 0.295502
0.755676 0.502411 0.300262
0.776215 0.506775 0.308685
0.795135 0.510132 0.327179
0.813049 0.514648 0.342072
0.834076 0.519104 0.348816
0.851013 0.525543 0.356018
0.299713 0.368286 0.148804
0.314697 0.375305 0.158356
0.322815 0.386841 0.162170
0.331970 0.396881 0.171326
0.349518 0.401520 0.186584
0.355408 0.413239 0.195526
0.371246 0.419952 0.204254
0.387665 0.426514 0.212189
0.401062 0.435242 0.216888
0.419586 0.441620 0.220245
0.433868 0.448914 0.230316
0.450653 0.455597 0.236603
0.468658 0.462097 0.240570
0.486847 0.468140 0.246368
0.508820 0.472626 0.250488
0.528320 0.478119 0.255829
0.547821 0.483917 0.259369
0.569672 0.490601 0.252136
0.591766 0.494476 0.259064
0.614594 0.498474 0.263306
0.633789 0.503876 0.269958
0.653473 0.508759 0.278137
0.676025 0.512817 0.282593
0.700226 0.515259 0.291626
0.722351 0.519073 0.298828
0.743713 0.523468 0.304749
0.764832 0.527374 0.314209
0.782990 0.533417 0.320374
0.802551 0.536896 0.336517
0.821259 0.540924 0.351685
0.838593 0.546143 0.364349
0.865753 0.545959 0.379364
0.314362 0.392029 0.154327
0.333344 0.395844 0.170288
0.345001 0.405975 0.172211
0.355377 0.416077 0.177765
0.368103 0.423126 0.193024
0.375641 0.433716 0.203613
0.387146 0.443451 0.208038
0.401978 0.450928 0.215363
0.417419 0.457764 0.224487
0.433258 0.464386 0.233887
0.449097 0.470978 0.243286
0.466278 0.477264 0.250580
0.483795 0.483795 0.255707
0.500549 0.490936 0.260071
0.519012 0.497284 0.263367
0.540100 0.503296 0.261780
0.560455 0.508698 0.265167
0.580841 0.513916 0.269409
0.602173 0.520050 0.266418
0.626495 0.523407 0.270020
0.645569 0.529053 0.275665
0.664429 0.534485 0.283386
0.688232 0.537201 0.291779
0.713898 0.538574 0.302277
0.734650 0.542114 0.314636
0.753693 0.547119 0.323853
0.772125 0.552887 0.330627
0.789978 0.558594 0.339355
0.812531 0.561035 0.352570
0.834137 0.563660 0.367584
0.852509 0.567902 0.382568
0.866638 0.574158 0.398438
0.333649 0.412079 0.167297
0.344086 0.421265 0.177490
0.359253 0.427704 0.189606
0.369598 0.437897 0.194763
0.381012 0.446289 0.206543
0.393646 0.454742 0.215027
0.406219 0.462769 0.225586
0.419739 0.471344 0.230499
0.434387 0.478790 0.238678
0.448669 0.485992 0.248932
0.461426 0.495209 0.252808
0.477570 0.502258 0.258850
0.496887 0.507904 0.263733
0.516754 0.513458 0.267914
0.535217 0.519806 0.271210
0.553467 0.525909 0.276703
0.571960 0.532623 0.278473
0.591400 0.538147 0.283844
0.615021 0.542267 0.285339
0.631805 0.549438 0.288971
0.657867 0.552368 0.290009
0.679047 0.556946 0.295715
0.701416 0.560242 0.304932
0.720245 0.565399 0.313904
0.741394 0.569092 0.324432
0.761597 0.572723 0.338074
0.780334 0.577545 0.348969
0.794983 0.584625 0.359070
0.814117 0.588959 0.371735
0.836304 0.591919 0.383179
0.856995 0.595276 0.396667
0.873688 0.600220 0.412598
0.350708 0.432922 0.182068
0.360382 0.442627 0.191772
0.372620 0.450562 0.203735
0.382904 0.461090 0.207184
0.392731 0.470917 0.215637
0.408478 0.476044 0.232910
0.419220 0.486389 0.236298
0.435699 0.491882 0.249756
0.450439 0.499756 0.255127
0.464417 0.507690 0.262665
0.479401 0.515717 0.266876
0.495392 0.522705 0.273651
0.511780 0.529999 0.277863
0.531860 0.535400 0.282013
0.547089 0.543427 0.285370
0.565308 0.549530 0.290802
0.583679 0.555725 0.295502
0.600616 0.562531 0.301178
0.622223 0.566681 0.307861
0.643890 0.572540 0.305237
0.664062 0.577911 0.309448
0.689301 0.580902 0.312469
0.710938 0.584564 0.321808
0.729156 0.590637 0.327393
0.749268 0.594421 0.340271
0.769836 0.598450 0.350372
0.790833 0.601715 0.363739
0.807190 0.607819 0.374298
0.827301 0.612000 0.384918
0.844147 0.617218 0.399231
0.864105 0.621094 0.411987
0.882233 0.625061 0.429108
0.367188 0.454468 0.194489
0.375244 0.464569 0.206635
0.388733 0.471741 0.219116
0.399475 0.480682 0.229828
0.405579 0.495117 0.223785
0.421448 0.499634 0.244354
0.434448 0.507568 0.254303
0.445312 0.517670 0.258331
0.464447 0.521637 0.272919
0.479462 0.529816 0.276031
0.495148 0.537537 0.279602
0.511108 0.544373 0.287445
0.528870 0.550140 0.295990
0.545135 0.557526 0.300354
0.558044 0.566650 0.304169
0.574921 0.573273 0.310547
0.594452 0.578644 0.316406
0.612274 0.585602 0.318420
0.629517 0.591431 0.328064
0.652313 0.596527 0.326569
0.675110 0.601105 0.327606
0.696259 0.606079 0.331573
0.718018 0.609619 0.341156
0.737488 0.615143 0.346344
0.757050 0.620056 0.354523
0.778442 0.623230 0.367065
0.800232 0.626801 0.376678
0.820190 0.631073 0.387054
0.840759 0.634827 0.398895
0.855499 0.641724 0.409576
0.872528 0.646118 0.427521
0.889282 0.650330 0.447296
0.385590 0.476044 0.201782
0.390778 0.486664 0.218597
0.403992 0.493683 0.232849
0.417511 0.500763 0.245972
0.425049 0.511566 0.255402
0.434265 0.523834 0.252472
0.449677 0.530029 0.265228
0.462189 0.538330 0.274597
0.473358 0.548248 0.278778
0.493011 0.552704 0.289337
0.507751 0.561005 0.292450
0.521698 0.568909 0.300201
0.536713 0.575806 0.310150
0.554596 0.581543 0.318542
0.568848 0.589722 0.323700
0.585785 0.596039 0.331635
0.605438 0.601013 0.339539
0.626404 0.605774 0.344666
0.641663 0.614960 0.341705
0.663330 0.619690 0.345306
0.685394 0.623779 0.351044
0.706451 0.628387 0.356934
0.724945 0.634766 0.360260
0.746735 0.638306 0.369873
0.766113 0.643921 0.374725
0.786163 0.649048 0.380737
0.807709 0.652618 0.390900
0.829468 0.656158 0.400482
0.848846 0.659973 0.415070
0.860413 0.668243 0.427124
0.870789 0.676880 0.440430
0.892670 0.677490 0.465363
0.399689 0.496216 0.228027
0.414764 0.502167 0.243103
0.423096 0.513794 0.245850
0.437195 0.520813 0.257690
0.449646 0.527557 0.275452
0.453766 0.540283 0.284119
0.466248 0.550751 0.281921
0.479553 0.558746 0.290436
0.491699 0.567841 0.296509
0.508789 0.574585 0.302094
0.522614 0.581970 0.312622
0.536682 0.589966 0.319366
0.550415 0.597595 0.328888
0.565796 0.604370 0.338470
0.587891 0.608765 0.342712
0.601898 0.616699 0.350037
0.616791 0.623993 0.358093
0.634552 0.630127 0.364960
0.655792 0.635162 0.367981
0.674011 0.641754 0.370789
0.693512 0.647583 0.374329
0.714111 0.652496 0.379761
0.735138 0.657104 0.385620
0.753662 0.663483 0.388977
0.774597 0.668457 0.393188
0.795502 0.673553 0.396637
0.816742 0.677582 0.405243
0.833588 0.681549 0.425873
0.854370 0.686737 0.429199
0.870117 0.692627 0.442932
0.883423 0.699371 0.458374
0.904236 0.701202 0.479950
0.417511 0.515533 0.248871
0.428009 0.523773 0.263947
0.436493 0.533905 0.274597
0.449738 0.543976 0.272491
0.466492 0.549347 0.285828
0.475922 0.558411 0.299469
0.484894 0.568634 0.308167
0.497681 0.578369 0.309052
0.510559 0.586731 0.316895
0.526642 0.593689 0.323853
0.540344 0.601196 0.334137
0.555328 0.608093 0.344055
0.568878 0.616455 0.350403
0.582489 0.624603 0.357697
0.602295 0.630249 0.361298
0.614777 0.638702 0.369751
0.630859 0.645660 0.376709
0.646332 0.652924 0.383331
0.665527 0.658813 0.387573
0.684326 0.664978 0.390961
0.703552 0.670135 0.398804
0.722229 0.676300 0.403046
0.742828 0.681213 0.408478
0.763885 0.685822 0.414368
0.781891 0.691681 0.421753
0.802826 0.697449 0.421692
0.824463 0.702271 0.424835
0.842651 0.706543 0.440277
0.860626 0.712006 0.449890
0.876770 0.718262 0.460175
0.889893 0.725311 0.474579
0.907166 0.729950 0.490479
0.436218 0.534271 0.270386
0.445526 0.543579 0.282959
0.454346 0.553925 0.291534
0.461731 0.564850 0.300690
0.479309 0.572296 0.300568
0.491180 0.580109 0.314453
0.500885 0.590210 0.321899
0.513580 0.598450 0.331024
0.526031 0.607880 0.334381
0.541077 0.615082 0.342743
0.557220 0.620850 0.355713
0.571564 0.628479 0.363586
0.586609 0.635559 0.372589
0.599335 0.644775 0.376465
0.616241 0.651794 0.380432
0.627777 0.660797 0.388824
0.641724 0.668671 0.396698
0.659821 0.674622 0.403259
0.676575 0.681519 0.408630
0.692963 0.688782 0.412903
0.711365 0.694519 0.419891
0.731689 0.698669 0.430115
0.750641 0.704712 0.433990
0.771515 0.709900 0.437164
0.790588 0.715302 0.444214
0.810547 0.720337 0.450897
0.831268 0.726410 0.449860
0.850372 0.731201 0.459869
0.867798 0.737488 0.466766
0.885834 0.742767 0.477234
0.900391 0.749451 0.489502
0.914795 0.756805 0.498871
0.454163 0.553223 0.292877
0.463715 0.562775 0.303436
0.473999 0.572571 0.310944
0.483948 0.583008 0.315826
0.494019 0.592316 0.326294
0.503845 0.601868 0.336212
0.512207 0.613281 0.340027
0.524292 0.622345 0.346558
0.539551 0.629486 0.354492
0.552002 0.638916 0.357819
0.569855 0.643616 0.372406
0.585266 0.650421 0.381744
0.599701 0.658264 0.388184
0.613647 0.666138 0.395813
0.627930 0.674347 0.400970
0.639252 0.683411 0.409393
0.653046 0.691132 0.418152
0.670624 0.697571 0.423676
0.688507 0.703308 0.432465
0.703644 0.710846 0.438477
0.720154 0.717499 0.445923
0.738739 0.722931 0.453857
0.760376 0.726593 0.463226
0.779480 0.733551 0.461823
0.797943 0.739899 0.465393
0.816589 0.745636 0.471619
0.838257 0.750092 0.476593
0.856110 0.755798 0.485321
0.872955 0.762665 0.490417
0.892303 0.767822 0.498352
0.910126 0.773376 0.507874
0.928619 0.779755 0.511169
0.469940 0.575043 0.305603
0.478943 0.584076 0.320679
0.489563 0.592529 0.334473
0.499664 0.602509 0.341431
0.509155 0.613525 0.344452
0.522064 0.620361 0.360382
0.529175 0.632294 0.365112
0.539734 0.641968 0.372253
0.553864 0.649628 0.380676
0.568268 0.658234 0.383209
0.581787 0.665802 0.393433
0.594879 0.673676 0.403473
0.608459 0.681580 0.412140
0.623840 0.688477 0.421204
0.638123 0.696686 0.426361
0.652130 0.704620 0.433655
