content/luts/vintage/vintage_03.cube
#Created by: Adobe Photoshop Export Color Lookup Plugin
#Copyright: (C) Copyright 2022 inPixio
TITLE "Retro Vintage 3"
#LUT size
LUT_3D_SIZE 8
#data domain
#LUT data points
DOMAIN_MIN 0.000000 0.000000 0.000000
DOMAIN_MAX 0.903226 0.903226 0.903226
0.000000 0.000000 0.000000
0.054779 0.029358 0.045044
0.132355 0.052551 0.061157
0.244049 0.059601 0.070251
0.361694 0.065674 0.068970
0.485107 0.071960 0.050568
0.598511 0.079956 0.050232
0.693481 0.098541 0.043518
0.074707 0.076996 0.075470
0.125366 0.110077 0.111725
0.190277 0.138275 0.135254
0.295593 0.149628 0.139130
0.417053 0.156311 0.123932
0.529663 0.166962 0.111542
0.643280 0.177094 0.099304
0.750793 0.186829 0.105499
0.094208 0.187927 0.119263
0.155090 0.217957 0.144104
0.247498 0.234955 0.152863
0.348480 0.248932 0.154297
0.445740 0.263184 0.164642
0.558167 0.273895 0.152222
0.679504 0.280762 0.136658
0.781158 0.291199 0.155090
0.010193 0.355530 0.141388
0.110168 0.368225 0.152527
0.239136 0.368134 0.153503
0.366516 0.372711 0.133240
0.485992 0.379456 0.123199
0.581421 0.388000 0.168915
0.686462 0.398895 0.175751
0.796814 0.405426 0.191895
0.000031 0.486298 0.160126
0.007324 0.544098 0.181763
0.178314 0.525970 0.164917
0.332001 0.517609 0.142273
0.472748 0.512604 0.137268
0.606140 0.511261 0.132507
0.706299 0.515045 0.191162
0.803284 0.521576 0.243378
0.000031 0.603149 0.225555
0.000031 0.663910 0.251343
0.146027 0.658875 0.231812
0.307037 0.643951 0.225067
0.451813 0.636505 0.221954
0.582916 0.633636 0.231750
0.699493 0.637268 0.246124
0.804749 0.640930 0.291168
0.109375 0.671661 0.251678
0.180237 0.695740 0.281433
0.263550 0.714539 0.305054
0.359222 0.729248 0.317108
0.473358 0.732422 0.340881
0.586823 0.737610 0.355438
0.700104 0.740967 0.380432
0.798584 0.751801 0.405548
0.329651 0.674225 0.329376
0.376892 0.708588 0.367920
0.426178 0.742950 0.401398
0.493530 0.768433 0.432678
0.563965 0.792542 0.463379
0.655365 0.806641 0.490387
0.731750 0.827148 0.523926
0.809662 0.846375 0.560333
0.019348 0.007233 0.037323
0.076874 0.036896 0.073334
0.149963 0.060425 0.099884
0.243195 0.075714 0.115173
0.359436 0.081879 0.117188
0.487823 0.083282 0.111481
0.599731 0.093872 0.101074
0.700806 0.109161 0.095612
0.089996 0.086853 0.109985
0.140106 0.120514 0.144409
0.207153 0.146820 0.172363
0.294708 0.167572 0.174286
0.416138 0.170319 0.180328
0.534363 0.177490 0.171295
0.651672 0.185883 0.158325
0.747498 0.202148 0.161285
0.131958 0.184570 0.163208
0.179535 0.221802 0.185883
0.256714 0.244568 0.205109
0.351654 0.259186 0.219482
0.454102 0.273163 0.217255
0.565643 0.283783 0.207733
0.683960 0.291931 0.193634
0.788788 0.301880 0.205994
0.083893 0.334229 0.183685
0.154053 0.358826 0.212250
0.258209 0.370392 0.218353
0.379822 0.376129 0.207642
0.492950 0.386292 0.196564
0.589417 0.395874 0.233948
0.700745 0.405731 0.229156
0.802094 0.418640 0.235596
0.000031 0.501831 0.205627
0.032104 0.544617 0.240479
0.209656 0.523682 0.220551
0.350464 0.520386 0.206146
0.487732 0.517059 0.201691
0.611298 0.520721 0.196747
0.716248 0.524109 0.244385
0.818085 0.531708 0.277679
0.000031 0.620392 0.261902
0.054077 0.656616 0.271912
0.195618 0.650665 0.269867
0.332336 0.646973 0.268707
0.466827 0.644073 0.269226
0.595276 0.642578 0.279144
0.717499 0.644104 0.289398
0.810974 0.655151 0.327118
0.166046 0.662811 0.273682
0.219971 0.694092 0.310669
0.292175 0.719116 0.331390
0.382660 0.734619 0.353210
0.496399 0.738892 0.372284
0.600800 0.748932 0.385620
0.713776 0.752228 0.411804
0.811096 0.762909 0.440826
0.350647 0.684235 0.347504
0.392395 0.722321 0.381134
0.445801 0.753326 0.421112
0.503815 0.784027 0.450043
0.585419 0.802734 0.479401
0.668335 0.819000 0.517792
0.747650 0.838867 0.546631
0.834991 0.852295 0.588562
0.023468 0.014862 0.114288
0.086243 0.043243 0.142670
0.168549 0.062805 0.165375
0.295166 0.057251 0.201691
0.428680 0.052063 0.217407
0.532013 0.068512 0.199036
0.613373 0.094696 0.188690
0.699097 0.119324 0.174744
0.087463 0.103912 0.154388
0.153412 0.127838 0.198059
0.226868 0.152100 0.219391
0.340515 0.154572 0.248169
0.454376 0.161011 0.254730
0.554016 0.177185 0.248505
0.660309 0.190216 0.240448
0.753265 0.209045 0.237640
0.152924 0.188202 0.215668
0.204346 0.223846 0.236359
0.273651 0.250122 0.257965
0.365204 0.264893 0.280945
0.466553 0.278564 0.283356
0.583344 0.285156 0.281219
0.695587 0.295197 0.273315
0.792236 0.311401 0.274567
0.167572 0.303650 0.248505
0.210632 0.342804 0.272858
0.285767 0.367859 0.285767
0.390961 0.378418 0.294067
0.497742 0.389160 0.297333
0.599121 0.401001 0.309052
0.704987 0.414398 0.300171
0.806274 0.426483 0.311371
0.092194 0.468445 0.262482
0.157074 0.496796 0.285370
0.254059 0.510895 0.297211
0.374573 0.516388 0.290710
0.505157 0.516144 0.288055
0.618286 0.523285 0.293030
0.721375 0.531006 0.322510
0.820557 0.541779 0.346191
0.125519 0.578033 0.275818
0.192413 0.603790 0.307007
0.271179 0.626556 0.321930
0.377472 0.635956 0.333710
0.493835 0.640594 0.343414
0.616486 0.642670 0.349823
0.724335 0.652100 0.356720
0.820312 0.662720 0.390106
0.242157 0.640625 0.314117
0.299500 0.672272 0.339966
0.359650 0.701447 0.371155
0.438477 0.722717 0.393951
0.533020 0.737183 0.410675
0.626984 0.750214 0.436096
0.727478 0.760742 0.457764
0.816864 0.776001 0.484039
0.389008 0.684387 0.370911
0.428680 0.720154 0.422882
0.489258 0.750854 0.444977
0.546692 0.779449 0.486847
0.613892 0.804779 0.519653
0.689392 0.826660 0.548096
0.770813 0.842926 0.590546
0.837433 0.868286 0.624908
0.014618 0.021332 0.232819
0.098419 0.039734 0.257172
0.206024 0.048035 0.271301
0.308472 0.058899 0.285461
0.488922 0.021729 0.344940
0.626984 0.014099 0.360931
0.690765 0.056366 0.312256
0.737976 0.106842 0.264709
0.070862 0.115387 0.267029
0.151855 0.135040 0.292633
0.252808 0.145294 0.313904
0.355560 0.154938 0.334076
0.508636 0.136444 0.367798
0.628357 0.141205 0.367645
0.718781 0.164978 0.345490
0.778320 0.203766 0.326721
0.135040 0.208160 0.286346
0.195892 0.238007 0.312256
0.286987 0.249664 0.353271
0.392670 0.260345 0.359406
0.516510 0.261078 0.369995
0.619171 0.275177 0.366150
0.704620 0.298676 0.359131
0.783447 0.324493 0.357391
0.196808 0.298889 0.323425
0.253113 0.332428 0.341675
0.319244 0.361115 0.359741
0.409607 0.379364 0.366974
0.506958 0.393341 0.378540
0.606537 0.407135 0.385010
0.710175 0.419342 0.388458
0.800507 0.439331 0.387085
0.216614 0.417511 0.325256
0.269836 0.452148 0.346375
0.328156 0.483887 0.368896
0.405640 0.508636 0.376801
0.520538 0.516754 0.371887
0.623138 0.526245 0.392883
0.726593 0.535980 0.410736
0.819214 0.552429 0.421478
0.255371 0.526367 0.327881
0.298370 0.564545 0.357574
0.349548 0.599426 0.383209
0.427124 0.622070 0.401825
0.528564 0.634064 0.413055
0.631836 0.644348 0.427917
0.728210 0.658997 0.438263
0.822571 0.672913 0.458496
0.316681 0.617889 0.361847
0.365448 0.653870 0.387939
0.415466 0.688599 0.416992
0.483215 0.714478 0.445007
0.567749 0.732452 0.470215
0.654327 0.749725 0.493164
0.742462 0.766479 0.515137
0.830933 0.782501 0.539734
0.425507 0.682434 0.410950
0.473053 0.715302 0.456879
0.519501 0.751251 0.489258
0.580322 0.779938 0.521484
0.642517 0.807098 0.558258
0.714386 0.829865 0.591919
0.788147 0.851135 0.628479
0.858246 0.874939 0.661652
0.027527 0.015137 0.359741
0.115570 0.032593 0.378082
0.238342 0.033173 0.392059
0.369415 0.029144 0.408020
0.494476 0.026154 0.435028
0.654449 0.004211 0.468231
0.725555 0.044586 0.409821
0.751831 0.108337 0.348053
0.072388 0.115784 0.389801
0.159424 0.130951 0.422821
0.271606 0.138031 0.431152
0.401703 0.135559 0.441193
0.519867 0.139069 0.452179
0.662750 0.128418 0.471375
0.748566 0.156281 0.439789
0.797028 0.205139 0.397552
0.126434 0.218781 0.381836
0.189911 0.245453 0.417633
0.295654 0.253906 0.435822
0.418030 0.254333 0.451569
0.525818 0.263428 0.461029
0.655426 0.262756 0.462769
0.742889 0.287964 0.441162
0.805847 0.323364 0.431274
0.177185 0.322540 0.378967
0.229523 0.355377 0.411926
0.318878 0.372498 0.428436
0.419434 0.383881 0.445007
0.535828 0.388428 0.455261
0.643127 0.399963 0.452728
0.724182 0.423462 0.457397
0.803131 0.448181 0.461578
0.236237 0.420563 0.384369
0.290283 0.452362 0.418457
0.376038 0.472321 0.429321
0.451172 0.497864 0.439178
0.540924 0.515869 0.450104
0.634033 0.529816 0.472992
0.727448 0.546295 0.482025
0.811127 0.567261 0.493256
0.304993 0.515991 0.377350
0.358612 0.548126 0.410461
0.425385 0.574677 0.437927
0.488007 0.603394 0.465118
0.557922 0.631165 0.477570
0.647888 0.647522 0.496216
0.737274 0.665161 0.509460
0.832916 0.679749 0.522614
0.398254 0.592682 0.403809
0.441010 0.630005 0.438721
0.490051 0.664001 0.474487
0.528931 0.705261 0.499207
0.593048 0.733582 0.524353
0.675476 0.753510 0.544525
0.761444 0.770050 0.573212
0.843292 0.790802 0.590424
0.480103 0.669098 0.462524
0.524078 0.706482 0.494232
0.559357 0.747192 0.531525
0.616333 0.777252 0.566620
0.671295 0.807922 0.604401
0.738312 0.833191 0.637878
0.807159 0.856750 0.675720
0.867432 0.884125 0.716156
0.049377 0.012177 0.445068
0.133423 0.029572 0.474609
0.247528 0.035614 0.482941
0.385010 0.026886 0.506592
0.537323 0.011414 0.526154
0.645020 0.021606 0.529633
0.723785 0.053711 0.494568
0.736145 0.128082 0.413849
0.094025 0.111359 0.483551
0.179199 0.129242 0.507111
0.285645 0.138672 0.518433
0.414276 0.135864 0.534363
0.548645 0.131927 0.541168
0.660767 0.139435 0.546906
0.749603 0.165436 0.516846
0.784546 0.221252 0.474365
0.123199 0.227814 0.471222
0.192902 0.251343 0.506897
0.301361 0.258606 0.524139
0.423645 0.260986 0.529938
0.548859 0.261047 0.539856
0.659424 0.270416 0.540253
0.744934 0.294952 0.527222
0.797363 0.339539 0.496796
0.180908 0.332703 0.443420
0.241638 0.361053 0.477448
0.331604 0.377380 0.496582
0.429169 0.389191 0.519135
0.548309 0.392303 0.529449
0.652527 0.403046 0.539429
0.733002 0.430267 0.525665
0.801666 0.461853 0.521210
0.237213 0.434174 0.437714
0.295532 0.463898 0.471497
0.374298 0.486023 0.489807
0.454651 0.507660 0.506256
0.551941 0.521332 0.519806
0.646606 0.535950 0.535034
0.737610 0.554291 0.540375
0.816315 0.578125 0.549774
0.320282 0.520538 0.440216
0.369720 0.555176 0.471436
0.442719 0.579224 0.495483
0.516144 0.602661 0.521332
0.596863 0.624420 0.536377
0.667633 0.650055 0.557709
0.748016 0.671112 0.577362
0.839844 0.687408 0.591522
0.415314 0.599731 0.448334
0.456329 0.637085 0.487946
0.512207 0.667542 0.523987
0.573334 0.696045 0.556641
0.641632 0.722595 0.579529
0.696838 0.755280 0.605774
0.772552 0.778381 0.627228
0.856354 0.797913 0.645721
0.507080 0.671906 0.502899
0.555145 0.705933 0.541595
0.608673 0.736420 0.583862
0.659088 0.770416 0.615570
0.706207 0.805359 0.651794
0.761627 0.837036 0.682587
0.826721 0.862274 0.721863
0.889862 0.887970 0.763519
0.059021 0.017517 0.519104
0.129761 0.043884 0.536987
0.231354 0.054749 0.553436
0.354248 0.056213 0.562225
0.480835 0.056427 0.567749
0.603485 0.058502 0.574005
0.690613 0.084015 0.551697
0.736908 0.134888 0.504150
0.110138 0.116211 0.542664
0.178925 0.141724 0.570068
0.278259 0.152771 0.591888
0.396606 0.156494 0.600800
0.520691 0.157471 0.609222
0.640015 0.163086 0.605469
0.733154 0.183624 0.593109
0.788452 0.227051 0.561523
0.151062 0.225067 0.538940
0.220459 0.249664 0.569977
0.309204 0.265930 0.592316
0.411987 0.278534 0.596436
0.530548 0.281677 0.608063
0.647491 0.287720 0.608795
0.737762 0.308411 0.603546
0.799713 0.345673 0.586548
0.224670 0.325989 0.489075
0.277008 0.358734 0.522675
0.338837 0.385773 0.560883
0.432556 0.399017 0.585999
0.537231 0.409332 0.597443
0.645569 0.419128 0.601044
0.741516 0.435242 0.605042
0.802612 0.470917 0.599060
0.271576 0.430328 0.493835
0.318451 0.466980 0.521362
0.389038 0.492523 0.543732
0.465332 0.515045 0.566528
0.556763 0.529205 0.593323
0.652130 0.543213 0.609863
0.746094 0.560394 0.613617
0.810272 0.591675 0.622528
0.342041 0.524078 0.490814
0.393372 0.557556 0.523163
0.447937 0.588593 0.559998
0.516418 0.616119 0.577271
0.592133 0.639191 0.599213
0.677582 0.656982 0.622314
0.763153 0.675110 0.643738
0.838257 0.698853 0.663422
0.417847 0.608368 0.524384
0.468109 0.645233 0.541107
0.518707 0.678619 0.575897
0.583252 0.705475 0.607941
0.651917 0.731873 0.630798
0.724762 0.754883 0.660767
0.789978 0.782135 0.688660
0.873505 0.802673 0.702484
0.517181 0.683655 0.541473
0.563721 0.718048 0.582062
0.607178 0.755188 0.616180
0.667572 0.783081 0.653564
0.731476 0.809265 0.690979
0.791779 0.837677 0.725983
0.843018 0.870209 0.763702
0.909241 0.894592 0.804138
0.052887 0.039978 0.544342
0.115509 0.068329 0.573700
0.201355 0.087494 0.588562
0.297852 0.102295 0.597687
0.412384 0.108765 0.602875
0.524628 0.117310 0.602692
0.623352 0.135437 0.588196
0.688965 0.173218 0.558411
0.118103 0.129608 0.578064
0.175812 0.159851 0.610077
0.254059 0.182465 0.627502
0.356720 0.193909 0.637939
0.460968 0.203766 0.652985
0.573181 0.213287 0.647552
0.673553 0.230042 0.635712
0.741608 0.264069 0.619659
0.171936 0.233154 0.567902
0.232635 0.261475 0.602417
0.306061 0.286713 0.618408
0.391479 0.304962 0.639801
0.491150 0.317322 0.653320
0.595764 0.328094 0.662292
0.698608 0.342346 0.657349
0.768341 0.374054 0.648926
0.240753 0.333496 0.534119
0.289307 0.367462 0.571167
0.350525 0.395538 0.605682
0.425842 0.418243 0.630402
0.517303 0.434174 0.647583
0.615784 0.447266 0.660583
0.713287 0.461914 0.667999
0.791718 0.485962 0.676849
0.302551 0.432587 0.526093
0.352692 0.466156 0.561401
0.411133 0.496643 0.590393
0.477356 0.522034 0.625366
0.547882 0.545471 0.659424
0.639435 0.561249 0.676849
0.737793 0.573853 0.692993
0.812286 0.599518 0.703888
0.358734 0.527618 0.555450
0.404480 0.563995 0.587280
0.468964 0.592285 0.611908
0.528137 0.621613 0.645020
0.600494 0.646667 0.665253
0.676758 0.667267 0.698517
0.760590 0.685822 0.722260
0.840027 0.708099 0.738190
0.439209 0.612640 0.572021
0.481995 0.649078 0.611786
0.532410 0.682678 0.645752
0.592072 0.712738 0.673798
0.654663 0.742340 0.696289
0.726013 0.766357 0.724762
0.795776 0.791595 0.750977
0.867950 0.816467 0.772583
0.525360 0.692230 0.602264
0.563751 0.730988 0.641693
0.615173 0.764435 0.673737
0.672729 0.794800 0.705750
0.736267 0.821777 0.739685
0.798737 0.850342 0.768127
0.863525 0.877197 0.799408
0.914581 0.910675 0.832245
