content/luts/vintage/vintage_01.cube
#Created by: Adobe Photoshop Export Color Lookup Plugin
#Copyright: (C) Copyright 2022 inPixio
TITLE "Retro Vintage 1"
#LUT size
LUT_3D_SIZE 32
#data domain
DOMAIN_MIN 0.0 0.0 0.0
DOMAIN_MAX 1.0 1.0 1.0
#LUT data points
0.047058 0.070587 0.062744
0.053131 0.073639 0.059723
0.061340 0.074524 0.060974
0.071716 0.075775 0.065277
0.083862 0.078796 0.071350
0.096008 0.081848 0.077423
0.108154 0.089935 0.080963
0.123596 0.095764 0.085632
0.140289 0.098053 0.089447
0.152435 0.098053 0.086395
0.179108 0.103851 0.086273
0.198364 0.107910 0.088287
0.216949 0.114349 0.091339
0.241241 0.126251 0.094635
0.265503 0.135345 0.100708
0.292206 0.137268 0.104370
0.321075 0.144867 0.110443
0.351440 0.158142 0.117645
0.381805 0.164215 0.117645
0.414948 0.173065 0.131561
0.452118 0.176483 0.137268
0.491608 0.179504 0.141296
0.531189 0.188629 0.153320
0.573700 0.197723 0.162445
0.613922 0.206848 0.164703
0.658966 0.215942 0.167480
0.707520 0.225555 0.174561
0.740936 0.237701 0.186707
0.774323 0.252502 0.198853
0.809479 0.267670 0.216309
0.845917 0.286407 0.240234
0.882355 0.313721 0.270599
0.044037 0.082733 0.062744
0.050079 0.073639 0.059723
0.060455 0.080963 0.065277
0.071716 0.084869 0.071350
0.083496 0.087921 0.077423
0.092987 0.090942 0.083496
0.107635 0.093994 0.084503
0.125244 0.100433 0.082092
0.144073 0.104858 0.082611
0.158508 0.107147 0.086395
0.176453 0.110046 0.095001
0.195312 0.115997 0.097412
0.212769 0.123474 0.100433
0.235657 0.134857 0.103210
0.265503 0.138397 0.103729
0.289795 0.147491 0.109802
0.318054 0.150909 0.113464
0.349670 0.158752 0.118286
0.384827 0.167236 0.120697
0.417969 0.176086 0.129028
0.449463 0.183289 0.134216
0.486542 0.187592 0.139282
0.528168 0.194824 0.153320
0.570648 0.206848 0.162445
0.615448 0.211395 0.166992
0.657806 0.220367 0.173309
0.701965 0.230621 0.182159
0.737885 0.237701 0.186707
0.773956 0.252502 0.204163
0.809479 0.267670 0.218842
0.845032 0.285522 0.239349
0.879303 0.310699 0.267548
0.047424 0.090576 0.062744
0.051361 0.090057 0.072601
0.061737 0.085266 0.069580
0.075134 0.091827 0.077423
0.086273 0.095245 0.082367
0.088287 0.100067 0.083099
0.106750 0.105255 0.084137
0.120300 0.108276 0.087402
0.139282 0.112335 0.084869
0.155853 0.113983 0.088165
0.176086 0.121307 0.092865
0.196320 0.126373 0.097900
0.214020 0.131317 0.100952
0.235535 0.139923 0.104248
0.262085 0.144836 0.108032
0.289795 0.152679 0.110687
0.318665 0.157227 0.116760
0.349670 0.161560 0.119812
0.383057 0.172180 0.121307
0.418854 0.181274 0.132080
0.450348 0.190399 0.137390
0.482758 0.196716 0.139648
0.523224 0.202789 0.151031
0.569763 0.210876 0.158142
0.610260 0.220490 0.166992
0.653015 0.226318 0.171417
0.695251 0.238220 0.183044
0.736633 0.249207 0.194305
0.775208 0.258942 0.208466
0.811646 0.275909 0.223145
0.845428 0.293243 0.237946
0.876282 0.316254 0.260223
0.056030 0.100433 0.066528
0.055267 0.100952 0.077911
0.059723 0.104736 0.080200
0.074371 0.099182 0.078430
0.088806 0.102966 0.084869
0.089325 0.109924 0.085388
0.106506 0.114746 0.086151
0.124084 0.119171 0.086914
0.136993 0.122192 0.091461
0.154694 0.122711 0.091461
0.173309 0.130157 0.095642
0.195831 0.135986 0.098663
0.217072 0.142059 0.101715
0.238312 0.145721 0.104492
0.261597 0.152802 0.108551
0.287018 0.160034 0.114746
0.316132 0.168365 0.118042
0.349548 0.169006 0.124115
0.380524 0.179260 0.125366
0.417725 0.188629 0.135223
0.454163 0.197723 0.142944
0.486542 0.205811 0.147003
0.523102 0.212006 0.153076
0.568268 0.219238 0.159149
0.611267 0.226318 0.163696
0.653259 0.235413 0.175201
0.692230 0.245026 0.181793
0.735504 0.259460 0.197723
0.771912 0.270599 0.209503
0.810883 0.285004 0.225433
0.844666 0.303223 0.243774
0.871979 0.324097 0.261230
0.065521 0.115997 0.074890
0.059845 0.113342 0.081329
0.059967 0.118164 0.081726
0.066803 0.120819 0.078796
0.083496 0.112823 0.079193
0.092590 0.121948 0.088287
0.112213 0.127136 0.093872
0.129791 0.129028 0.094482
0.144196 0.131317 0.094116
0.159393 0.134338 0.094116
0.174957 0.141052 0.101074
0.195435 0.145081 0.103973
0.219360 0.148499 0.107025
0.240845 0.154846 0.110321
0.262238 0.163940 0.110565
0.285889 0.171417 0.117401
0.313232 0.177856 0.123474
0.344604 0.186462 0.127502
0.377991 0.189514 0.133575
0.415833 0.198090 0.141693
0.454926 0.206848 0.148895
0.494141 0.214935 0.154602
0.530701 0.221130 0.160645
0.570160 0.230225 0.166718
0.611511 0.237457 0.170135
0.655792 0.244904 0.175598
0.699432 0.254517 0.190521
0.735870 0.266663 0.199615
0.766998 0.278442 0.206451
0.802673 0.293365 0.219238
0.838593 0.311584 0.239594
0.865906 0.329803 0.272980
0.056427 0.134216 0.077911
0.053375 0.134216 0.087036
0.062744 0.135864 0.091339
0.074127 0.138641 0.088287
0.086517 0.137115 0.082214
0.092590 0.137115 0.085266
0.114349 0.148773 0.099426
0.131561 0.149536 0.101074
0.143463 0.145721 0.096771
0.153320 0.143463 0.094116
0.171417 0.155212 0.108673
0.189117 0.160278 0.108154
0.211761 0.162170 0.107025
0.237823 0.163940 0.110321
0.262115 0.173065 0.116394
0.285889 0.184570 0.121429
0.313232 0.189636 0.126495
0.344849 0.193054 0.130798
0.381042 0.201630 0.139648
0.411652 0.210236 0.142944
0.447327 0.217468 0.148895
0.486298 0.224030 0.153961
0.527649 0.230225 0.157623
0.567108 0.239349 0.163696
0.606598 0.248444 0.176605
0.650726 0.257050 0.183685
0.696259 0.266663 0.190765
0.729797 0.278809 0.205688
0.760925 0.288300 0.214813
0.796600 0.299683 0.226959
0.832520 0.314606 0.242645
0.859833 0.332825 0.260864
0.049835 0.157501 0.096130
0.051880 0.160034 0.100189
0.059570 0.160034 0.100708
0.074371 0.162689 0.101715
0.088562 0.163940 0.098297
0.103210 0.163940 0.103485
0.116882 0.166473 0.101440
0.137878 0.172028 0.108398
0.154083 0.170013 0.106384
0.170258 0.170532 0.106903
0.183044 0.171906 0.111176
0.199219 0.177979 0.116241
0.216949 0.182159 0.114594
0.240082 0.185181 0.118134
0.266663 0.189758 0.126495
0.295746 0.196442 0.132568
0.320312 0.205322 0.135620
0.349274 0.209869 0.136993
0.383820 0.220886 0.140411
0.422272 0.227448 0.151550
0.458344 0.234650 0.152679
0.495392 0.240723 0.158508
0.534729 0.246918 0.164825
0.574188 0.256042 0.173309
0.620514 0.265137 0.181671
0.662109 0.274261 0.193542
0.705872 0.282867 0.199860
0.739288 0.290955 0.210999
0.772552 0.308044 0.225922
0.806458 0.318909 0.238586
0.841614 0.333710 0.253754
0.868927 0.353577 0.268951
0.047058 0.178497 0.109161
0.053375 0.181519 0.105621
0.061218 0.184052 0.112579
0.069580 0.186584 0.108276
0.084747 0.189240 0.107513
0.106750 0.187988 0.111053
0.122437 0.188873 0.114471
0.139282 0.191895 0.113098
0.159760 0.194183 0.113861
0.182800 0.198975 0.116882
0.196960 0.197479 0.118286
0.211121 0.199493 0.119293
0.226318 0.200256 0.120422
0.244781 0.204559 0.123474
0.272095 0.207581 0.129791
0.298523 0.213013 0.134857
0.327393 0.220612 0.142456
0.353699 0.227448 0.144714
0.387115 0.238586 0.147766
0.426086 0.245148 0.152313
0.463898 0.251221 0.158508
0.503357 0.258331 0.161560
0.540558 0.265137 0.170776
0.580017 0.274261 0.181396
0.623047 0.280090 0.187225
0.668823 0.290588 0.197723
0.709290 0.299927 0.206085
0.741547 0.307159 0.212891
0.778259 0.320557 0.230621
0.808472 0.338531 0.242493
0.843140 0.351532 0.260345
0.871216 0.371277 0.277802
0.047058 0.198975 0.115997
0.053894 0.203522 0.108398
0.064514 0.206573 0.112823
0.071106 0.208588 0.117401
0.077179 0.214294 0.112457
0.104492 0.212006 0.112823
0.123199 0.209991 0.118652
0.140778 0.211639 0.120667
0.161285 0.215424 0.121429
0.188599 0.224548 0.124481
0.208099 0.225800 0.125366
0.224030 0.226044 0.125366
0.239197 0.226807 0.125732
0.254395 0.224274 0.129028
0.279694 0.227325 0.132568
0.303101 0.231232 0.134857
0.329681 0.236572 0.139404
0.356995 0.245667 0.147888
0.390137 0.254761 0.156860
0.428345 0.261108 0.159882
0.465912 0.267181 0.161804
0.504883 0.273499 0.166870
0.544617 0.282471 0.175568
0.585327 0.290955 0.185211
0.625549 0.297028 0.191284
0.667297 0.302734 0.198486
0.709290 0.315369 0.210114
0.740417 0.324982 0.213654
0.775726 0.338257 0.229614
0.808868 0.351685 0.248322
0.836304 0.370514 0.261108
0.866669 0.385712 0.285400
0.047058 0.226318 0.125122
0.047058 0.235413 0.122070
0.058197 0.239960 0.125244
0.068054 0.240479 0.126495
0.074127 0.238586 0.121552
0.101440 0.241608 0.124603
0.123718 0.236816 0.132568
0.144714 0.235931 0.134979
0.167358 0.239716 0.133575
0.194672 0.245789 0.136627
0.224915 0.257812 0.139648
0.246552 0.261230 0.140533
0.263489 0.260193 0.140533
0.278687 0.257660 0.141174
0.293854 0.260712 0.147247
0.311951 0.261353 0.148376
0.336517 0.261597 0.150024
0.366119 0.263885 0.153961
0.393433 0.272980 0.160034
0.429352 0.279327 0.169006
0.465912 0.285400 0.173950
0.505402 0.291443 0.178986
0.550690 0.297668 0.187714
0.596222 0.303741 0.187714
0.634674 0.312195 0.192780
0.672729 0.319672 0.201508
0.712341 0.327515 0.213165
0.751801 0.342682 0.222260
0.780273 0.360260 0.231110
0.809875 0.372925 0.251373
0.839203 0.385956 0.276154
0.866669 0.406952 0.297516
0.029602 0.247803 0.134216
0.035431 0.259827 0.134094
0.048340 0.258179 0.137512
0.066803 0.261475 0.142303
0.082336 0.265381 0.141174
0.107147 0.265900 0.136627
0.124359 0.268921 0.137115
0.144836 0.268921 0.143463
0.166840 0.271973 0.145721
0.192017 0.275879 0.148773
0.219360 0.279053 0.145996
0.261841 0.291199 0.153076
0.291199 0.294739 0.155731
0.311676 0.293488 0.155731
0.326874 0.291199 0.156464
0.344452 0.291840 0.162537
0.365723 0.293365 0.168121
0.390137 0.294098 0.172668
0.408356 0.294128 0.171906
0.432892 0.297668 0.164062
0.470734 0.305511 0.172424
0.510193 0.312592 0.177490
0.553589 0.318787 0.182800
0.593567 0.327637 0.191132
0.632263 0.333710 0.193420
0.671478 0.343567 0.203033
0.711945 0.352173 0.217194
0.749023 0.357758 0.231110
0.785828 0.372925 0.248199
0.815674 0.385590 0.261597
0.842499 0.397339 0.279938
0.863770 0.416565 0.295135
0.017456 0.283234 0.149384
0.023529 0.293335 0.147369
0.038208 0.296631 0.147614
0.056427 0.293091 0.151154
0.078064 0.298798 0.154205
0.105621 0.298798 0.156342
0.128387 0.297272 0.153320
0.151794 0.301941 0.156616
0.174957 0.305359 0.160400
0.199219 0.308411 0.160919
0.226440 0.311432 0.160156
0.257782 0.320557 0.161163
0.307495 0.332672 0.171417
0.340271 0.336243 0.174683
0.364319 0.334961 0.172913
0.379852 0.330292 0.171661
0.401123 0.328766 0.177734
0.422882 0.328888 0.184448
0.436676 0.324463 0.182800
0.454132 0.324982 0.184296
0.476532 0.324219 0.178986
0.511200 0.331818 0.184570
0.548920 0.338013 0.186981
0.594055 0.347107 0.197968
0.635315 0.355957 0.204559
0.673126 0.363434 0.207581
0.712463 0.374451 0.220245
0.744354 0.380524 0.235413
0.780792 0.390137 0.253265
0.813660 0.403534 0.271484
0.840485 0.413788 0.286896
0.858704 0.429718 0.300201
0.009491 0.322327 0.164185
0.016693 0.330292 0.162292
0.030243 0.332947 0.161407
0.050720 0.334076 0.161407
0.070465 0.334076 0.161804
0.100830 0.334076 0.169373
0.127258 0.333832 0.168365
0.158234 0.334595 0.170258
0.188599 0.342163 0.177094
0.213654 0.346344 0.175568
0.241974 0.348236 0.175446
0.273346 0.353943 0.176331
0.309021 0.366089 0.177094
0.360626 0.378235 0.188995
0.397186 0.381775 0.189484
0.422363 0.379242 0.189880
0.440979 0.374664 0.187988
0.462738 0.371002 0.192780
0.474884 0.364929 0.192780
0.492065 0.362152 0.197205
0.509918 0.361389 0.201019
0.531158 0.357361 0.199982
0.557983 0.362671 0.199860
0.597473 0.368744 0.205933
0.639221 0.377869 0.216949
0.680328 0.386963 0.225037
0.717255 0.395569 0.228577
0.743958 0.404053 0.241882
0.776978 0.414276 0.259705
0.811005 0.426300 0.279053
0.841370 0.441101 0.300812
0.860596 0.454010 0.317261
0.003662 0.356720 0.173798
0.012512 0.362274 0.174561
0.026947 0.364319 0.174072
0.046173 0.366089 0.174805
0.070709 0.368225 0.174683
0.101074 0.368225 0.177734
0.130402 0.370758 0.174957
0.163300 0.373810 0.177856
0.200745 0.378357 0.184174
0.231110 0.390503 0.193298
0.261719 0.391510 0.193176
0.294342 0.393768 0.193909
0.329529 0.399475 0.193298
0.369995 0.411102 0.191254
0.421600 0.423248 0.200378
0.459808 0.427307 0.206818
0.488159 0.426300 0.208832
0.508514 0.422607 0.206177
0.520660 0.416534 0.206177
0.540405 0.410492 0.209229
0.560028 0.407684 0.213409
0.578247 0.405426 0.217957
0.599609 0.399475 0.221130
0.621002 0.399353 0.215546
0.651855 0.404663 0.224152
0.688934 0.414032 0.237701
0.726135 0.422882 0.249573
0.750397 0.428955 0.255646
0.779755 0.439850 0.272095
0.810638 0.453491 0.292084
0.843384 0.470459 0.315002
0.873749 0.491699 0.345337
0.000641 0.402252 0.188995
0.006714 0.402252 0.198090
0.028473 0.405670 0.194550
0.053253 0.410614 0.196075
0.079559 0.416565 0.201752
0.104095 0.410736 0.198975
0.147125 0.413269 0.189362
0.178986 0.416290 0.195557
0.210358 0.419342 0.207458
0.243256 0.423889 0.211487
0.276520 0.430206 0.206055
0.311310 0.435028 0.211365
0.345978 0.439331 0.216309
0.382141 0.444519 0.218567
0.433746 0.450592 0.227692
0.480560 0.467529 0.231995
0.517517 0.474365 0.235657
0.546478 0.474243 0.236176
0.569244 0.468170 0.233521
0.581390 0.462097 0.239075
0.601135 0.456024 0.238831
0.617706 0.450195 0.237701
0.629974 0.441986 0.236298
0.654266 0.438934 0.242371
0.671082 0.431976 0.241364
0.697662 0.436432 0.248688
0.729401 0.447418 0.259460
0.756470 0.456268 0.273865
0.783417 0.462341 0.287903
0.806061 0.473236 0.307281
0.831879 0.488678 0.327637
0.864655 0.509918 0.348389
0.009613 0.442993 0.208984
0.027679 0.450195 0.210876
0.044525 0.454498 0.215668
0.073853 0.457794 0.214172
0.101196 0.462341 0.218719
0.115356 0.454254 0.211639
0.152557 0.460571 0.220215
0.196442 0.461975 0.209717
0.227570 0.464233 0.217316
0.257660 0.467285 0.220367
0.291077 0.468414 0.226685
0.326477 0.476501 0.226685
0.362915 0.480682 0.232758
0.398315 0.482452 0.235779
0.443481 0.486389 0.240601
0.490295 0.497253 0.249695
0.537384 0.509399 0.255798
0.574585 0.513977 0.260590
0.602386 0.514954 0.261078
0.620361 0.508881 0.261597
0.638184 0.502838 0.265778
0.656403 0.496765 0.264771
0.667023 0.488892 0.263123
0.682220 0.479034 0.262360
0.697388 0.476013 0.270721
0.712463 0.469940 0.272461
0.735229 0.475006 0.279053
0.754974 0.478424 0.288544
0.791901 0.487274 0.301331
0.817444 0.496887 0.316498
0.837830 0.510803 0.341797
0.865143 0.530548 0.370636
0.041504 0.487061 0.228729
0.058197 0.491608 0.234802
0.079468 0.497040 0.229370
0.096924 0.501862 0.233643
0.127380 0.504883 0.236572
0.142212 0.500336 0.230865
0.172058 0.500336 0.230377
0.210114 0.507538 0.240112
0.248840 0.506775 0.232513
0.276154 0.508301 0.234039
0.309296 0.511475 0.242889
0.343201 0.514496 0.249481
0.380768 0.521332 0.253632
0.417572 0.521973 0.256317
0.457550 0.524994 0.255554
0.502441 0.530670 0.261871
0.543488 0.539795 0.270966
0.590790 0.546509 0.281342
0.624695 0.553467 0.287933
0.651520 0.556000 0.294250
0.670105 0.549927 0.296173
0.688324 0.542847 0.297180
0.700317 0.536133 0.296661
0.711090 0.525391 0.295013
0.721710 0.518555 0.299591
0.736633 0.514130 0.305908
0.751953 0.510956 0.308929
0.767120 0.509949 0.313995
0.788361 0.513367 0.320831
0.815948 0.521210 0.331696
0.841980 0.535126 0.353088
0.865143 0.553345 0.391907
0.093750 0.533081 0.245667
0.107178 0.533722 0.258453
0.125122 0.535889 0.254669
0.141968 0.538269 0.248199
0.154480 0.540558 0.253906
0.178009 0.543091 0.254150
0.206726 0.542969 0.252258
0.238464 0.543579 0.253143
0.273254 0.548035 0.260468
0.300568 0.544983 0.257446
0.333099 0.550690 0.264771
0.366486 0.554718 0.271851
0.401520 0.557129 0.276672
0.440216 0.560425 0.282745
0.475891 0.563843 0.278198
0.515717 0.566864 0.282990
0.556122 0.570801 0.290588
0.592560 0.574951 0.298431
0.635071 0.584076 0.313629
0.669220 0.593170 0.326019
0.697540 0.595978 0.334351
0.713104 0.590149 0.335999
0.725128 0.580902 0.332977
0.734222 0.571289 0.332458
0.743347 0.563843 0.335114
0.757874 0.558411 0.342957
0.774078 0.553345 0.346008
0.788879 0.550415 0.349030
0.800018 0.548767 0.351440
0.813171 0.551056 0.358643
0.831116 0.557495 0.369385
0.861481 0.575714 0.405823
0.148407 0.569519 0.257812
0.166626 0.572571 0.273010
0.184326 0.575348 0.272858
0.199005 0.577118 0.267548
0.209137 0.576996 0.266052
0.224304 0.573944 0.269073
0.250366 0.579010 0.276917
0.277924 0.581055 0.281494
0.306763 0.581543 0.285004
0.337006 0.581421 0.287811
0.367249 0.587097 0.290588
0.399872 0.591156 0.296143
0.434418 0.593048 0.299957
0.470581 0.593811 0.300964
0.500946 0.599884 0.307037
0.529419 0.603302 0.316895
0.561310 0.606354 0.327026
0.595581 0.608368 0.334869
0.632019 0.605316 0.337891
0.666168 0.614441 0.350311
0.703369 0.623535 0.362457
0.730927 0.627350 0.369781
0.740295 0.623413 0.369415
0.749420 0.611267 0.366364
0.758514 0.601654 0.363586
0.774597 0.595581 0.371033
0.795319 0.592804 0.385468
0.801392 0.592804 0.388519
0.816193 0.587250 0.388885
0.829102 0.585205 0.396210
0.841766 0.586609 0.406342
0.855408 0.590912 0.414917
0.230896 0.608734 0.303375
0.237976 0.611786 0.307404
0.249756 0.612671 0.313995
0.263519 0.613800 0.311096
0.274139 0.613434 0.308807
0.284515 0.610382 0.311859
0.299713 0.612396 0.314880
0.326019 0.616577 0.320190
0.351807 0.618469 0.324738
0.376099 0.620514 0.331818
0.403687 0.623535 0.329285
0.429993 0.625580 0.336395
0.461090 0.627838 0.344360
0.496124 0.629486 0.349792
0.534088 0.630493 0.355865
0.564453 0.629364 0.359528
0.589142 0.633148 0.365997
0.615570 0.638092 0.371918
0.643402 0.641510 0.377106
0.674286 0.644043 0.385712
0.711456 0.651245 0.403564
0.745880 0.659454 0.417358
0.763947 0.663513 0.422791
0.775726 0.659332 0.425079
0.784821 0.649475 0.422028
0.795319 0.641754 0.420380
0.812012 0.637329 0.428223
0.822662 0.635071 0.433533
0.834045 0.635071 0.436584
0.847321 0.632782 0.440247
0.860352 0.635437 0.449493
0.874390 0.642273 0.457458
0.300720 0.638733 0.344360
0.310577 0.643646 0.345490
0.316895 0.648346 0.344727
0.329803 0.645813 0.351562
0.341339 0.644928 0.350922
0.344360 0.644928 0.347900
0.358521 0.646942 0.352814
0.373718 0.646698 0.355865
0.400757 0.649231 0.359650
0.425446 0.652252 0.367615
0.446808 0.653381 0.367004
0.472107 0.656311 0.372040
0.495270 0.655151 0.380035
0.524872 0.656677 0.388367
0.556091 0.658325 0.396088
0.584564 0.661621 0.399750
0.613434 0.660095 0.405823
0.634796 0.664154 0.410248
0.656555 0.667694 0.416321
0.682617 0.672882 0.427094
0.711090 0.675903 0.432404
0.745483 0.680969 0.450623
0.769897 0.688568 0.460999
0.790894 0.696167 0.472870
0.800751 0.688568 0.471375
0.809875 0.680847 0.469727
0.822021 0.676300 0.470734
0.835541 0.676056 0.476807
0.847687 0.671875 0.478333
0.859833 0.670105 0.481354
0.870209 0.669952 0.489960
0.882355 0.676025 0.501099
0.365479 0.664032 0.380768
0.378632 0.669067 0.381805
0.384460 0.675140 0.382690
0.390533 0.677185 0.380920
0.407990 0.671875 0.391907
0.408112 0.674255 0.385345
0.416199 0.675262 0.387878
0.431396 0.676025 0.393311
0.446564 0.674530 0.396332
0.475647 0.677551 0.402161
0.493378 0.678680 0.402405
0.513611 0.679688 0.407471
0.536743 0.680450 0.415436
0.557739 0.678192 0.421753
0.580505 0.681976 0.430878
0.603790 0.686401 0.435181
0.627594 0.689453 0.440247
0.654297 0.691345 0.448090
0.673248 0.692474 0.453766
0.694000 0.694000 0.462372
0.718170 0.698181 0.470856
0.742462 0.702209 0.475922
0.766602 0.705261 0.487915
0.792175 0.716888 0.503479
0.809875 0.720947 0.511841
0.818970 0.715240 0.511200
0.829102 0.708679 0.511200
0.844269 0.709686 0.516266
0.853760 0.706787 0.517029
0.863892 0.704498 0.520813
0.880463 0.700592 0.528290
0.887421 0.700317 0.543579
0.437714 0.691345 0.417480
0.452515 0.694366 0.420898
0.457184 0.699066 0.425171
0.458710 0.701599 0.428101
0.462250 0.699066 0.425934
0.474396 0.699066 0.428986
0.479065 0.696777 0.431519
0.488434 0.695129 0.435944
0.503601 0.695892 0.441376
0.518799 0.698944 0.444397
0.533844 0.701843 0.444550
0.551056 0.703094 0.448456
0.569885 0.701965 0.454407
0.590759 0.699554 0.460602
0.608978 0.705627 0.469696
0.629333 0.709045 0.473999
0.650757 0.710571 0.478943
0.672241 0.712341 0.484375
0.696533 0.721436 0.487427
0.712463 0.717010 0.490601
0.731201 0.716644 0.497040
0.751678 0.720306 0.506012
0.769775 0.726257 0.515381
0.791016 0.729279 0.524475
0.812012 0.738892 0.537903
0.828217 0.745605 0.547760
0.837952 0.744598 0.550171
0.853119 0.735504 0.550171
0.857941 0.734100 0.550415
0.862610 0.736115 0.555603
0.873993 0.736389 0.566742
0.901337 0.730316 0.584961
0.495392 0.718658 0.459961
0.501465 0.721710 0.472107
0.509827 0.718292 0.462646
0.515625 0.719055 0.464142
0.521698 0.720551 0.471741
0.519928 0.723358 0.477570
0.527008 0.725861 0.470490
0.533966 0.722473 0.469330
0.546112 0.720184 0.472351
0.561310 0.723206 0.477814
0.573578 0.723358 0.477936
0.590515 0.728149 0.479950
0.605316 0.729279 0.483765
0.617950 0.726746 0.487793
0.633270 0.729919 0.493988
0.649078 0.728790 0.498291
0.670349 0.728790 0.507416
0.691986 0.730042 0.517792
0.708679 0.736633 0.520813
0.724609 0.740173 0.526642
0.739807 0.740936 0.528168
0.759521 0.741943 0.532471
0.781921 0.741425 0.539673
0.797089 0.744476 0.554840
0.813782 0.749786 0.563965
0.833282 0.755981 0.574585
0.848969 0.758270 0.580139
0.856171 0.759766 0.577484
0.866028 0.753326 0.582794
0.870087 0.757629 0.587372
0.874756 0.759918 0.593292
0.886139 0.751556 0.600128
0.550812 0.743713 0.502472
0.554596 0.737640 0.505524
0.554230 0.742828 0.506897
0.561157 0.739777 0.499817
0.569519 0.741821 0.507782
0.570282 0.744843 0.511963
0.570282 0.745605 0.507660
0.576355 0.748657 0.505127
0.584839 0.746735 0.507294
0.596954 0.749786 0.513367
0.609253 0.747620 0.515900
0.621368 0.747620 0.517914
0.637939 0.752045 0.522095
0.649078 0.751556 0.525757
0.658203 0.752563 0.525757
0.673370 0.750793 0.533966
0.690094 0.750793 0.540039
0.709045 0.751556 0.549286
0.719299 0.754333 0.547394
0.736755 0.755341 0.550934
0.755737 0.758392 0.560791
0.770660 0.759399 0.563324
0.789246 0.756744 0.568115
0.800140 0.761932 0.576843
0.817596 0.764954 0.592041
0.828583 0.769653 0.594177
0.844391 0.773193 0.599365
0.855774 0.777985 0.605194
0.864502 0.779877 0.610138
0.873627 0.777374 0.617981
0.876801 0.782288 0.624542
0.880066 0.777374 0.628967
0.602661 0.768005 0.543579
0.604309 0.763062 0.543579
0.607208 0.760529 0.542816
0.606720 0.764069 0.541046
0.614807 0.764465 0.543976
0.617859 0.767487 0.546997
0.618347 0.768005 0.545227
0.623016 0.768250 0.544098
0.629852 0.770538 0.545624
0.638977 0.772919 0.549774
0.645416 0.771545 0.554352
0.657562 0.769135 0.557373
0.669708 0.771423 0.559265
0.683868 0.774445 0.564575
0.689941 0.774445 0.563843
0.697662 0.772034 0.569000
0.712982 0.773438 0.578125
0.729279 0.775208 0.586609
0.736115 0.774445 0.583557
0.754730 0.773071 0.584442
0.766479 0.774963 0.589020
0.786713 0.778992 0.600128
0.799500 0.776978 0.603790
0.808594 0.777985 0.607330
0.818970 0.780396 0.617462
0.834412 0.783417 0.628479
0.839966 0.786469 0.624420
0.851624 0.791656 0.634796
0.861481 0.795074 0.644409
0.873383 0.797729 0.650848
0.879822 0.796844 0.660858
0.879822 0.796326 0.667938
0.651245 0.789764 0.580017
0.649200 0.789764 0.580536
0.654541 0.789124 0.582550
0.656799 0.786346 0.580536
0.660980 0.787109 0.582031
0.664398 0.790253 0.585449
0.665405 0.789764 0.585449
0.668823 0.791260 0.587616
0.676422 0.789764 0.588623
0.685516 0.789764 0.585571
0.688416 0.790253 0.591278
0.695496 0.788757 0.595337
0.706146 0.788605 0.597717
0.717773 0.794189 0.597992
0.723846 0.794189 0.601013
0.728027 0.791779 0.606445
0.736633 0.792297 0.613037
0.752563 0.797485 0.621002
0.761688 0.794434 0.627075
0.776855 0.792908 0.627594
0.788239 0.791656 0.628967
0.795319 0.794678 0.633026
0.813171 0.800903 0.642395
0.822266 0.796722 0.644287
0.828583 0.794678 0.650604
0.835938 0.796082 0.657806
0.847565 0.798615 0.663391
0.850586 0.801636 0.669464
0.859467 0.803680 0.680328
0.871094 0.805695 0.688934
0.882355 0.808990 0.695770
0.882355 0.805939 0.707916
0.699829 0.798859 0.601257
0.687683 0.798859 0.604309
0.694244 0.803162 0.613403
0.695526 0.803040 0.613922
0.688293 0.799255 0.606323
0.700439 0.805328 0.618469
0.703857 0.800903 0.616821
0.704865 0.803802 0.619110
0.706024 0.807220 0.621765
0.706757 0.798859 0.615936
0.721680 0.801758 0.621643
0.728912 0.802399 0.625671
0.734589 0.803162 0.628723
0.739014 0.806335 0.631378
0.745087 0.806335 0.634399
0.751160 0.803925 0.639862
