content/luts/vintage/vintage_09.cube
#Created by: Adobe Photoshop Export Color Lookup Plugin
#Copyright: (C) Copyright 2022 inPixio
TITLE "Retro Vintage 9"
#LUT size
LUT_3D_SIZE 5
#data domain
#LUT data points
DOMAIN_MIN 0.000000 0.000000 0.000000
DOMAIN_MAX 0.903226 0.903226 0.903226
0.000000 0.000000 0.000000
0.193054 0.010010 0.035828
0.347748 0.044403 0.045013
0.515991 0.070557 0.061707
0.793121 0.051300 0.025116
0.040802 0.192841 0.065704
0.206757 0.218872 0.089111
0.378693 0.238800 0.129242
0.575958 0.252838 0.131775
0.848877 0.238129 0.082031
0.010559 0.415985 0.162231
0.182373 0.439056 0.185669
0.378296 0.453552 0.189301
0.587616 0.465271 0.171661
0.858032 0.460175 0.077393
0.000031 0.658966 0.098877
0.060089 0.729797 0.171021
0.348389 0.702881 0.145203
0.601501 0.695496 0.110413
0.875183 0.691681 0.000031
0.003693 0.901367 0.000031
0.049774 0.983368 0.050415
0.290894 0.975189 0.052094
0.600494 0.940369 0.010590
0.879913 0.914948 0.000824
0.021545 0.000031 0.167145
0.172882 0.026764 0.226501
0.317352 0.070557 0.213379
0.515930 0.082764 0.222412
0.856323 0.022156 0.235046
0.039154 0.202332 0.244812
0.197388 0.232056 0.269623
0.369415 0.256958 0.282776
0.578094 0.264740 0.287903
0.876740 0.234863 0.249268
0.021118 0.427582 0.297028
0.187622 0.453156 0.321716
0.387817 0.463989 0.333191
0.600159 0.476044 0.305267
0.878632 0.462799 0.232819
0.006866 0.670135 0.246094
0.078979 0.736816 0.307587
0.346832 0.720673 0.279541
0.607391 0.707581 0.255066
0.886780 0.693237 0.185822
0.002228 0.931152 0.070007
0.069153 0.998444 0.142242
0.278534 1.000000 0.178711
0.618042 0.959442 0.086334
0.896942 0.941620 0.037109
0.000031 0.032867 0.275543
0.142426 0.051208 0.404266
0.315186 0.077759 0.406647
0.516388 0.088135 0.418060
0.878906 0.007812 0.475861
0.006531 0.223969 0.443695
0.183777 0.245636 0.459778
0.371033 0.264130 0.465515
0.593658 0.261566 0.488251
0.969757 0.176422 0.535187
0.040527 0.428894 0.462799
0.142029 0.484192 0.505066
0.383972 0.475555 0.507568
0.627625 0.469849 0.489685
0.943878 0.430908 0.451904
0.013611 0.673462 0.435852
0.083588 0.742950 0.488007
0.284668 0.754150 0.495331
0.616547 0.711304 0.436005
0.916718 0.682831 0.386047
0.000031 0.924713 0.336578
0.066864 0.994751 0.393982
0.240631 1.000000 0.507996
0.582733 0.968445 0.360199
0.885040 0.934875 0.331451
0.000031 0.048767 0.415924
0.145569 0.046783 0.645264
0.354034 0.056641 0.639832
0.595276 0.047241 0.648163
0.889313 0.005676 0.684753
0.004486 0.223053 0.680023
0.148224 0.257538 0.718903
0.405884 0.244720 0.700531
0.643097 0.237885 0.706085
1.000000 0.157593 0.779724
0.018799 0.440155 0.687744
0.096161 0.503479 0.752716
0.376099 0.477051 0.746887
0.660309 0.451050 0.727112
0.981567 0.401520 0.732239
0.015503 0.672821 0.660034
0.080383 0.739960 0.738586
0.153656 0.808472 0.787079
0.618195 0.705475 0.688660
0.935425 0.666748 0.647003
0.000031 0.916626 0.605347
0.060638 0.988312 0.671539
0.237213 1.000000 0.743134
0.579956 0.958069 0.649261
0.890717 0.921570 0.613190
0.000031 0.039856 0.689484
0.088562 0.061890 0.945526
0.395081 0.021545 0.941711
0.638123 0.014954 0.930084
0.889679 0.005554 0.910400
0.012512 0.212891 0.938385
0.082520 0.280609 1.000000
0.409546 0.234589 0.970856
0.689148 0.205505 0.980103
0.982574 0.167480 1.000000
0.036072 0.423035 0.958008
0.125519 0.484558 1.000000
0.347656 0.486450 1.000000
0.670593 0.437408 0.998108
0.980774 0.394287 0.998993
0.018280 0.663971 0.925568
0.085144 0.731079 0.998871
0.233826 0.770111 1.000000
0.607788 0.701141 0.966156
0.921692 0.662903 0.930695
0.000031 0.907074 0.882599
0.061066 0.978088 0.951019
0.230530 1.000000 0.987061
0.614899 0.933685 0.910278
0.892639 0.910614 0.892517
