content/luts/vintage/vintage_06.cube
#Created by: Adobe Photoshop Export Color Lookup Plugin
#Copyright: (C) Copyright 2022 inPixio
TITLE "Retro Vintage 6"
#LUT size
LUT_3D_SIZE 32
#data domain
DOMAIN_MIN 0.0 0.0 0.0
DOMAIN_MAX 1.0 1.0 1.0
#LUT data points
0.000000 0.000000 0.000000
0.000031 0.014374 0.010803
0.015045 0.022125 0.016083
0.030762 0.029510 0.021667
0.043060 0.037994 0.030548
0.058777 0.044617 0.040192
0.071808 0.053589 0.044617
0.088348 0.060516 0.050385
0.106445 0.066467 0.057098
0.118896 0.075897 0.060455
0.142944 0.079437 0.063751
0.164886 0.084167 0.066467
0.186066 0.089050 0.070587
0.208252 0.093018 0.076813
0.231323 0.097900 0.075623
0.257812 0.101318 0.072998
0.280609 0.105896 0.074524
0.299438 0.111938 0.078674
0.320740 0.118073 0.075684
0.346649 0.120453 0.080109
0.378510 0.120422 0.081207
0.410980 0.120514 0.080292
0.438324 0.123077 0.079926
0.473480 0.121796 0.078674
0.508667 0.120544 0.077423
0.543823 0.119293 0.076141
0.577698 0.118744 0.075104
0.604706 0.121460 0.074799
0.631439 0.123901 0.076843
0.657684 0.125885 0.082367
0.681213 0.129517 0.086761
0.698578 0.137817 0.082916
0.007355 0.026093 0.013062
0.014252 0.036011 0.029053
0.029724 0.042877 0.038086
0.044617 0.050690 0.043365
0.055664 0.060455 0.048828
0.068542 0.069550 0.052979
0.087494 0.074341 0.063354
0.103668 0.082153 0.065460
0.122894 0.088226 0.068237
0.142853 0.093750 0.072266
0.157043 0.102020 0.077362
0.178345 0.106750 0.081970
0.198059 0.112427 0.085602
0.217682 0.118103 0.089539
0.237183 0.124969 0.087555
0.259735 0.129303 0.090607
0.287537 0.131012 0.093597
0.312622 0.133636 0.099213
0.334839 0.138275 0.101959
0.365570 0.139893 0.097260
0.395020 0.140747 0.100372
0.427185 0.140747 0.100525
0.457153 0.142273 0.098755
0.487183 0.144592 0.092346
0.523926 0.142639 0.090393
0.558655 0.141571 0.089325
0.591400 0.141541 0.088287
0.618683 0.144531 0.085724
0.650116 0.143707 0.092468
0.676208 0.146149 0.096069
0.699432 0.149902 0.100708
0.717621 0.156830 0.101929
0.017975 0.050476 0.026184
0.026367 0.059753 0.041534
0.043762 0.065155 0.053009
0.061035 0.071533 0.059906
0.072968 0.080811 0.065491
0.083435 0.089996 0.075714
0.103302 0.096710 0.073578
0.117523 0.103973 0.083618
0.134674 0.111267 0.085602
0.157104 0.115479 0.089813
0.174713 0.122223 0.093628
0.191559 0.128967 0.099365
0.212585 0.133789 0.104187
0.232635 0.139404 0.107269
0.253174 0.145905 0.104675
0.275146 0.150940 0.105652
0.296692 0.155762 0.108978
0.325409 0.156616 0.114014
0.352783 0.158234 0.118622
0.380371 0.160767 0.117767
0.409332 0.163147 0.114075
0.439758 0.163727 0.115906
0.471008 0.164490 0.114777
0.503204 0.165314 0.110535
0.537109 0.164948 0.107880
0.571503 0.164032 0.106995
0.603607 0.164001 0.107483
0.632721 0.165558 0.107880
0.667694 0.163940 0.109161
0.690582 0.167603 0.114868
0.712006 0.172852 0.116180
0.730072 0.180023 0.116547
0.028870 0.074524 0.040619
0.035950 0.084137 0.057556
0.052643 0.090454 0.066162
0.068787 0.097229 0.073944
0.086029 0.103882 0.079071
0.099274 0.110931 0.093079
0.115875 0.118652 0.094238
0.136383 0.124634 0.094635
0.148254 0.133453 0.102692
0.170044 0.138031 0.106781
0.187683 0.144562 0.111664
0.208618 0.149567 0.115662
0.225708 0.156769 0.118317
0.247498 0.161346 0.122131
0.267883 0.167572 0.121277
0.292419 0.170746 0.125214
0.313721 0.176575 0.124207
0.336426 0.180939 0.126801
0.368408 0.180176 0.131470
0.397522 0.181702 0.131989
0.423859 0.184998 0.130371
0.452148 0.187012 0.130341
0.483032 0.187531 0.131226
0.515625 0.187866 0.128510
0.552277 0.186279 0.124939
0.587006 0.184845 0.126038
0.617371 0.185852 0.126038
0.647156 0.186798 0.127747
0.681061 0.186188 0.126343
0.707794 0.188629 0.128296
0.724945 0.194885 0.135956
0.742523 0.202606 0.134552
0.042511 0.096893 0.056549
0.048035 0.106995 0.075378
0.062073 0.114594 0.084229
0.077393 0.122559 0.087524
0.086365 0.133423 0.092682
0.109924 0.135712 0.104095
0.126434 0.142853 0.108826
0.145264 0.149048 0.112244
0.166595 0.153717 0.116882
0.185120 0.160065 0.120209
0.201050 0.167145 0.127167
0.222504 0.171783 0.131805
0.244568 0.176758 0.132629
0.260437 0.185547 0.130280
0.279114 0.191833 0.133636
0.304108 0.194183 0.140686
0.328918 0.197327 0.144196
0.349518 0.203918 0.140656
0.380127 0.204163 0.143951
0.410461 0.204895 0.145294
0.438599 0.207214 0.144226
0.465332 0.210052 0.143890
0.495911 0.209869 0.149536
0.527649 0.210510 0.147369
0.564148 0.209045 0.143646
0.602234 0.206665 0.140503
0.635193 0.205566 0.144592
0.662506 0.208618 0.141571
0.693176 0.210052 0.138062
0.718872 0.213470 0.137573
0.739471 0.218536 0.142517
0.758453 0.222321 0.158447
0.043396 0.125122 0.075653
0.056641 0.132294 0.088898
0.070160 0.139618 0.100647
0.086945 0.146790 0.104767
0.102173 0.155304 0.105438
0.116425 0.163483 0.110596
0.135223 0.168610 0.119781
0.154999 0.173981 0.125000
0.176270 0.178558 0.130341
0.194214 0.184357 0.138428
0.208313 0.192139 0.146088
0.228271 0.197418 0.151367
0.251434 0.201843 0.152405
0.273407 0.207642 0.149323
0.295868 0.211884 0.153564
0.316467 0.217682 0.154053
0.342346 0.220245 0.157623
0.367767 0.223419 0.159424
0.389526 0.228729 0.159393
0.416229 0.230621 0.164337
0.446411 0.231720 0.164154
0.475952 0.233429 0.162354
0.505676 0.234802 0.162323
0.542938 0.232635 0.160156
0.574219 0.232788 0.162079
0.610840 0.231445 0.157196
0.647583 0.230255 0.151428
0.671936 0.233215 0.157074
0.700256 0.234589 0.160339
0.726959 0.237000 0.162506
0.750244 0.240936 0.165924
0.772095 0.245087 0.172089
0.044312 0.153351 0.094757
0.054565 0.162598 0.105042
0.071564 0.169220 0.111267
0.088776 0.175690 0.117493
0.106750 0.182526 0.119659
0.124817 0.188080 0.128601
0.144684 0.194275 0.129242
0.165039 0.199188 0.135559
0.187439 0.203400 0.139771
0.207977 0.208252 0.145874
0.225311 0.214203 0.154480
0.241882 0.220612 0.162933
0.262726 0.225403 0.168243
0.284180 0.230804 0.168701
0.302582 0.237823 0.168884
0.328094 0.240326 0.173767
0.349518 0.246155 0.172394
0.375519 0.248871 0.174744
0.400940 0.251556 0.178925
0.430969 0.252960 0.177582
0.459900 0.255707 0.171967
0.490753 0.256836 0.169556
0.520691 0.257812 0.170654
0.552948 0.257812 0.170654
0.587311 0.257263 0.167816
0.621063 0.256226 0.169342
0.658569 0.254395 0.164948
0.687073 0.255554 0.169159
0.712280 0.259277 0.168304
0.740356 0.260010 0.175629
0.763977 0.263519 0.180542
0.784271 0.268890 0.184265
0.048492 0.179932 0.113892
0.061554 0.189697 0.113800
0.074463 0.197296 0.125824
0.094330 0.202484 0.131775
0.112732 0.208771 0.135773
0.130280 0.214905 0.142944
0.152008 0.219788 0.145416
0.172791 0.225433 0.146606
0.195374 0.229797 0.149475
0.217987 0.234192 0.152100
0.236053 0.239838 0.160675
0.256042 0.244385 0.169891
0.275452 0.249420 0.177948
0.296417 0.254181 0.183197
0.316895 0.259979 0.184082
0.339172 0.264435 0.187378
0.364807 0.267273 0.190216
0.386963 0.272705 0.188721
0.413879 0.274353 0.194397
0.440857 0.277771 0.190613
0.472656 0.277832 0.191528
0.503387 0.280212 0.182800
0.534088 0.280701 0.184570
0.564453 0.282196 0.181519
0.600494 0.280701 0.179382
0.632782 0.280945 0.177979
0.668152 0.279144 0.178955
0.698761 0.279388 0.182251
0.726379 0.281342 0.184204
0.750214 0.285309 0.186005
0.773376 0.288239 0.195374
0.790192 0.295197 0.200073
0.053284 0.206726 0.130066
0.068878 0.216248 0.124420
0.081696 0.224487 0.133026
0.098450 0.230896 0.141205
0.120209 0.234070 0.152740
0.135712 0.241608 0.157990
0.156860 0.247314 0.157867
0.178894 0.252014 0.160278
0.201508 0.256409 0.163177
0.224579 0.261261 0.161957
0.244965 0.266205 0.168060
0.265564 0.270630 0.175995
0.286530 0.274902 0.183685
0.308136 0.279053 0.190643
0.331268 0.282928 0.194519
0.354523 0.286591 0.199707
0.378113 0.290436 0.202759
0.403595 0.294037 0.202057
0.428284 0.297333 0.204987
0.452728 0.301819 0.202118
0.481628 0.303741 0.201019
0.513092 0.303589 0.203888
0.544739 0.304260 0.201782
0.576965 0.305359 0.196320
0.611877 0.304596 0.193268
0.647034 0.303558 0.190735
0.677521 0.304230 0.191895
0.707947 0.304535 0.195251
0.735809 0.306183 0.198425
0.761108 0.308716 0.203735
0.783112 0.313141 0.208160
0.794891 0.321899 0.216919
0.051605 0.238464 0.137512
0.066223 0.246979 0.139954
0.076904 0.255890 0.150909
0.091614 0.264008 0.155090
0.113831 0.270172 0.149384
0.135712 0.270813 0.174286
0.157074 0.276611 0.172760
0.179230 0.281799 0.172760
0.203094 0.285309 0.176910
0.231537 0.286438 0.181061
0.258392 0.289246 0.180725
0.281952 0.293091 0.183777
0.302917 0.298096 0.187927
0.321350 0.304413 0.191681
0.337402 0.311340 0.198639
0.360016 0.314728 0.206818
0.384216 0.317780 0.212677
0.409424 0.321106 0.213959
0.437073 0.324493 0.208221
0.463440 0.326660 0.212830
0.492737 0.328156 0.212891
0.523315 0.329254 0.211365
0.553070 0.330780 0.210114
0.594269 0.326447 0.208801
0.627289 0.326080 0.208679
0.657898 0.327209 0.207031
0.687286 0.329132 0.204681
0.715759 0.330292 0.208862
0.741211 0.333588 0.209900
0.765625 0.336548 0.215363
0.789032 0.339691 0.222534
0.811035 0.344086 0.226959
0.048676 0.268890 0.155304
0.059204 0.279175 0.159515
0.082123 0.283112 0.163818
0.095978 0.290924 0.171906
0.112915 0.299011 0.170227
0.142639 0.299866 0.172607
0.161163 0.304718 0.184052
0.184845 0.308685 0.186005
0.208405 0.312256 0.190796
0.231079 0.316193 0.195648
0.256409 0.320038 0.193787
0.282043 0.323425 0.194122
0.307434 0.326294 0.197266
0.332336 0.329437 0.200653
0.356415 0.333771 0.199707
0.380585 0.336823 0.205139
0.402740 0.340271 0.214142
0.424927 0.343964 0.221893
0.449768 0.346771 0.226990
0.474609 0.350128 0.229584
0.503937 0.351501 0.230042
0.536041 0.352203 0.226715
0.568146 0.353088 0.222534
0.600525 0.353851 0.217987
0.635864 0.352753 0.215363
0.667999 0.352478 0.217255
0.697083 0.353760 0.219025
0.717651 0.359009 0.222534
0.747681 0.359070 0.228271
0.774750 0.360565 0.234589
0.796967 0.364563 0.240479
0.813202 0.372711 0.240509
0.040192 0.301910 0.174164
0.049561 0.313293 0.175415
0.066010 0.320648 0.179108
0.093292 0.322357 0.183868
0.109650 0.329651 0.188080
0.136139 0.332336 0.189392
0.162079 0.335022 0.192078
0.187042 0.337952 0.196381
0.213959 0.339813 0.200928
0.236755 0.343658 0.206024
0.258942 0.348877 0.205444
0.285553 0.352234 0.202728
0.313782 0.354645 0.200928
0.343781 0.355530 0.202240
0.370880 0.357849 0.203766
0.397675 0.360992 0.201996
0.423706 0.362701 0.209778
0.444794 0.366486 0.220123
0.467712 0.369537 0.229248
0.487946 0.374603 0.234833
0.514923 0.376526 0.238647
0.544067 0.378479 0.236786
0.575012 0.379944 0.232452
0.608887 0.379669 0.229889
0.642578 0.378662 0.231171
0.674011 0.379486 0.228943
0.704346 0.379730 0.232849
0.725708 0.384399 0.237549
0.753326 0.385956 0.242004
0.781494 0.387299 0.245880
0.805664 0.389709 0.254852
0.819763 0.398499 0.257202
0.030334 0.336456 0.188965
0.038971 0.348114 0.190765
0.056122 0.355286 0.193390
0.077332 0.360291 0.196747
0.105835 0.361481 0.200592
0.129852 0.365021 0.204132
0.156860 0.367615 0.204437
0.185883 0.369049 0.205872
0.216187 0.369751 0.207336
0.242798 0.371704 0.212311
0.265594 0.376648 0.211578
0.291901 0.379425 0.212830
0.320953 0.381927 0.208130
0.354828 0.382172 0.202301
0.385468 0.382812 0.203308
0.414490 0.384644 0.202118
0.440765 0.387756 0.202179
0.465607 0.389587 0.212494
0.487396 0.393127 0.222107
0.509460 0.396881 0.229767
0.531281 0.400482 0.238708
0.559753 0.401642 0.242889
0.585358 0.405365 0.241028
0.619232 0.404816 0.239471
0.650208 0.405029 0.241974
0.682648 0.404083 0.246338
0.711029 0.406128 0.245880
0.735321 0.409210 0.251343
0.761017 0.411743 0.255768
0.788055 0.413239 0.261932
0.812469 0.416016 0.268250
0.828461 0.422394 0.278442
0.022614 0.371246 0.196411
0.030792 0.382446 0.202057
0.048798 0.388947 0.206055
0.072418 0.392578 0.210175
0.097961 0.395355 0.213470
0.126770 0.396820 0.214935
0.156189 0.398956 0.211212
0.185760 0.400543 0.210052
0.216675 0.401093 0.210602
0.245148 0.402252 0.214783
0.270447 0.406036 0.213379
0.299561 0.407104 0.216461
0.330719 0.407379 0.218140
0.362793 0.408844 0.210510
0.398651 0.408295 0.203857
0.431244 0.408752 0.200409
0.459869 0.410767 0.199371
0.484344 0.414398 0.201111
0.506134 0.417938 0.210754
0.533539 0.418549 0.220978
0.557526 0.420410 0.233307
0.580597 0.422974 0.244720
0.608948 0.424103 0.249176
0.639984 0.425049 0.247589
0.666138 0.427673 0.249939
0.692657 0.429779 0.254333
0.721741 0.430267 0.260376
0.746277 0.433563 0.263672
0.769409 0.437347 0.268219
0.793640 0.440063 0.275482
0.816620 0.442657 0.287079
0.835602 0.446442 0.303009
0.014893 0.406006 0.203888
0.022430 0.416595 0.214447
0.038361 0.424805 0.214935
0.061951 0.428650 0.217926
0.090179 0.429688 0.223755
0.124420 0.427887 0.227753
0.154633 0.430756 0.218018
0.180511 0.434265 0.216431
0.208069 0.436523 0.217163
0.242676 0.436218 0.212311
0.267426 0.439453 0.215668
0.300140 0.438782 0.217804
0.334778 0.437012 0.220947
0.368958 0.436249 0.219696
0.403015 0.436920 0.211243
0.438873 0.436340 0.204590
0.471497 0.436798 0.201141
0.500092 0.438843 0.200134
0.524597 0.442474 0.201904
0.552917 0.441437 0.218048
0.579773 0.442383 0.227722
0.603577 0.445190 0.235840
0.627380 0.448639 0.240295
0.653107 0.450043 0.250824
0.678589 0.452271 0.257355
0.701935 0.455750 0.262817
0.725861 0.458954 0.268311
0.747864 0.462463 0.277405
0.775269 0.463318 0.286194
0.800049 0.466217 0.291016
0.820526 0.470978 0.297668
0.832123 0.479431 0.308655
0.007446 0.441071 0.209198
0.016663 0.450928 0.219055
0.037201 0.457306 0.216858
0.060272 0.461151 0.221436
0.088806 0.461578 0.229095
0.123230 0.461609 0.223053
0.151733 0.461273 0.235107
0.184692 0.463623 0.220612
0.212311 0.466217 0.219421
0.245331 0.466095 0.218170
0.275146 0.466797 0.221008
0.301331 0.469696 0.221893
0.338226 0.466736 0.225006
0.375427 0.463745 0.227570
0.410065 0.462830 0.226166
0.445801 0.462769 0.216980
0.480316 0.462311 0.213501
0.512207 0.462982 0.210724
0.541199 0.465424 0.206604
0.567749 0.467163 0.212799
0.594666 0.467499 0.225647
0.619659 0.469238 0.235962
0.642670 0.472260 0.244934
0.669952 0.472961 0.254761
0.689209 0.477081 0.267975
0.712158 0.480530 0.274841
0.734497 0.484650 0.279968
0.756287 0.488220 0.289612
0.775696 0.493469 0.296387
0.803955 0.492615 0.311737
0.826141 0.496094 0.320496
0.837799 0.504700 0.330627
0.006989 0.472534 0.214844
0.023010 0.480927 0.214111
0.044281 0.484131 0.226929
0.069122 0.488983 0.220917
0.095276 0.489716 0.233673
0.124939 0.491699 0.230347
0.156921 0.492279 0.227875
0.186676 0.491455 0.239319
0.220795 0.492920 0.226379
0.251556 0.493317 0.228271
0.281403 0.494324 0.229279
0.314758 0.493774 0.229248
0.343262 0.495697 0.229279
0.381989 0.491821 0.232361
0.416229 0.490875 0.231934
0.447937 0.490723 0.234283
0.487915 0.488159 0.227173
0.520599 0.488068 0.226471
0.552338 0.489441 0.220490
0.581421 0.490723 0.222290
0.605408 0.493439 0.230316
0.631531 0.494293 0.242279
0.655182 0.496033 0.256561
0.678101 0.498596 0.268250
0.701294 0.501312 0.278534
0.720581 0.505646 0.290588
0.742920 0.509766 0.295471
0.764801 0.513428 0.304199
0.785217 0.517914 0.312469
0.802490 0.523071 0.325470
0.829437 0.522308 0.344177
0.844971 0.528595 0.356049
0.019531 0.498108 0.216614
0.041595 0.504333 0.210968
0.065002 0.507141 0.219971
0.091064 0.507751 0.233490
0.113281 0.513275 0.231445
0.134338 0.517151 0.241089
0.163757 0.519501 0.236237
0.197784 0.518860 0.234711
0.229248 0.517700 0.243164
0.260559 0.518616 0.241058
0.288940 0.520844 0.239624
0.323456 0.519928 0.238342
0.358887 0.518677 0.236450
0.389618 0.519287 0.237305
0.422363 0.519409 0.235138
0.452148 0.519348 0.242310
0.485107 0.518127 0.246918
0.526917 0.513885 0.243927
0.558167 0.514771 0.241791
0.589050 0.515289 0.242676
0.615265 0.517487 0.247406
0.637695 0.520569 0.257690
0.664520 0.520569 0.272491
0.682098 0.525513 0.286041
0.704681 0.528473 0.296478
0.727905 0.531189 0.306549
0.749634 0.534729 0.316132
0.771729 0.538574 0.323151
0.793121 0.542389 0.332672
0.810516 0.547546 0.345520
0.826447 0.552704 0.362457
0.849304 0.554321 0.379242
0.054993 0.515320 0.200439
0.076080 0.518219 0.215485
0.095459 0.523926 0.220062
0.118744 0.527496 0.225372
0.144958 0.529755 0.229706
0.158539 0.537262 0.240234
0.178680 0.542755 0.243958
0.209290 0.543518 0.244202
0.244232 0.541779 0.246246
0.274841 0.542023 0.249298
0.300323 0.545868 0.247192
0.333679 0.545349 0.246918
0.369354 0.543823 0.245911
0.402130 0.543976 0.243774
0.430634 0.545135 0.247955
0.462067 0.543945 0.256500
0.492737 0.543213 0.264648
0.524994 0.542328 0.269318
0.559509 0.540405 0.273499
0.590179 0.540710 0.276337
0.618317 0.542297 0.278778
0.642975 0.545197 0.284241
0.665100 0.548492 0.294342
0.684723 0.552917 0.304840
0.708710 0.555145 0.315674
0.733093 0.556885 0.327667
0.755920 0.559235 0.340637
0.777710 0.562775 0.350250
0.797638 0.567139 0.360443
0.813904 0.573303 0.370911
0.828644 0.579956 0.383118
0.846283 0.584686 0.397461
0.111786 0.517731 0.205658
0.124390 0.526001 0.214935
0.141663 0.531525 0.226166
0.158417 0.538055 0.233429
0.179260 0.542572 0.240234
0.196777 0.549194 0.245087
0.217438 0.553680 0.252625
0.240326 0.557861 0.255890
0.268829 0.559052 0.259735
0.293518 0.561462 0.267212
0.328094 0.560486 0.266113
0.354065 0.563171 0.268799
0.384399 0.563538 0.272186
0.413727 0.564667 0.274109
0.443970 0.565033 0.277496
0.474121 0.565460 0.280975
0.503784 0.565125 0.290131
0.533081 0.565338 0.297028
0.564819 0.564941 0.300568
0.593170 0.565216 0.309692
0.620697 0.566162 0.317474
0.646973 0.568146 0.323120
0.671295 0.570862 0.330139
0.690918 0.575317 0.340637
0.712677 0.579590 0.346466
0.735718 0.582153 0.358002
0.757355 0.584961 0.371918
0.777527 0.589172 0.382233
0.790588 0.597290 0.391113
0.811127 0.601379 0.401001
0.830872 0.605713 0.412018
0.853149 0.608246 0.425568
0.163910 0.521637 0.215637
0.174652 0.529358 0.232849
0.187836 0.539001 0.233246
0.204437 0.545227 0.242493
0.219849 0.552032 0.251953
0.233948 0.560059 0.258484
0.252777 0.565491 0.265930
0.276794 0.567993 0.274750
0.300903 0.571350 0.278900
0.322968 0.575195 0.286530
0.350922 0.576996 0.288574
0.379089 0.578705 0.290405
0.406097 0.580292 0.296173
0.432495 0.582153 0.302094
0.458313 0.584198 0.308807
0.487152 0.584595 0.316010
0.514740 0.586334 0.319305
0.540894 0.587830 0.328125
0.567810 0.589447 0.334045
0.598724 0.588959 0.340271
0.624054 0.590790 0.349304
0.648651 0.593109 0.357697
0.673676 0.595886 0.362732
0.694550 0.599792 0.372711
0.715851 0.603668 0.381897
0.736176 0.608521 0.388153
0.756836 0.612000 0.401245
0.777435 0.616028 0.411346
0.796448 0.621002 0.420868
0.805420 0.630463 0.433868
0.826538 0.634247 0.443756
0.850677 0.636139 0.455750
0.211700 0.526917 0.230042
0.221680 0.534882 0.248108
0.232941 0.544098 0.256073
0.247009 0.553375 0.255707
0.264038 0.559387 0.265167
0.273987 0.568726 0.275757
0.292603 0.574188 0.283752
0.311340 0.579285 0.293121
0.336212 0.581390 0.302063
0.358643 0.585571 0.306274
0.382385 0.589233 0.309906
0.404724 0.593323 0.315033
0.430481 0.595581 0.320557
0.457611 0.596893 0.327698
0.477875 0.601227 0.337341
0.503326 0.603271 0.344818
0.528595 0.605225 0.353363
0.552551 0.608582 0.358002
0.574310 0.612122 0.367615
0.604279 0.612000 0.374542
0.628723 0.614685 0.381287
0.652618 0.617340 0.390015
0.675110 0.621490 0.394531
0.697388 0.624664 0.404694
0.717834 0.628906 0.414001
0.737122 0.633759 0.423523
0.756256 0.638733 0.432556
0.778656 0.641907 0.442291
0.798645 0.646698 0.450134
0.814301 0.652527 0.464050
0.825348 0.660400 0.479767
0.847076 0.663910 0.489594
0.258545 0.531647 0.249786
0.268188 0.541290 0.259705
0.278076 0.550934 0.269073
0.289642 0.559967 0.277100
0.303650 0.568054 0.283417
0.314819 0.576172 0.297607
0.336212 0.580353 0.304688
0.355896 0.585236 0.312744
0.373108 0.591309 0.321228
0.395508 0.595520 0.325439
0.417694 0.599854 0.329895
0.437225 0.604980 0.336914
0.458557 0.608826 0.345978
0.485443 0.609772 0.355530
0.501160 0.616394 0.365173
0.523651 0.620422 0.370087
0.546600 0.623993 0.376587
0.568451 0.627533 0.386169
0.590210 0.631073 0.395782
0.617279 0.631927 0.405121
0.637970 0.636322 0.413177
0.656555 0.641876 0.420746
0.680237 0.644562 0.429504
0.703796 0.646851 0.440918
0.722900 0.651794 0.450409
0.739899 0.657928 0.459320
0.757111 0.663757 0.469055
0.782776 0.665131 0.479553
0.800446 0.671539 0.485077
0.815643 0.678009 0.496857
0.832062 0.682922 0.513763
0.853149 0.685791 0.528809
0.299622 0.539337 0.269653
0.308624 0.548340 0.284729
0.321777 0.557190 0.289520
0.334747 0.565582 0.297150
0.348633 0.573059 0.306885
0.363373 0.579193 0.321869
0.372620 0.590454 0.324036
0.390015 0.596619 0.331696
0.407166 0.602356 0.342010
0.425995 0.607788 0.349854
0.441986 0.614258 0.359253
0.463837 0.618683 0.363892
0.484894 0.623016 0.371277
0.507812 0.625977 0.380798
0.525574 0.631714 0.389587
0.544403 0.636627 0.399933
0.563293 0.641846 0.408203
0.582245 0.646881 0.417664
0.605804 0.649689 0.426544
0.628143 0.653839 0.431183
0.651489 0.656677 0.440125
0.671814 0.661072 0.449066
0.694031 0.664429 0.458466
0.713654 0.668884 0.468994
0.729767 0.675110 0.479797
0.746643 0.681641 0.486572
0.765015 0.687592 0.492523
0.787262 0.690857 0.502258
0.807068 0.694336 0.517487
0.819977 0.702454 0.526886
0.833130 0.709778 0.539886
0.851257 0.714264 0.554260
0.339691 0.546021 0.297577
0.349182 0.555511 0.308563
0.354431 0.567200 0.319885
0.367645 0.576263 0.322998
0.381897 0.583923 0.331055
0.401154 0.588379 0.342712
0.411652 0.597595 0.352448
0.423615 0.607697 0.353668
0.440369 0.613525 0.364594
0.457733 0.618744 0.377380
0.476440 0.623688 0.387634
0.490967 0.631134 0.396088
0.510406 0.636780 0.400604
0.529175 0.642273 0.408234
0.541595 0.650635 0.417633
0.567810 0.650909 0.432434
0.586884 0.656342 0.439392
0.602570 0.663391 0.446716
0.620087 0.669525 0.453979
0.639160 0.674713 0.461945
0.664978 0.676605 0.469543
0.686096 0.680389 0.479767
0.705750 0.684875 0.490082
0.721344 0.691742 0.498718
0.740967 0.696167 0.509216
0.754059 0.704590 0.516479
0.771301 0.711365 0.520844
0.793091 0.714905 0.530457
0.809479 0.720276 0.544952
0.825775 0.724945 0.563538
0.838593 0.732727 0.574738
0.856079 0.738068 0.586395
0.378235 0.553955 0.322845
0.387939 0.563629 0.332520
0.396088 0.574066 0.342194
0.403595 0.584351 0.354523
0.415741 0.593719 0.359192
0.433441 0.599304 0.368805
0.445190 0.608002 0.378510
0.459320 0.616058 0.384705
0.474731 0.623871 0.388702
0.491760 0.628784 0.403839
0.502991 0.637451 0.414673
0.520599 0.643188 0.423828
0.537476 0.649414 0.432343
0.554230 0.656311 0.437469
0.566162 0.664825 0.447113
0.585846 0.668854 0.459991
0.607513 0.671997 0.472137
0.625122 0.678772 0.475861
0.637787 0.687622 0.481689
0.656952 0.692627 0.490601
0.672424 0.698975 0.502380
0.699127 0.700378 0.509888
0.717407 0.705536 0.520203
0.732086 0.712860 0.528809
0.748199 0.718872 0.540741
0.767548 0.723022 0.553772
0.779724 0.732178 0.559387
0.798309 0.736938 0.571106
0.812714 0.743896 0.582611
0.829620 0.748901 0.597473
0.842438 0.755280 0.616364
0.858795 0.761505 0.626160
0.413818 0.564240 0.343750
0.424866 0.573242 0.353271
0.434540 0.582916 0.362915
0.443604 0.592499 0.374786
0.457184 0.599243 0.389526
0.467224 0.608765 0.399048
0.477509 0.618042 0.409302
0.491119 0.626099 0.416748
0.508118 0.632965 0.421600
0.525970 0.638672 0.430328
0.530304 0.651093 0.439972
0.542999 0.659241 0.449646
0.560394 0.665283 0.457825
0.581085 0.669250 0.467865
0.596252 0.676086 0.477997
0.613098 0.681915 0.488739
0.629761 0.687958 0.498840
0.644348 0.695465 0.506714
0.658630 0.703674 0.511902
0.677734 0.708618 0.521118
0.693329 0.714813 0.533417
0.706390 0.722321 0.545471
0.730469 0.725769 0.549194
0.745850 0.732452 0.559265
0.760712 0.738708 0.573120
0.775909 0.744537 0.588440
0.794342 0.748779 0.603302
0.805145 0.756561 0.620209
0.818481 0.764343 0.630127
0.832611 0.771393 0.641998
0.849609 0.776642 0.655426
0.858612 0.785614 0.670502
0.441467 0.576691 0.374420
0.459320 0.582397 0.383148
0.470367 0.591431 0.392700
0.476532 0.602631 0.403900
0.481293 0.614227 0.416626
0.499451 0.620270 0.422668
0.512482 0.627716 0.435181
0.525452 0.635376 0.446533
0.538696 0.643311 0.455963
0.549042 0.652649 0.465576
0.563446 0.660736 0.470856
0.579681 0.667114 0.480255
0.595612 0.673920 0.488220
0.607269 0.683289 0.494049
0.616302 0.692322 0.509155
0.631470 0.699158 0.519287
