content/luts/vintage/vintage_02.cube
#Created by: Adobe Photoshop Export Color Lookup Plugin
#Copyright: (C) Copyright 2022 inPixio
TITLE "Retro Vintage 2"
#LUT size
LUT_3D_SIZE 8
#data domain
#LUT data points
DOMAIN_MIN 0.000000 0.000000 0.000000
DOMAIN_MAX 0.903226 0.903226 0.903226
0.000000 0.000000 0.000000
0.070221 0.029938 0.000031
0.218445 0.020172 0.000031
0.374329 0.005981 0.002686
0.505310 0.000031 0.029572
0.630219 0.000031 0.040710
0.718689 0.016724 0.061523
0.696289 0.087677 0.094147
0.052063 0.096741 0.031342
0.115692 0.129486 0.033844
0.251892 0.124634 0.040375
0.403107 0.112183 0.046783
0.556732 0.098511 0.052979
0.689178 0.092316 0.077026
0.765961 0.111816 0.114838
0.761536 0.169373 0.170013
0.088257 0.196259 0.090637
0.144836 0.229706 0.109161
0.261353 0.240234 0.086639
0.410370 0.234161 0.064514
0.562073 0.221252 0.072235
0.703857 0.210602 0.094482
0.787842 0.223145 0.150146
0.798126 0.270477 0.220001
0.107056 0.305511 0.145752
0.147308 0.348175 0.158936
0.256836 0.360809 0.144379
0.398254 0.362335 0.102264
0.557892 0.349518 0.087799
0.694733 0.336823 0.134430
0.792480 0.340881 0.198059
0.825287 0.375305 0.276001
0.118866 0.419067 0.196411
0.148773 0.465759 0.216309
0.232300 0.489624 0.212585
0.380402 0.484650 0.187134
0.538605 0.474976 0.159729
0.684143 0.462128 0.183319
0.780945 0.465607 0.252808
0.836639 0.488251 0.331268
0.221039 0.486053 0.250763
0.255859 0.527832 0.283447
0.310181 0.560638 0.311066
0.393005 0.584167 0.311035
0.525635 0.584198 0.300964
0.650879 0.584198 0.311584
0.764618 0.584717 0.350311
0.831909 0.604340 0.413300
0.360199 0.530212 0.326294
0.401031 0.566498 0.372437
0.447815 0.603790 0.396454
0.503448 0.634888 0.429962
0.569092 0.663696 0.448273
0.663483 0.679047 0.460449
0.747437 0.697723 0.483307
0.828308 0.714966 0.522156
0.497772 0.570770 0.425812
0.532471 0.611908 0.462402
0.571564 0.650757 0.499329
0.623016 0.682983 0.537872
0.662964 0.722931 0.566956
0.724060 0.751617 0.598053
0.777252 0.785217 0.624542
0.846680 0.808746 0.661224
0.000031 0.023438 0.003235
0.065277 0.051636 0.025696
0.188263 0.055450 0.022034
0.330231 0.050293 0.014221
0.495697 0.032806 0.008881
0.631073 0.024994 0.033478
0.721130 0.039764 0.060272
0.710480 0.101868 0.108337
0.077393 0.103577 0.054626
0.117493 0.144928 0.075104
0.214417 0.157745 0.093842
0.376099 0.145996 0.067932
0.533936 0.132263 0.062927
0.675323 0.122345 0.082642
0.775330 0.129669 0.122467
0.771301 0.187500 0.174988
0.132416 0.192749 0.118256
0.172791 0.231232 0.153687
0.256317 0.255188 0.149048
0.401489 0.255890 0.101196
0.557098 0.245483 0.084717
0.692017 0.237488 0.111633
0.793030 0.242126 0.163177
0.814514 0.283447 0.234863
0.180328 0.286194 0.178558
0.202148 0.336609 0.200378
0.277374 0.363007 0.205627
0.408813 0.373138 0.144562
0.563721 0.366364 0.110443
0.702240 0.354950 0.145844
0.804413 0.356201 0.212250
0.839722 0.390228 0.285492
0.175751 0.410034 0.218781
0.203796 0.453888 0.258942
0.261383 0.488342 0.269257
0.389862 0.496552 0.226593
0.551910 0.488007 0.182495
0.698395 0.476379 0.197205
0.798584 0.477783 0.268311
0.850830 0.501434 0.350769
0.248413 0.490662 0.280548
0.287598 0.531860 0.304413
0.337494 0.566437 0.334686
0.408264 0.595490 0.337799
0.528595 0.604095 0.315277
0.662537 0.601685 0.314911
0.780029 0.600159 0.354614
0.850861 0.616333 0.426575
0.377136 0.543488 0.338043
0.420319 0.578430 0.384766
0.465363 0.615784 0.413513
0.517334 0.648010 0.450531
0.583038 0.678802 0.458191
0.670013 0.697601 0.472168
0.762482 0.712006 0.494659
0.846771 0.727631 0.532684
0.505188 0.588440 0.439911
0.550018 0.624634 0.475128
0.584442 0.665161 0.516144
0.635376 0.698395 0.550629
0.681702 0.734192 0.584290
0.735474 0.766846 0.614288
0.800018 0.794464 0.641876
0.861694 0.823608 0.669556
0.000031 0.040466 0.040955
0.033630 0.079803 0.089935
0.156067 0.081543 0.098755
0.286377 0.081329 0.096527
0.441864 0.069794 0.086334
0.623962 0.049774 0.048889
0.714020 0.066711 0.064178
0.722351 0.118805 0.114014
0.047852 0.136017 0.090088
0.124786 0.158813 0.109741
0.194550 0.183289 0.140015
0.319427 0.182434 0.156128
0.485718 0.167023 0.137146
0.658447 0.151031 0.103943
0.766205 0.158112 0.123840
0.787659 0.201202 0.185913
0.138672 0.208374 0.146393
0.190399 0.242493 0.174194
0.255798 0.270599 0.196838
0.358582 0.281036 0.212463
0.513672 0.273285 0.183197
0.683990 0.260071 0.141144
0.794861 0.263031 0.175232
0.827271 0.300140 0.239532
0.207977 0.293213 0.194427
0.252289 0.327576 0.240906
0.291168 0.369232 0.263702
0.391174 0.384979 0.258118
0.538269 0.385162 0.208038
0.691895 0.377625 0.181305
0.804230 0.379547 0.216492
0.850586 0.406677 0.296509
0.234741 0.396179 0.261322
0.289307 0.427094 0.298676
0.312195 0.477539 0.317657
0.397247 0.500366 0.314911
0.543030 0.500519 0.268524
0.691589 0.497528 0.231354
0.807556 0.495239 0.279419
0.861786 0.518219 0.359955
0.300873 0.482147 0.312134
0.343109 0.520203 0.344604
0.376587 0.563812 0.371002
0.434540 0.597107 0.386475
0.536957 0.613129 0.373138
0.667816 0.617218 0.346252
0.791931 0.615112 0.370941
0.860077 0.633270 0.439728
0.406555 0.547211 0.366699
0.449890 0.583862 0.404083
0.490387 0.621948 0.441193
0.540070 0.656464 0.472260
0.597015 0.690765 0.484924
0.685242 0.710663 0.489410
0.771912 0.728668 0.508545
0.857666 0.742065 0.554596
0.529480 0.597778 0.452576
0.569824 0.636475 0.486694
0.606964 0.676025 0.525238
0.650757 0.711487 0.567383
0.699371 0.745911 0.602448
0.745941 0.783020 0.628174
0.812225 0.809692 0.655975
0.872650 0.838745 0.687439
0.000031 0.057861 0.076691
0.000031 0.109802 0.149750
0.102814 0.118103 0.176941
0.242645 0.111969 0.180420
0.426178 0.084717 0.178192
0.546295 0.093048 0.157532
0.678528 0.096344 0.131012
0.742554 0.128265 0.137360
0.025269 0.159119 0.156708
0.077576 0.194061 0.178650
0.171204 0.206879 0.206360
0.284637 0.211670 0.223175
0.447632 0.191193 0.240265
0.586884 0.189758 0.220245
0.732452 0.185699 0.196930
0.808380 0.212189 0.199646
0.092560 0.243713 0.211578
0.180481 0.261566 0.227905
0.243164 0.292114 0.245056
0.326599 0.309540 0.275757
0.459900 0.306061 0.282898
0.615906 0.295563 0.265472
0.760437 0.290192 0.252258
0.842743 0.313568 0.254120
0.186340 0.319794 0.239716
0.247101 0.348938 0.269623
0.319031 0.371521 0.304474
0.377472 0.402649 0.329773
0.496490 0.407410 0.331879
0.638733 0.404419 0.311676
0.778198 0.403198 0.289612
0.868500 0.418518 0.313263
0.265411 0.397736 0.298431
0.312531 0.432861 0.333527
0.371521 0.461975 0.368347
0.418549 0.499664 0.389587
0.524200 0.515076 0.370972
0.663025 0.513245 0.353821
0.792328 0.515411 0.341827
0.876587 0.533386 0.367279
0.314056 0.493652 0.343506
0.363922 0.527100 0.379730
0.423157 0.556488 0.412781
0.461761 0.598267 0.434967
0.540405 0.623260 0.438568
0.660370 0.631409 0.419617
0.791046 0.632812 0.407257
0.875763 0.646942 0.452637
0.421936 0.558929 0.390930
0.466217 0.593719 0.435730
0.517944 0.626617 0.469879
0.561462 0.664429 0.500244
0.618652 0.696594 0.523773
0.689667 0.725098 0.529144
0.781586 0.742859 0.535156
0.871124 0.757782 0.562744
0.551758 0.607178 0.470428
0.587891 0.646332 0.513489
0.629456 0.684631 0.546844
0.663788 0.725403 0.586365
0.715820 0.758331 0.619812
0.761200 0.795990 0.645935
0.819092 0.827423 0.671204
0.889130 0.851196 0.704834
0.000031 0.075592 0.110596
0.000031 0.127197 0.185852
0.012543 0.169830 0.274811
0.187653 0.143921 0.288025
0.358124 0.124847 0.277557
0.517395 0.116394 0.240204
0.607147 0.141235 0.214355
0.673737 0.177368 0.190521
0.000031 0.181213 0.236145
0.013428 0.230408 0.287598
0.107452 0.246887 0.294708
0.249176 0.235565 0.320709
0.393982 0.227753 0.319977
0.558563 0.212708 0.303406
0.661163 0.230560 0.279663
0.739044 0.259094 0.266327
0.047241 0.277344 0.283691
0.092926 0.314209 0.313446
0.211761 0.319824 0.311096
0.307037 0.330841 0.343750
0.425140 0.334290 0.355438
0.572296 0.325592 0.352417
0.687012 0.335846 0.336731
0.790344 0.351379 0.323303
0.099731 0.371826 0.325928
0.189514 0.388397 0.343994
0.287994 0.402740 0.350525
0.372375 0.420990 0.374298
0.456787 0.439209 0.398346
0.588135 0.436951 0.404053
0.723511 0.435120 0.396667
0.830597 0.449188 0.381134
0.207672 0.441193 0.351654
0.291199 0.457672 0.387482
0.365051 0.483368 0.400116
0.436401 0.506866 0.431213
0.504089 0.535461 0.445282
0.620636 0.540955 0.449860
0.755035 0.540253 0.439301
0.858582 0.553864 0.435455
0.318634 0.508118 0.382263
0.366089 0.542328 0.421265
0.431824 0.568573 0.453217
0.498871 0.595398 0.478241
0.550690 0.630371 0.501343
0.650513 0.646332 0.495422
0.773743 0.651825 0.481537
0.868347 0.665070 0.504547
0.411896 0.582550 0.420868
0.458466 0.617126 0.460236
0.516296 0.647491 0.491364
0.581238 0.673950 0.524445
0.633698 0.706055 0.560974
0.695618 0.738007 0.572784
0.778961 0.760223 0.578064
0.880493 0.771851 0.590576
0.542480 0.632172 0.490509
0.587036 0.669128 0.523010
0.634613 0.702423 0.566284
0.688263 0.734070 0.601990
0.728668 0.771790 0.641510
0.773987 0.808899 0.670898
0.834381 0.838806 0.697632
0.894073 0.870422 0.717102
0.000031 0.094666 0.137207
0.000031 0.146332 0.212158
0.000031 0.197693 0.288483
0.080017 0.206299 0.375824
0.297485 0.160583 0.380188
0.469971 0.143188 0.354706
0.537018 0.191406 0.265289
0.592621 0.231598 0.249939
0.000031 0.199371 0.267700
0.000031 0.252777 0.333252
0.018890 0.298096 0.390594
0.169708 0.284210 0.405640
0.345825 0.256622 0.425385
0.517151 0.239838 0.399872
0.593170 0.278320 0.337891
0.657074 0.315674 0.315277
0.011475 0.307739 0.347229
0.052338 0.345703 0.384155
0.111450 0.376129 0.411560
0.254761 0.369385 0.409119
0.382751 0.363007 0.445862
0.531921 0.354553 0.436432
0.621826 0.383240 0.389313
0.707703 0.406006 0.384766
0.070679 0.397827 0.394775
0.112854 0.435913 0.427338
0.223236 0.445038 0.429230
0.339325 0.452057 0.426880
0.432068 0.463531 0.464569
0.556335 0.465118 0.468811
0.656097 0.484314 0.445587
0.754150 0.498505 0.454102
0.142639 0.484467 0.425903
0.193939 0.518799 0.454041
0.310303 0.522308 0.469574
0.406982 0.538452 0.471130
0.493958 0.556458 0.489532
0.583923 0.572266 0.511169
0.702911 0.577698 0.509369
0.813263 0.585968 0.515869
0.249512 0.555145 0.447510
0.309509 0.583038 0.486115
0.391876 0.603790 0.502319
0.482941 0.619293 0.522522
0.563477 0.640778 0.539703
0.640869 0.662384 0.564484
0.754852 0.670746 0.560669
0.846832 0.688446 0.567017
0.377808 0.614624 0.470917
0.430023 0.647369 0.504547
0.494202 0.676117 0.527100
0.570679 0.695923 0.564484
0.646118 0.717834 0.592987
0.706482 0.748108 0.617920
0.781464 0.773376 0.629791
0.878204 0.788513 0.636475
0.540192 0.654816 0.504395
0.577515 0.692627 0.551727
0.622955 0.730835 0.574615
0.681061 0.757874 0.623138
0.742004 0.785522 0.660645
0.789093 0.820099 0.698639
0.838470 0.854675 0.730316
0.902832 0.884491 0.746857
0.000031 0.113312 0.166351
0.000031 0.164459 0.243958
0.000031 0.216431 0.316956
0.031036 0.253815 0.383728
0.180237 0.235901 0.425018
0.374664 0.202881 0.423615
0.538361 0.191620 0.389709
0.537750 0.273621 0.303223
0.000031 0.215546 0.310181
0.019226 0.261841 0.361023
0.053650 0.301971 0.404083
0.114227 0.332336 0.427704
0.251465 0.320526 0.469025
0.433838 0.293182 0.469910
0.589355 0.284088 0.446533
0.601624 0.357117 0.373413
0.053528 0.307648 0.362061
0.090729 0.346619 0.403687
0.128967 0.384857 0.446106
0.208923 0.408295 0.454346
0.324646 0.409515 0.483887
0.476013 0.395294 0.499420
0.620300 0.389557 0.488495
0.649963 0.450226 0.434021
0.127747 0.391510 0.402008
0.166840 0.430481 0.438202
0.204956 0.470093 0.473755
0.294830 0.487610 0.486481
0.404175 0.495636 0.497406
0.514008 0.500092 0.525635
0.645111 0.498840 0.526825
0.692108 0.545868 0.498322
0.193115 0.482300 0.429047
0.241699 0.514313 0.476715
0.276489 0.554657 0.517334
0.360687 0.575500 0.527802
0.478729 0.581696 0.524506
0.569153 0.594696 0.560028
0.673920 0.605621 0.567902
0.742767 0.637543 0.560486
0.284302 0.556396 0.474945
0.320160 0.596802 0.512177
0.362366 0.633606 0.551880
0.448883 0.651672 0.570709
0.540283 0.670197 0.574158
0.628754 0.685822 0.600922
0.718445 0.703400 0.613831
0.800934 0.724396 0.628265
0.370697 0.634186 0.514282
0.414825 0.671631 0.544861
0.452576 0.711761 0.578552
0.533936 0.729523 0.613525
0.623993 0.747070 0.625488
0.704773 0.766357 0.653778
0.776367 0.791412 0.676056
0.866638 0.808594 0.689423
0.535583 0.675995 0.532410
0.573242 0.715057 0.572235
0.616730 0.750702 0.614227
0.661560 0.786316 0.652588
0.734375 0.809509 0.681641
0.799225 0.836548 0.711548
0.851990 0.867035 0.756226
0.913940 0.897644 0.775055
0.000031 0.135651 0.175507
0.021515 0.180634 0.227448
0.060211 0.219360 0.266144
0.096252 0.258942 0.307251
0.151428 0.285522 0.366241
0.260590 0.287018 0.412506
0.418121 0.270355 0.424164
0.547150 0.275665 0.395599
0.056641 0.218323 0.269806
0.100739 0.254059 0.309601
0.135620 0.295502 0.344208
0.172089 0.334503 0.387390
0.225037 0.363556 0.439209
0.339661 0.364197 0.474884
0.485748 0.353302 0.486908
0.618713 0.354309 0.470947
0.137421 0.295929 0.325409
0.176453 0.334961 0.361389
0.211548 0.375854 0.397980
0.247131 0.413605 0.450653
0.315002 0.441101 0.469849
0.410370 0.449677 0.515869
0.541168 0.446167 0.529785
0.658844 0.453522 0.521088
0.213867 0.377441 0.371735
0.254303 0.413818 0.417999
0.286224 0.456879 0.452057
0.325684 0.494415 0.494934
0.398834 0.520905 0.505341
0.479584 0.538025 0.545105
0.591766 0.541534 0.572388
0.700867 0.552979 0.565369
0.291351 0.457458 0.423309
0.330902 0.497009 0.455261
0.369385 0.535095 0.498016
0.404602 0.574219 0.543732
0.468842 0.604065 0.560669
0.558319 0.621185 0.576508
0.648315 0.634033 0.614288
0.739502 0.651337 0.624512
0.378479 0.533966 0.467407
0.416779 0.573395 0.503448
0.456177 0.611633 0.542816
0.491333 0.651093 0.587219
0.537354 0.686981 0.621094
0.626465 0.706299 0.626343
0.708191 0.724243 0.659119
0.793091 0.743378 0.676849
0.464844 0.610046 0.516052
0.510162 0.645752 0.552795
0.546844 0.684967 0.594269
0.583649 0.724701 0.632721
0.618896 0.765259 0.670898
0.704132 0.783966 0.690094
0.775482 0.809387 0.710846
0.850220 0.831757 0.739014
0.566254 0.678223 0.565765
0.597229 0.721191 0.602783
0.648682 0.753021 0.643738
0.683624 0.792938 0.685913
0.719788 0.834015 0.719147
0.782257 0.862579 0.747345
0.850128 0.887939 0.778259
0.917175 0.914520 0.804718
