content/luts/vintage/vintage_07.cube
#Created by: Adobe Photoshop Export Color Lookup Plugin
#Copyright: (C) Copyright 2022 inPixio
TITLE "Retro Vintage 7"
#LUT size
LUT_3D_SIZE 32
#data domain
DOMAIN_MIN 0.0 0.0 0.0
DOMAIN_MAX 1.0 1.0 1.0
#LUT data points
0.000000 0.000000 0.000000
0.000031 0.011292 0.027405
0.006348 0.018738 0.057953
0.031647 0.021515 0.062012
0.058441 0.023285 0.067566
0.088379 0.022858 0.076233
0.118866 0.022980 0.080414
0.152588 0.021393 0.085144
0.186371 0.019531 0.090881
0.212738 0.021576 0.095978
0.248932 0.018951 0.099274
0.284119 0.016724 0.103119
0.321442 0.013062 0.108948
0.364349 0.006134 0.117188
0.406952 0.000031 0.121796
0.435699 0.000031 0.131378
0.464142 0.000031 0.141998
0.492188 0.000031 0.153534
0.518799 0.000031 0.168823
0.546112 0.000031 0.182281
0.575165 0.000031 0.190918
0.605347 0.000031 0.196686
0.635590 0.000031 0.202087
0.664764 0.000031 0.210358
0.697937 0.000031 0.207886
0.733704 0.000031 0.198334
0.771729 0.000031 0.182892
0.780090 0.015289 0.166077
0.752960 0.046600 0.159821
0.721344 0.079712 0.156494
0.683563 0.115326 0.156555
0.639526 0.153259 0.161102
0.001556 0.019897 0.062164
0.001953 0.035461 0.065582
0.018188 0.040955 0.079651
0.043579 0.044342 0.080292
0.072998 0.046570 0.076019
0.104492 0.045044 0.086304
0.130585 0.045837 0.098724
0.160492 0.046417 0.102203
0.194397 0.045013 0.104980
0.228485 0.043396 0.108673
0.253143 0.046692 0.112091
0.288818 0.043671 0.118958
0.327545 0.039276 0.124908
0.371948 0.031921 0.131104
0.424255 0.020508 0.137634
0.478607 0.008667 0.140991
0.524506 0.000031 0.150085
0.552612 0.000031 0.161377
0.580627 0.000031 0.173370
0.604431 0.000031 0.196381
0.633423 0.000031 0.205322
0.663422 0.000031 0.211365
0.693298 0.000031 0.217804
0.725708 0.000031 0.217377
0.759796 0.000031 0.212372
0.796021 0.000031 0.201508
0.822876 0.005432 0.187073
0.796204 0.037445 0.176086
0.768799 0.068481 0.172211
0.736908 0.101349 0.170807
0.700806 0.135956 0.172028
0.661041 0.171722 0.176544
0.012970 0.043701 0.076080
0.016235 0.055695 0.091003
0.032928 0.063934 0.089233
0.055328 0.066071 0.104797
0.084473 0.068298 0.101440
0.113831 0.069550 0.102448
0.143158 0.070923 0.103058
0.169281 0.071136 0.118683
0.199158 0.071899 0.121002
0.232513 0.071350 0.120941
0.263123 0.071350 0.125488
0.297363 0.070160 0.126343
0.336395 0.065063 0.135284
0.380920 0.057495 0.142365
0.430603 0.047180 0.150269
0.485321 0.035767 0.150360
0.538879 0.023987 0.155304
0.600494 0.007416 0.164185
0.643433 0.000031 0.174957
0.670258 0.000031 0.189697
0.696442 0.000031 0.206268
0.726044 0.000031 0.213531
0.755341 0.000031 0.221710
0.788513 0.000031 0.219208
0.822021 0.000031 0.215698
0.856140 0.001495 0.202515
0.832458 0.030945 0.197266
0.806854 0.061371 0.191772
0.780426 0.092621 0.184204
0.749298 0.124481 0.186218
0.712402 0.158813 0.190582
0.673218 0.193787 0.197693
0.022247 0.067932 0.093994
0.027222 0.078979 0.109070
0.045166 0.084503 0.118408
0.066101 0.091003 0.114532
0.092682 0.091400 0.127838
0.118927 0.095123 0.124237
0.148560 0.096710 0.123016
0.176575 0.098633 0.124451
0.204742 0.097992 0.138977
0.234711 0.099609 0.136566
0.268890 0.098114 0.139374
0.305878 0.095642 0.139648
0.345520 0.091644 0.140991
0.389893 0.083649 0.150818
0.439362 0.073395 0.158783
0.491608 0.063293 0.158417
0.545685 0.052032 0.159576
0.598053 0.040649 0.165771
0.659729 0.024139 0.174072
0.713593 0.011475 0.183136
0.762146 0.001312 0.192993
0.793304 0.000031 0.202972
0.821777 0.000031 0.213318
0.855469 0.000031 0.209351
0.867706 0.010284 0.208893
0.861267 0.029633 0.210663
0.840668 0.057648 0.204742
0.816650 0.086761 0.201996
0.791229 0.116089 0.201843
0.760651 0.148499 0.199341
0.726196 0.180847 0.207916
0.686066 0.215485 0.219391
0.035492 0.088745 0.119354
0.041748 0.100311 0.128265
0.058716 0.106262 0.137878
0.080505 0.110352 0.144501
0.098602 0.118225 0.140991
0.121368 0.122772 0.142487
0.149933 0.124146 0.145142
0.179718 0.124969 0.147339
0.206909 0.127075 0.149841
0.239288 0.126068 0.154907
0.276062 0.123627 0.156036
0.314575 0.120667 0.154816
0.354065 0.117279 0.153320
0.395264 0.111938 0.157349
0.447418 0.100586 0.163940
0.499146 0.090942 0.162537
0.551758 0.080505 0.163116
0.604218 0.069611 0.166260
0.656921 0.058533 0.170349
0.710175 0.046387 0.178192
0.757843 0.036743 0.187927
0.798920 0.030640 0.196625
0.834717 0.027740 0.202454
0.859863 0.031647 0.200775
0.866302 0.044159 0.204193
0.859863 0.062897 0.209015
0.846741 0.084930 0.214600
0.826385 0.113190 0.206421
0.802979 0.140228 0.213348
0.774475 0.170319 0.217499
0.741638 0.202728 0.221466
0.706207 0.234100 0.237640
0.042419 0.113892 0.138428
0.052094 0.123566 0.148102
0.063110 0.133423 0.153168
0.082184 0.138855 0.160126
0.104889 0.142731 0.165497
0.127991 0.147583 0.164276
0.152527 0.151398 0.165039
0.185089 0.151306 0.164612
0.217499 0.151337 0.163879
0.243347 0.154419 0.165039
0.279755 0.151642 0.168335
0.317902 0.148254 0.170532
0.356323 0.145355 0.169250
0.395355 0.142395 0.166534
0.444122 0.133453 0.169769
0.495911 0.124146 0.166382
0.550110 0.113007 0.166412
0.604950 0.100952 0.169525
0.656555 0.091553 0.166962
0.705292 0.082092 0.172699
0.751770 0.073181 0.181854
0.792450 0.067322 0.190155
0.826874 0.065430 0.194611
0.851440 0.068756 0.197937
0.864929 0.076935 0.205078
0.862915 0.093262 0.211060
0.850098 0.115356 0.215424
0.831909 0.139954 0.221039
0.811401 0.165375 0.228607
0.788330 0.192383 0.234650
0.762115 0.221191 0.239410
0.734070 0.249817 0.250336
0.049377 0.139069 0.157532
0.059052 0.148743 0.167206
0.070709 0.158234 0.172424
0.086151 0.165588 0.178741
0.108704 0.169037 0.186737
0.134827 0.172638 0.184265
0.159973 0.177032 0.180084
0.187347 0.179901 0.178253
0.220245 0.179901 0.176483
0.247406 0.182251 0.177582
0.288574 0.177155 0.180695
0.324036 0.175140 0.182739
0.364227 0.171570 0.180176
0.405701 0.168152 0.173340
0.453064 0.160126 0.175171
0.502319 0.151672 0.174072
0.553802 0.142517 0.171112
0.607513 0.131317 0.172577
0.659027 0.122131 0.169464
0.704407 0.114624 0.173859
0.749451 0.107666 0.176361
0.787354 0.103699 0.182007
0.817596 0.104095 0.185577
0.842987 0.105865 0.194550
0.856415 0.113953 0.202637
0.856476 0.127960 0.215240
0.844879 0.148621 0.224396
0.830627 0.170776 0.232391
0.807678 0.198059 0.236511
0.785248 0.224701 0.242676
0.757721 0.254120 0.247803
0.725769 0.285034 0.257202
0.062683 0.160736 0.178070
0.067169 0.173431 0.185852
0.079773 0.182251 0.191986
0.090820 0.191528 0.200256
0.109833 0.196472 0.209778
0.136292 0.199921 0.207123
0.166168 0.201477 0.205017
0.193085 0.205475 0.198273
0.222656 0.207703 0.193665
0.251709 0.209473 0.192780
0.289734 0.206390 0.193481
0.332001 0.201599 0.192108
0.369507 0.199249 0.190521
0.413574 0.195007 0.180969
0.460144 0.188324 0.177826
0.507690 0.180450 0.178314
0.558350 0.171844 0.174286
0.609192 0.162598 0.173248
0.659973 0.153687 0.170380
0.704102 0.147064 0.173767
0.747467 0.140717 0.177429
0.787445 0.136169 0.180969
0.815552 0.137482 0.185181
0.841217 0.138855 0.195648
0.850464 0.148621 0.206055
0.850983 0.163086 0.214935
0.839813 0.182281 0.230347
0.827881 0.202576 0.241913
0.807281 0.228027 0.249542
0.786804 0.254211 0.253082
0.762634 0.281677 0.259796
0.728943 0.313263 0.270142
0.079437 0.180511 0.199371
0.080994 0.194977 0.205475
0.089691 0.206055 0.210236
0.100891 0.215240 0.218658
0.111450 0.223907 0.231110
0.136230 0.228180 0.228577
0.165863 0.229492 0.228851
0.197540 0.230408 0.225494
0.226440 0.233521 0.217987
0.256226 0.235992 0.211334
0.290833 0.235291 0.208740
0.330780 0.232239 0.204163
0.373749 0.227783 0.198578
0.416290 0.223785 0.192047
0.463043 0.217896 0.184113
0.511230 0.210541 0.180298
0.559753 0.202881 0.177185
0.609894 0.194794 0.171539
0.659027 0.186646 0.169189
0.702271 0.180573 0.171967
0.744415 0.174866 0.175385
0.783783 0.170471 0.179596
0.817200 0.168091 0.189240
0.842468 0.169708 0.199951
0.850983 0.179749 0.210754
0.848633 0.194885 0.223969
0.837585 0.215179 0.233154
0.825989 0.234467 0.249146
0.807861 0.258453 0.257965
0.788544 0.282898 0.267487
0.768738 0.308258 0.273468
0.743622 0.334747 0.287842
0.090302 0.203522 0.219330
0.096405 0.215698 0.225433
0.103973 0.227570 0.228973
0.111481 0.238983 0.235321
0.119080 0.249725 0.244812
0.140686 0.256195 0.239136
0.164917 0.259918 0.241058
0.194641 0.261292 0.240814
0.227325 0.261749 0.237061
0.258942 0.263000 0.232239
0.292480 0.263397 0.226471
0.330505 0.261841 0.219086
0.371429 0.258850 0.211426
0.413971 0.254852 0.204895
0.463715 0.246887 0.199951
0.515472 0.238831 0.189880
0.565704 0.231567 0.180084
0.613159 0.225403 0.171753
0.656830 0.220490 0.166870
0.699829 0.214539 0.169525
0.741180 0.209198 0.173279
0.779083 0.205505 0.177673
0.811157 0.204559 0.183197
0.834717 0.206848 0.194611
0.844757 0.216034 0.206055
0.845642 0.228821 0.222870
0.839447 0.244385 0.244141
0.824341 0.265686 0.259369
0.808929 0.289124 0.263550
0.790924 0.312592 0.274902
0.769989 0.336853 0.289795
0.745178 0.363647 0.301544
0.096039 0.230103 0.234161
0.106812 0.241180 0.233337
0.114960 0.251099 0.245789
0.119934 0.264648 0.247711
0.124420 0.278351 0.249786
0.147339 0.281067 0.260559
0.174042 0.284973 0.254883
0.198975 0.288269 0.257050
0.228241 0.289978 0.256226
0.259827 0.291199 0.251373
0.296112 0.291321 0.239594
0.333160 0.290924 0.229065
0.372040 0.289307 0.219604
0.412170 0.286713 0.211945
0.460938 0.280426 0.200745
0.509766 0.273987 0.190125
0.561646 0.266113 0.178711
0.610748 0.259064 0.170502
0.653931 0.253662 0.169678
0.700928 0.246521 0.168091
0.735809 0.243958 0.174530
0.769897 0.241577 0.182281
0.801666 0.240234 0.190918
0.829102 0.240845 0.200653
0.837219 0.250488 0.214844
0.838898 0.263062 0.230804
0.834869 0.277740 0.251068
0.822784 0.297302 0.266937
0.809509 0.317780 0.281342
0.794159 0.339630 0.293854
0.775879 0.362457 0.309082
0.753967 0.388123 0.319550
0.104340 0.255646 0.247528
0.112305 0.267639 0.249420
0.117340 0.280762 0.253204
0.127655 0.289825 0.264526
0.131744 0.304535 0.262543
0.147980 0.311035 0.271301
0.174713 0.313965 0.270721
0.205292 0.315338 0.267914
0.231750 0.318268 0.267822
0.261871 0.320557 0.261505
0.294434 0.321014 0.258148
0.332825 0.320923 0.241882
0.371155 0.320923 0.225189
0.410034 0.319977 0.212341
0.458984 0.314301 0.197052
0.503906 0.308594 0.193359
0.554169 0.301117 0.184357
0.605682 0.293213 0.174408
0.651093 0.287231 0.170349
0.693542 0.281616 0.172852
0.732635 0.277435 0.176636
0.761993 0.277222 0.185516
0.792145 0.276398 0.195679
0.818665 0.277466 0.205872
0.834686 0.283386 0.218353
0.833313 0.296661 0.238861
0.830078 0.310883 0.259430
0.821838 0.328461 0.275452
0.807831 0.349487 0.288788
0.795837 0.369141 0.304108
0.780792 0.390015 0.321075
0.762268 0.413635 0.332916
0.112976 0.281738 0.256927
0.120636 0.293182 0.262695
0.125275 0.305908 0.269714
0.129211 0.319092 0.276337
0.140686 0.328674 0.281372
0.150238 0.339722 0.284058
0.170349 0.346436 0.281281
0.200134 0.348145 0.279083
0.233734 0.347565 0.278503
0.262634 0.350677 0.270966
0.295258 0.350922 0.268463
0.331543 0.350769 0.258453
0.372406 0.349915 0.239349
0.410736 0.351013 0.216949
0.458221 0.346527 0.199402
0.504608 0.340820 0.191406
0.548767 0.335968 0.185425
0.599792 0.327515 0.179382
0.648010 0.321106 0.170441
0.687042 0.317261 0.172424
0.725769 0.312714 0.179260
0.758057 0.310608 0.190308
0.785614 0.311096 0.200531
0.809753 0.312958 0.212524
0.822937 0.320068 0.226471
0.828308 0.330750 0.242584
0.822510 0.345215 0.268677
0.818024 0.360718 0.286072
0.805603 0.380554 0.301361
0.791168 0.401276 0.317657
0.778564 0.420807 0.335022
0.763367 0.442047 0.350708
0.119904 0.309906 0.260071
0.128845 0.319855 0.270264
0.135437 0.330994 0.280670
0.141327 0.342438 0.291107
0.146790 0.354736 0.298096
0.153900 0.367920 0.296082
0.167633 0.378143 0.291626
0.191132 0.383392 0.287262
0.224030 0.383423 0.285522
0.259186 0.382141 0.284241
0.295135 0.381409 0.278198
0.333282 0.380341 0.268005
0.373749 0.379059 0.252563
0.417267 0.377045 0.232574
0.460480 0.374725 0.215088
0.507874 0.369629 0.201263
0.554230 0.364807 0.188599
0.597778 0.361420 0.175842
0.645691 0.354706 0.169128
0.681976 0.352539 0.170258
0.718781 0.348969 0.176819
0.754333 0.345062 0.188843
0.782776 0.343414 0.208069
0.804047 0.346222 0.223022
0.813507 0.354675 0.239807
0.814850 0.367126 0.257202
0.811432 0.381683 0.276337
0.809509 0.394928 0.298676
0.798615 0.413269 0.317902
0.785919 0.432465 0.337341
0.770172 0.452911 0.358795
0.754364 0.473541 0.379425
0.127716 0.338959 0.255737
0.128571 0.351959 0.271790
0.133698 0.364532 0.278137
0.140472 0.376007 0.286224
0.148346 0.387054 0.293579
0.150299 0.403809 0.286438
0.160370 0.414886 0.287384
0.179352 0.422729 0.281555
0.209686 0.424713 0.276245
0.251373 0.419861 0.276428
0.288574 0.417725 0.274292
0.329834 0.414093 0.269379
0.372284 0.411011 0.258087
0.415588 0.408752 0.240021
0.458801 0.406433 0.222534
0.505432 0.402710 0.203613
0.554291 0.396240 0.192963
0.601257 0.389954 0.186554
0.645172 0.384552 0.183807
0.684387 0.380249 0.187836
0.714081 0.380096 0.195557
0.741425 0.380737 0.205536
0.764740 0.383057 0.217346
0.790131 0.384155 0.230591
0.804779 0.389435 0.250305
0.810059 0.399536 0.269501
0.808868 0.412781 0.289703
0.804382 0.426239 0.317841
0.788696 0.446991 0.337067
0.783112 0.463043 0.354248
0.775848 0.479187 0.375488
0.760620 0.497986 0.403870
0.126892 0.371399 0.257202
0.130737 0.384979 0.261780
0.137817 0.395630 0.273315
0.143188 0.408051 0.279938
0.151337 0.418884 0.287720
0.158051 0.432678 0.283295
0.166992 0.444122 0.285522
0.184174 0.451477 0.287048
0.210449 0.455750 0.280670
0.248627 0.453552 0.276337
0.291473 0.449341 0.269989
0.329010 0.447418 0.266022
0.370697 0.443970 0.258789
0.412720 0.441681 0.244354
0.455475 0.438904 0.230682
0.503448 0.434143 0.213165
0.548553 0.430603 0.197479
0.594269 0.424713 0.192352
0.635986 0.419617 0.193817
0.668091 0.418304 0.201141
0.702301 0.415741 0.209564
0.729675 0.416321 0.219727
0.754272 0.418365 0.229767
0.777496 0.419586 0.247681
0.793030 0.424500 0.266998
0.802673 0.432251 0.287170
0.804413 0.444122 0.306610
0.800110 0.458038 0.331909
0.791962 0.474701 0.352631
0.783112 0.491119 0.376648
0.780029 0.505249 0.397217
0.767456 0.523041 0.424133
0.131866 0.402222 0.251526
0.137634 0.414032 0.260315
0.143127 0.426758 0.264954
0.156219 0.434784 0.274261
0.163605 0.445953 0.282135
0.173401 0.457642 0.280914
0.183014 0.469269 0.280396
0.197754 0.477203 0.285400
0.221680 0.481384 0.285797
0.254028 0.482635 0.278717
0.291412 0.481201 0.272461
0.334381 0.477081 0.265320
0.370117 0.476776 0.257416
0.409882 0.475067 0.246063
0.453186 0.471558 0.234741
0.498413 0.467072 0.223297
0.541931 0.463501 0.212128
0.583221 0.460541 0.203217
0.622650 0.456177 0.207092
0.658783 0.453094 0.213104
0.689148 0.451202 0.228302
0.718018 0.450745 0.239990
0.744598 0.451660 0.250519
0.764709 0.454651 0.267548
0.780457 0.459045 0.289398
0.790100 0.466797 0.309540
0.797119 0.475830 0.329712
0.797577 0.487396 0.354462
0.789978 0.504852 0.369629
0.787384 0.518188 0.393066
0.782135 0.532562 0.418182
0.771698 0.550079 0.440521
0.147430 0.428528 0.241028
0.154907 0.438385 0.255707
0.162018 0.449677 0.263580
0.169952 0.461029 0.268982
0.186859 0.467316 0.277161
0.197510 0.477966 0.278992
0.206848 0.489807 0.277924
0.221069 0.498840 0.278717
0.239655 0.504822 0.283813
0.267029 0.507904 0.280823
0.298615 0.508759 0.278137
0.335510 0.507599 0.271667
0.375580 0.505249 0.263000
0.408844 0.506927 0.251251
0.452759 0.502625 0.242432
0.495850 0.499054 0.231995
0.536621 0.495758 0.226318
0.574005 0.493683 0.223724
0.610657 0.490845 0.226959
0.649475 0.486542 0.232147
0.683899 0.483002 0.245300
0.710999 0.482025 0.264557
0.733978 0.484039 0.278961
0.751343 0.488739 0.294312
0.766022 0.494171 0.313141
0.777222 0.500580 0.336121
0.785187 0.509552 0.354218
0.794891 0.515961 0.381348
0.789703 0.532410 0.395660
0.787262 0.546661 0.413727
0.786438 0.559265 0.436432
0.774872 0.578033 0.455200
0.172363 0.447388 0.244720
0.182068 0.457092 0.254425
0.194763 0.465729 0.261414
0.205688 0.475616 0.266510
0.214935 0.486298 0.271851
0.225311 0.496643 0.276154
0.234192 0.508057 0.278717
0.248352 0.517059 0.279724
0.267059 0.523621 0.281494
0.285950 0.529846 0.284546
0.318085 0.528992 0.289246
0.348694 0.530487 0.285706
0.381256 0.531708 0.278320
0.415802 0.532104 0.270355
0.456696 0.527435 0.271759
0.496613 0.526367 0.256561
0.535339 0.524841 0.247162
0.572449 0.522491 0.246460
0.608765 0.519318 0.252411
0.642792 0.516693 0.261414
0.675690 0.514252 0.272766
0.702881 0.514130 0.287567
0.722168 0.517761 0.303589
0.740479 0.520874 0.324921
0.754883 0.527191 0.339569
0.766449 0.533844 0.360260
0.776611 0.540436 0.385101
0.791656 0.546387 0.400146
0.789795 0.559845 0.421051
0.789185 0.572876 0.440674
0.789337 0.585663 0.459534
0.783905 0.602264 0.473358
0.213959 0.457825 0.248352
0.224243 0.468140 0.253082
0.233917 0.477783 0.262726
0.246490 0.486816 0.268097
0.256714 0.497070 0.273010
0.264893 0.507629 0.282349
0.273468 0.518738 0.287354
0.287994 0.526428 0.294434
0.308014 0.531647 0.299652
0.329132 0.536591 0.303589
0.356293 0.539612 0.301147
0.381104 0.543152 0.302673
0.405762 0.548065 0.296967
0.432648 0.552216 0.289215
0.461975 0.553711 0.289185
0.497803 0.551208 0.292755
0.534515 0.550323 0.285828
0.570465 0.548706 0.284180
0.605988 0.546906 0.285034
0.638702 0.545715 0.290192
0.670380 0.542847 0.307068
0.692688 0.544922 0.322937
0.703491 0.553101 0.337555
0.721405 0.558472 0.347839
0.742645 0.559967 0.369843
0.755859 0.565979 0.390015
0.765564 0.572662 0.415558
0.776917 0.579468 0.436005
0.784515 0.588593 0.454224
0.783234 0.603119 0.467865
0.784088 0.615112 0.489227
0.782440 0.627106 0.517181
0.258240 0.464935 0.262665
0.271240 0.474121 0.265778
0.281525 0.484436 0.270508
0.290588 0.494751 0.278320
0.302277 0.504272 0.283264
0.312683 0.513184 0.295197
0.325470 0.521393 0.304077
0.335815 0.531494 0.309753
0.352325 0.537628 0.319672
0.369995 0.543915 0.325958
0.392731 0.548340 0.328339
0.413574 0.554749 0.324890
0.435211 0.560059 0.325287
0.457428 0.566101 0.320435
0.481934 0.569611 0.322571
0.506653 0.573700 0.321350
0.534393 0.575623 0.323242
0.567230 0.575317 0.323456
0.601227 0.574158 0.324829
0.632751 0.573914 0.328247
0.662262 0.573853 0.336151
0.688232 0.573486 0.355011
0.697601 0.582489 0.369354
0.718384 0.585815 0.382782
0.732147 0.591980 0.399963
0.750092 0.595642 0.419312
0.761841 0.601837 0.442169
0.775696 0.607086 0.464020
0.781982 0.617554 0.478638
0.783356 0.630798 0.492157
0.785828 0.643250 0.506500
0.789185 0.651672 0.540222
0.303162 0.471405 0.278229
0.317444 0.479614 0.283417
0.328583 0.488983 0.290771
0.341492 0.498077 0.294800
0.349518 0.509155 0.301300
0.361450 0.516907 0.315125
0.375793 0.524658 0.322388
0.388733 0.532806 0.331299
0.401245 0.541534 0.338501
0.411255 0.551025 0.348267
0.426483 0.558807 0.352966
0.442963 0.566162 0.356323
0.461304 0.573029 0.357452
0.483765 0.577759 0.359161
0.505188 0.582489 0.363159
0.526031 0.588531 0.361969
0.546967 0.594269 0.362152
0.570312 0.598633 0.362946
0.602692 0.597595 0.368011
0.630493 0.598846 0.373566
0.654907 0.601898 0.378387
0.680756 0.603455 0.388031
0.697998 0.608459 0.402008
0.719940 0.610901 0.416992
0.734344 0.616699 0.434662
0.747345 0.623230 0.451965
0.758972 0.630829 0.467621
0.775055 0.635284 0.487793
0.785431 0.643005 0.505859
0.790344 0.654968 0.516357
0.789490 0.669708 0.527649
0.798676 0.676331 0.554779
0.348236 0.479645 0.284210
0.361420 0.487274 0.295258
0.372009 0.495850 0.308258
0.384369 0.504028 0.318726
0.401550 0.510712 0.323883
0.408478 0.520691 0.339905
0.420197 0.530487 0.343292
0.431274 0.540192 0.348785
0.441772 0.549438 0.358673
0.455353 0.556946 0.369202
0.462616 0.568970 0.372925
0.472900 0.578766 0.380188
0.487183 0.586243 0.389282
0.506378 0.591003 0.399353
0.524872 0.597351 0.402649
0.543915 0.604248 0.401733
0.563751 0.610291 0.403473
0.585724 0.614563 0.408478
0.618134 0.613556 0.413574
0.640778 0.616730 0.422577
0.658203 0.623291 0.427948
0.674927 0.630280 0.432800
0.696350 0.633972 0.442474
0.715973 0.638428 0.452972
0.730774 0.644653 0.467285
0.745758 0.650635 0.482513
0.761108 0.656616 0.496490
0.766205 0.667786 0.510681
0.780182 0.672272 0.536407
0.792236 0.679291 0.553802
0.800354 0.689423 0.565186
0.803345 0.701508 0.580322
0.397461 0.483368 0.303101
0.401581 0.493530 0.325409
0.415955 0.502350 0.326904
0.424805 0.512970 0.333710
0.432953 0.523407 0.343384
0.442810 0.530731 0.365143
0.452576 0.540985 0.371368
0.463165 0.550842 0.377655
0.472870 0.560516 0.387329
0.483368 0.569763 0.397217
0.501648 0.576172 0.400848
0.517487 0.582367 0.412598
0.530731 0.590302 0.421692
0.542175 0.600006 0.426575
0.552521 0.609833 0.433380
0.571564 0.616730 0.432434
0.592041 0.622009 0.436188
0.611542 0.627228 0.443420
0.627319 0.634888 0.447021
0.650574 0.638672 0.451324
0.669952 0.643646 0.459717
0.686279 0.650360 0.467194
0.703430 0.656250 0.476868
0.717010 0.663757 0.487427
0.735291 0.669128 0.496613
0.752411 0.674255 0.510437
0.769379 0.679321 0.524841
0.778503 0.689178 0.535095
0.787994 0.696808 0.556396
0.798859 0.704102 0.575836
0.809082 0.712555 0.590607
0.819275 0.720459 0.608398
0.427307 0.494995 0.332184
0.444183 0.499695 0.349060
0.446472 0.512360 0.363098
0.462219 0.520294 0.365570
0.470276 0.531097 0.373505
0.474731 0.543915 0.380585
0.484039 0.552704 0.395996
0.493988 0.562683 0.403168
0.503662 0.572357 0.412842
0.513336 0.582031 0.422516
0.531464 0.588531 0.426117
0.548126 0.595062 0.433655
0.561066 0.602448 0.446716
0.568726 0.613892 0.452606
0.585175 0.620209 0.461975
0.594299 0.628845 0.478699
0.613464 0.635864 0.476593
0.630951 0.642334 0.482178
0.639008 0.653931 0.486053
0.657410 0.659943 0.491577
0.679413 0.663727 0.499146
0.697296 0.669708 0.506531
0.713379 0.676575 0.513885
0.729980 0.682770 0.523132
0.743561 0.690308 0.533691
0.757660 0.697815 0.542877
0.773712 0.703644 0.555756
0.788177 0.710999 0.564880
0.798737 0.718903 0.581543
0.810699 0.726074 0.598572
0.819458 0.735596 0.611481
0.828918 0.744537 0.625610
0.456573 0.506775 0.362213
0.472565 0.512939 0.373535
0.483551 0.521606 0.385010
0.488007 0.534424 0.392242
0.504913 0.540588 0.400909
0.510162 0.553925 0.403137
0.518158 0.564453 0.412903
0.527222 0.573517 0.427521
0.537903 0.582672 0.437439
0.548401 0.591888 0.447296
0.559692 0.601318 0.453827
0.574524 0.608826 0.460938
0.587982 0.616577 0.470581
0.593018 0.628693 0.479919
0.610626 0.634552 0.488434
0.625702 0.640869 0.501465
0.637909 0.648376 0.516052
0.653809 0.656586 0.516418
0.657959 0.669830 0.522095
0.671387 0.678467 0.527161
0.689026 0.684326 0.535431
0.707458 0.689636 0.544769
0.723358 0.697052 0.549561
0.741486 0.703033 0.556030
0.756134 0.710083 0.566132
0.770447 0.716919 0.578796
0.780853 0.726349 0.587708
0.797668 0.732758 0.595398
0.809814 0.740723 0.607513
0.818726 0.750427 0.618988
0.831360 0.757874 0.632507
0.838043 0.769104 0.642242
0.490967 0.516876 0.387482
0.500916 0.526855 0.394897
0.510010 0.536957 0.403625
0.519531 0.547241 0.410614
0.529388 0.557861 0.414764
0.543213 0.565216 0.425568
0.552521 0.575043 0.435394
0.562195 0.584198 0.447815
0.572449 0.592957 0.460876
0.586029 0.600464 0.471405
0.591125 0.612488 0.481171
0.598938 0.623352 0.489502
0.610840 0.631836 0.499512
0.620850 0.641327 0.509277
0.635040 0.649475 0.514893
0.650726 0.656311 0.523468
0.665894 0.663361 0.532043
0.680756 0.670380 0.541840
0.684418 0.683167 0.551605
0.694092 0.693573 0.557220
0.708160 0.701447 0.564728
0.722321 0.709045 0.573303
0.734039 0.717834 0.582123
0.751434 0.724609 0.586212
0.765961 0.732056 0.594696
0.779327 0.739471 0.606415
0.795135 0.745178 0.620697
0.809387 0.753357 0.625824
0.821136 0.762177 0.634308
0.831146 0.771942 0.643036
0.836884 0.784149 0.649658
0.848022 0.792236 0.663818
0.516357 0.533173 0.403778
0.526001 0.542847 0.413422
0.532990 0.554108 0.422180
0.541168 0.565063 0.429199
0.552368 0.574738 0.434723
0.571320 0.578522 0.450623
0.576843 0.590240 0.460693
0.585266 0.600067 0.472809
0.596924 0.608307 0.484833
0.611115 0.616455 0.490448
0.620941 0.626007 0.500122
0.626282 0.638550 0.506226
0.635559 0.648590 0.515137
0.649811 0.655121 0.529144
0.663452 0.662689 0.539734
0.673737 0.671722 0.551025
