content/luts/vintage/vintage_11.cube
#Created by: Adobe Photoshop Export Color Lookup Plugin
#Copyright: (C) Copyright 2022 inPixio
TITLE "Retro Vintage 11"
#LUT size
LUT_3D_SIZE 32
#data domain
DOMAIN_MIN 0.0 0.0 0.0
DOMAIN_MAX 1.0 1.0 1.0
#LUT data points
0.000000 0.000000 0.000000
0.024994 0.000031 0.019836
0.052429 0.000031 0.032867
0.080994 0.000031 0.042908
0.109497 0.000031 0.053284
0.138306 0.001190 0.056091
0.171539 0.000031 0.059967
0.202240 0.000031 0.064331
0.232880 0.000031 0.068848
0.263794 0.000031 0.072479
0.292480 0.000031 0.082031
0.320984 0.000031 0.092316
0.349457 0.000031 0.102570
0.378052 0.000031 0.112549
0.406647 0.000031 0.122437
0.435120 0.000031 0.132965
0.463806 0.000031 0.142822
0.492676 0.000031 0.152069
0.521362 0.000031 0.161774
0.549591 0.000031 0.172638
0.580109 0.000031 0.177429
0.611450 0.000031 0.179962
0.641632 0.000031 0.185638
0.673859 0.000031 0.185760
0.706665 0.000031 0.184265
0.740082 0.000031 0.180908
0.774414 0.000031 0.175446
0.785217 0.011658 0.171539
0.762482 0.039001 0.174622
0.737457 0.067383 0.178711
0.708557 0.097565 0.183685
0.672333 0.131165 0.189972
0.042938 0.003723 0.035980
0.056183 0.010925 0.049255
0.079926 0.014771 0.051819
0.098419 0.021271 0.054535
0.115692 0.027893 0.059662
0.152649 0.024628 0.064362
0.187073 0.022125 0.071960
0.220673 0.020447 0.077362
0.255432 0.018250 0.082123
0.287384 0.017548 0.086761
0.319092 0.015991 0.096954
0.354675 0.013275 0.102325
0.390320 0.010071 0.110382
0.428894 0.004974 0.120483
0.467316 0.000031 0.130127
0.496155 0.000031 0.139526
0.524414 0.000031 0.150452
0.552795 0.000031 0.161041
0.581207 0.000031 0.171631
0.612000 0.000031 0.175598
0.641907 0.000031 0.182098
0.672821 0.000031 0.185699
0.703003 0.000031 0.191406
0.735901 0.000031 0.189606
0.769135 0.000031 0.187012
0.802551 0.000031 0.183716
0.815704 0.009766 0.183319
0.796051 0.034637 0.191498
0.775177 0.061218 0.193787
0.755005 0.086945 0.198792
0.728760 0.115601 0.204773
0.691040 0.149872 0.211731
0.063568 0.022186 0.053558
0.066193 0.035950 0.060486
0.088257 0.039032 0.071808
0.116791 0.040741 0.072998
0.133759 0.048004 0.075836
0.164093 0.048218 0.079834
0.199432 0.045746 0.084717
0.230011 0.045044 0.092865
0.261749 0.044189 0.098846
0.294983 0.042633 0.104736
0.328705 0.040802 0.110474
0.363678 0.038330 0.116119
0.399292 0.035614 0.121765
0.435638 0.031738 0.131287
0.473511 0.027863 0.136902
0.511597 0.023041 0.147003
0.549713 0.018616 0.154755
0.590820 0.012543 0.163086
0.626953 0.009216 0.170410
0.669891 0.003204 0.173370
0.705994 0.000610 0.176819
0.734955 0.001495 0.181000
0.764313 0.002014 0.186310
0.788879 0.005341 0.189636
0.809082 0.011108 0.191376
0.822449 0.020660 0.191833
0.826569 0.034424 0.194702
0.812561 0.056091 0.204468
0.789551 0.083405 0.208649
0.765625 0.111603 0.210785
0.742767 0.138092 0.218811
0.707428 0.170563 0.229004
0.082947 0.041077 0.072449
0.081818 0.056915 0.078674
0.098175 0.063873 0.084747
0.122192 0.066162 0.094879
0.152863 0.066467 0.097443
0.179382 0.069061 0.099182
0.210724 0.069061 0.101685
0.241394 0.068604 0.108582
0.268555 0.069946 0.115234
0.302124 0.068115 0.121490
0.336639 0.066162 0.125763
0.370056 0.064941 0.129333
0.406433 0.061829 0.134583
0.440765 0.059113 0.143494
0.478119 0.056000 0.146454
0.516052 0.052032 0.151978
0.555237 0.047180 0.159515
0.593445 0.042999 0.165588
0.627136 0.041534 0.169586
0.666656 0.037018 0.173920
0.705627 0.032623 0.179230
0.738831 0.031433 0.183105
0.767395 0.032532 0.187225
0.792389 0.035156 0.192902
0.812317 0.040649 0.196899
0.827698 0.048431 0.201385
0.831299 0.062164 0.206024
0.822296 0.081268 0.215973
0.805939 0.104614 0.223267
0.779968 0.133270 0.228394
0.753387 0.162231 0.233582
0.722473 0.191681 0.247833
0.100098 0.061249 0.090729
0.100342 0.075562 0.101227
0.115173 0.083435 0.106567
0.136780 0.087585 0.113251
0.158752 0.091309 0.121185
0.190002 0.092224 0.119049
0.220245 0.093231 0.119171
0.250671 0.093414 0.123138
0.279175 0.093842 0.131165
0.309753 0.094055 0.134430
0.343597 0.092499 0.138794
0.375488 0.092010 0.142365
0.408325 0.090668 0.147858
0.444672 0.087067 0.156128
0.483490 0.083252 0.158508
0.522369 0.079651 0.159851
0.560822 0.075928 0.162964
0.600555 0.071381 0.167023
0.631165 0.071625 0.170288
0.664520 0.069824 0.177094
0.699615 0.066956 0.184479
0.733948 0.064514 0.191895
0.764404 0.064819 0.195129
0.790771 0.066925 0.200012
0.811646 0.071869 0.204559
0.827423 0.079285 0.209717
0.836517 0.089783 0.216522
0.825928 0.109558 0.227203
0.814392 0.129883 0.237671
0.794403 0.154694 0.247040
0.767181 0.183258 0.256134
0.738159 0.211914 0.269592
0.118652 0.082855 0.097137
0.122711 0.092987 0.119446
0.133514 0.102783 0.125427
0.150696 0.109314 0.131958
0.169647 0.114349 0.141174
0.193054 0.119568 0.137268
0.219025 0.122742 0.137421
0.251617 0.122742 0.136505
0.285645 0.121582 0.137634
0.316254 0.121826 0.140930
0.346527 0.121735 0.146790
0.377716 0.121552 0.150635
0.411011 0.119934 0.156616
0.448669 0.115356 0.166199
0.489258 0.110413 0.170349
0.528900 0.107391 0.166351
0.563934 0.105988 0.166443
0.598236 0.104248 0.170013
0.637970 0.099701 0.174072
0.667938 0.099304 0.182312
0.701447 0.097626 0.187836
0.735352 0.095642 0.193939
0.766998 0.094757 0.200775
0.793671 0.097137 0.203156
0.816620 0.100342 0.211426
0.834076 0.106171 0.220428
0.844391 0.115479 0.230225
0.839600 0.132324 0.240875
0.822174 0.155884 0.250000
0.803833 0.179810 0.259766
0.782593 0.205261 0.269012
0.762421 0.230103 0.278687
0.132019 0.104309 0.118591
0.141327 0.114624 0.125885
0.153625 0.122253 0.139221
0.167480 0.130920 0.142944
0.183014 0.138123 0.150024
0.202972 0.144135 0.151245
0.227600 0.148041 0.151062
0.256592 0.149200 0.154114
0.289795 0.148499 0.155182
0.318115 0.149994 0.157959
0.352203 0.148651 0.160034
0.386688 0.146729 0.164185
0.419342 0.146362 0.165070
0.454987 0.143921 0.168976
0.492340 0.140289 0.174438
0.528656 0.138275 0.174316
0.564911 0.136810 0.171478
0.598541 0.135895 0.172577
0.639496 0.131317 0.173309
0.674133 0.129272 0.177856
0.704041 0.128845 0.186523
0.735382 0.128021 0.193451
0.764862 0.127777 0.202179
0.787659 0.131073 0.210266
0.810638 0.134338 0.218079
0.829620 0.139313 0.227722
0.841400 0.147888 0.237854
0.838257 0.164001 0.247864
0.822510 0.185577 0.263000
0.802887 0.210205 0.272461
0.780945 0.236481 0.279114
0.758850 0.263458 0.282684
0.147980 0.124451 0.140137
0.156799 0.134918 0.147797
0.167450 0.145691 0.149109
0.186157 0.150208 0.161743
0.199005 0.159302 0.165863
0.212036 0.169006 0.166229
0.239563 0.170227 0.172638
0.259033 0.176697 0.172760
0.293274 0.175232 0.175110
0.323761 0.176147 0.175140
0.354797 0.176178 0.178070
0.389099 0.175323 0.177338
0.426117 0.172852 0.177551
0.460205 0.172546 0.174194
0.495178 0.170837 0.176025
0.530426 0.169006 0.177734
0.565796 0.167908 0.175140
0.599182 0.167145 0.176147
0.638031 0.163513 0.177551
0.669861 0.163055 0.181274
0.703979 0.161285 0.185822
0.735229 0.160126 0.194824
0.764099 0.160034 0.204315
0.786926 0.163147 0.213501
0.808685 0.166687 0.223114
0.829163 0.170349 0.235626
0.841766 0.178406 0.245972
0.838562 0.194550 0.256012
0.824646 0.215790 0.267914
0.805084 0.239258 0.283264
0.783661 0.265106 0.291290
0.758759 0.294128 0.291473
0.166992 0.143463 0.159149
0.174286 0.154541 0.167938
0.184082 0.165100 0.172302
0.195099 0.175873 0.172943
0.217834 0.177734 0.188873
0.225189 0.190796 0.186737
0.249298 0.193878 0.192383
0.273346 0.197052 0.197693
0.292236 0.203827 0.197632
0.332031 0.201080 0.191864
0.361664 0.201996 0.194031
0.392883 0.202606 0.193634
0.426331 0.202667 0.189911
0.463654 0.201019 0.184967
0.497101 0.201080 0.181488
0.531799 0.200012 0.180664
0.565887 0.199127 0.180542
0.601196 0.197998 0.178284
0.635345 0.195740 0.184998
0.666321 0.195618 0.189148
0.697601 0.195374 0.193115
0.729858 0.194214 0.199280
0.763214 0.191895 0.208862
0.786682 0.194763 0.217773
0.808960 0.198059 0.227173
0.829437 0.201721 0.239685
0.844818 0.207489 0.254547
0.840485 0.224152 0.265137
0.829010 0.244202 0.276825
0.811584 0.266968 0.290009
0.790161 0.292114 0.301605
0.766357 0.319946 0.305145
0.186035 0.162506 0.178192
0.192474 0.175018 0.181610
0.204010 0.183899 0.190338
0.214722 0.193970 0.195099
0.224304 0.205444 0.195343
0.246063 0.208984 0.204956
0.264709 0.215637 0.206512
0.285065 0.221313 0.208557
0.308044 0.225677 0.210388
0.338959 0.226257 0.210938
0.370575 0.227020 0.208679
0.401733 0.227905 0.206787
0.433197 0.228912 0.203613
0.465240 0.229950 0.198730
0.498932 0.230255 0.192963
0.534058 0.229584 0.188721
0.567291 0.229401 0.187286
0.599182 0.229370 0.188385
0.633698 0.227478 0.192566
0.670135 0.224701 0.196014
0.702637 0.223938 0.199280
0.731750 0.224457 0.204987
0.757599 0.225769 0.215424
0.779358 0.229340 0.225037
0.801208 0.232819 0.234619
0.821686 0.236481 0.247101
0.837097 0.242249 0.261993
0.834717 0.258118 0.271790
0.827911 0.274963 0.287872
0.814484 0.295197 0.304047
0.795746 0.318817 0.316162
0.774017 0.345795 0.318848
0.205719 0.182190 0.192047
0.212158 0.194702 0.195465
0.217072 0.207855 0.199493
0.226685 0.217712 0.208099
0.235077 0.228882 0.213440
0.243774 0.239594 0.220123
0.266083 0.243713 0.225250
0.287323 0.248749 0.228241
0.310822 0.252777 0.230499
0.340485 0.254211 0.229797
0.369263 0.258453 0.216583
0.400330 0.259155 0.216278
0.430939 0.260529 0.213226
0.461853 0.262360 0.207214
0.497406 0.261871 0.200653
0.528046 0.263916 0.194214
0.564758 0.262634 0.188904
0.598816 0.262054 0.186920
0.627472 0.263367 0.189758
0.666931 0.258057 0.198853
0.701050 0.256256 0.203522
0.731995 0.255829 0.209167
0.760193 0.256195 0.218506
0.781952 0.259735 0.228119
0.800018 0.264130 0.243134
0.817963 0.269318 0.254272
0.831573 0.276337 0.267365
0.828369 0.291351 0.283508
0.826935 0.305511 0.299561
0.815552 0.324707 0.315491
0.797516 0.347656 0.329712
0.775208 0.373932 0.337769
0.219238 0.205811 0.201508
0.219757 0.220490 0.209106
0.232269 0.229126 0.216705
0.238251 0.241669 0.221405
0.248108 0.251526 0.229401
0.258636 0.261536 0.234985
0.275269 0.268066 0.242523
0.297089 0.273315 0.242828
0.319275 0.277679 0.246796
0.345490 0.280365 0.248993
0.376343 0.282745 0.239868
0.400818 0.288971 0.227875
0.431549 0.290497 0.223724
0.461548 0.293182 0.215515
0.493866 0.294373 0.208862
0.523346 0.296631 0.204681
0.558685 0.295532 0.202057
0.597321 0.293060 0.198059
0.627075 0.294342 0.197968
0.657257 0.294922 0.200317
0.691833 0.291534 0.212128
0.722046 0.291412 0.218445
0.750702 0.291626 0.226990
0.778503 0.291718 0.238861
0.803894 0.293304 0.249054
0.815338 0.300964 0.264679
0.827026 0.309235 0.276489
0.827698 0.322052 0.293854
0.822327 0.338318 0.309113
0.817749 0.354218 0.324493
0.804382 0.374512 0.339844
0.785980 0.397888 0.352600
0.228333 0.231232 0.213287
0.229126 0.245697 0.221649
0.237274 0.256134 0.231354
0.248413 0.265472 0.238800
0.257416 0.276398 0.243622
0.271759 0.284668 0.248108
0.287109 0.292267 0.253204
0.305817 0.298340 0.257996
0.327393 0.303986 0.256805
0.349518 0.307892 0.263367
0.380798 0.309326 0.258484
0.409119 0.312836 0.250244
0.433655 0.318817 0.239105
0.463654 0.322235 0.227112
0.491882 0.325775 0.218903
0.521332 0.328033 0.214447
0.551483 0.330078 0.209656
0.591400 0.325714 0.212006
0.625275 0.325165 0.210449
0.654816 0.326263 0.211914
0.684265 0.326874 0.216309
0.715179 0.325409 0.228027
0.741058 0.327118 0.236176
0.768280 0.327026 0.250244
0.795135 0.327301 0.263428
0.815613 0.331207 0.274811
0.820862 0.342041 0.290161
0.825928 0.352570 0.308044
0.821899 0.368256 0.322968
0.812653 0.386688 0.337250
0.803894 0.404877 0.351501
0.792480 0.424103 0.367432
0.235199 0.256805 0.230499
0.241333 0.268799 0.237427
0.249939 0.279144 0.246521
0.256622 0.290649 0.254486
0.261780 0.303772 0.257843
0.276398 0.312286 0.260315
0.289337 0.321960 0.261139
0.305634 0.329773 0.262634
0.324585 0.335846 0.266388
0.347015 0.340057 0.270630
0.377899 0.341095 0.268738
0.408661 0.342773 0.264099
0.438263 0.345673 0.255859
0.466248 0.349854 0.244873
0.490692 0.356079 0.232880
0.520264 0.358612 0.226532
0.551483 0.360413 0.219757
0.583130 0.361969 0.212830
0.619446 0.358826 0.218811
0.651672 0.357910 0.223969
0.682892 0.357635 0.228363
0.713348 0.357452 0.234009
0.742645 0.357330 0.242706
0.761505 0.361237 0.258392
0.783081 0.363586 0.274902
0.801514 0.367737 0.290314
0.813812 0.375214 0.304626
0.820038 0.384460 0.326019
0.819000 0.398468 0.341553
0.810181 0.416504 0.356781
0.797852 0.436554 0.370789
0.784882 0.456970 0.385132
0.240875 0.286774 0.227081
0.247772 0.296692 0.243073
0.255981 0.306458 0.256378
0.259491 0.318787 0.268463
0.258575 0.334351 0.275787
0.268341 0.346771 0.270477
0.279968 0.357361 0.269958
0.298065 0.364990 0.267700
0.318634 0.370850 0.268036
0.335724 0.377350 0.274506
0.366608 0.378387 0.272644
0.400482 0.377838 0.271088
0.433441 0.378540 0.265350
0.464203 0.381226 0.254974
0.488342 0.387115 0.245697
0.513672 0.391846 0.239441
0.544586 0.393524 0.234131
0.578766 0.393646 0.228180
0.617767 0.390564 0.226227
0.644958 0.392181 0.231415
0.674774 0.392029 0.238708
0.705231 0.391113 0.248688
0.735413 0.389526 0.262787
0.751129 0.396149 0.272430
0.769958 0.400055 0.288116
0.786987 0.404816 0.304260
0.799255 0.412018 0.319916
0.807739 0.420746 0.338013
0.815125 0.431152 0.349976
0.809113 0.447296 0.367859
0.799103 0.465637 0.384674
0.792786 0.483093 0.396088
0.239960 0.317383 0.238708
0.242584 0.330231 0.250397
0.245667 0.342773 0.262604
0.256653 0.352264 0.269806
0.259796 0.366058 0.275238
0.261383 0.380798 0.279846
0.270203 0.392517 0.280823
0.287567 0.400024 0.281128
0.311157 0.404633 0.280396
0.331787 0.409576 0.285339
0.356506 0.414429 0.280090
0.383728 0.417358 0.277985
0.418579 0.416534 0.275238
0.452911 0.416962 0.267334
0.481262 0.420654 0.257996
0.510406 0.424377 0.246521
0.535675 0.428375 0.244446
0.567444 0.429016 0.242432
0.605225 0.426056 0.243011
0.637421 0.425262 0.247406
0.662659 0.428101 0.251373
0.692291 0.427856 0.259766
0.723236 0.426056 0.273132
0.742981 0.429871 0.286804
0.765167 0.431549 0.305176
0.781403 0.436432 0.322571
0.792328 0.444305 0.338562
0.796570 0.456116 0.351898
0.798431 0.467834 0.371948
0.798340 0.481415 0.387299
0.788727 0.499420 0.404785
0.782257 0.517212 0.415009
0.233337 0.350250 0.253357
0.242310 0.360718 0.260773
0.243256 0.375336 0.267792
0.245636 0.388611 0.278046
0.258820 0.398499 0.276917
0.259766 0.413086 0.284302
0.268280 0.424164 0.289795
0.278290 0.434814 0.293121
0.299194 0.440521 0.293518
0.321411 0.445282 0.295227
0.345764 0.449799 0.292664
0.377808 0.450928 0.287231
0.405243 0.453735 0.285095
0.441559 0.452484 0.280823
0.472198 0.454498 0.274475
0.497833 0.458893 0.268890
0.533325 0.459442 0.257294
0.558563 0.462830 0.258270
0.592316 0.461517 0.261261
0.626099 0.459900 0.265717
0.655212 0.460175 0.272797
0.680145 0.462830 0.278503
0.710571 0.461761 0.289215
0.733490 0.463654 0.304657
0.752930 0.466431 0.324860
0.770386 0.470734 0.342072
0.783264 0.477264 0.359863
0.789276 0.488342 0.371948
0.791565 0.499756 0.392487
0.790009 0.514099 0.407837
0.785065 0.529541 0.426331
0.777679 0.547577 0.437775
0.225952 0.383972 0.265808
0.240967 0.391754 0.271210
0.246826 0.404449 0.275024
0.249817 0.418182 0.281067
0.253754 0.430847 0.290314
0.260162 0.443329 0.293945
0.269318 0.454163 0.298798
0.279205 0.464569 0.303894
0.290222 0.474670 0.307678
0.305481 0.483887 0.304749
0.331268 0.487122 0.305206
0.363953 0.487579 0.301361
0.400543 0.486206 0.296967
0.431793 0.487122 0.294830
0.463043 0.488007 0.292694
0.488373 0.491821 0.291046
0.517578 0.494049 0.287598
0.556274 0.492767 0.277222
0.582947 0.495148 0.279602
0.616089 0.493500 0.286041
0.647095 0.493164 0.291138
0.673553 0.493927 0.302917
0.699127 0.495331 0.313416
0.723907 0.496338 0.328583
0.742462 0.499725 0.347534
0.756561 0.505341 0.366943
0.767212 0.513977 0.379639
0.782349 0.519867 0.394623
0.787384 0.529724 0.416229
0.789337 0.542297 0.431610
0.787750 0.557007 0.444824
0.784332 0.571808 0.462646
0.230316 0.412628 0.273193
0.240021 0.422333 0.282898
0.246460 0.434448 0.288330
0.252655 0.446472 0.294800
0.261383 0.456696 0.304016
0.267487 0.468872 0.310120
0.270599 0.483124 0.312988
0.274872 0.496643 0.316742
0.281738 0.508820 0.320831
0.294312 0.518219 0.323914
0.324585 0.519165 0.324341
0.354248 0.521240 0.320099
0.385406 0.522705 0.315216
0.416718 0.523651 0.313141
0.447968 0.524536 0.311005
0.479492 0.525696 0.306702
0.510956 0.526520 0.304474
0.544403 0.526428 0.301758
0.576324 0.528015 0.294220
0.606995 0.526031 0.308960
0.638458 0.525757 0.312592
0.666565 0.526794 0.318695
0.689392 0.528137 0.337097
0.712952 0.530426 0.348511
0.731842 0.534637 0.362335
0.747681 0.539703 0.380066
0.762115 0.545288 0.398804
0.779266 0.550293 0.412933
0.782959 0.560699 0.435089
0.787109 0.571930 0.451385
0.790894 0.583679 0.466156
0.792389 0.595062 0.488922
0.234406 0.440979 0.283112
0.240479 0.452637 0.291962
0.250610 0.462769 0.297821
0.258423 0.473999 0.304352
0.268097 0.483673 0.314026
0.277039 0.493866 0.322937
0.283417 0.506317 0.326782
0.291656 0.517944 0.329834
0.300354 0.528931 0.335144
0.310974 0.538544 0.342743
0.329010 0.546875 0.336853
0.354279 0.549866 0.339844
0.379181 0.554260 0.336304
0.405182 0.558167 0.332214
0.436462 0.559082 0.330109
0.475342 0.555573 0.330780
0.509033 0.555450 0.327606
0.541199 0.555511 0.327667
0.570435 0.556519 0.330322
0.598175 0.559448 0.326935
0.629211 0.557129 0.342834
0.657959 0.557648 0.349548
0.681122 0.559814 0.362610
0.700653 0.563416 0.377960
0.721008 0.567078 0.390717
0.734833 0.573822 0.405212
0.746704 0.580750 0.423645
0.761536 0.585724 0.444550
0.780548 0.589935 0.457855
0.781555 0.602570 0.475433
0.783630 0.614655 0.492828
0.785187 0.625305 0.519409
0.247528 0.465118 0.290924
0.253265 0.476929 0.299683
0.264313 0.485931 0.309204
0.271881 0.497284 0.315765
0.280609 0.507568 0.324646
0.291718 0.517120 0.331177
0.302246 0.527039 0.337280
0.311218 0.537140 0.346497
0.324982 0.545624 0.351440
0.337891 0.553955 0.359772
0.353302 0.562561 0.359528
0.366608 0.572052 0.360168
0.388489 0.576874 0.362701
0.410339 0.582794 0.359253
0.438934 0.584290 0.361023
0.469360 0.585632 0.358948
0.503326 0.584656 0.359497
0.534454 0.585449 0.358490
0.561859 0.586792 0.364655
0.597046 0.586029 0.360748
0.620911 0.589386 0.365631
0.652039 0.587128 0.380554
0.678009 0.588470 0.390625
0.698608 0.592102 0.402832
0.717621 0.595917 0.418427
0.731903 0.601990 0.434998
0.741852 0.610443 0.450531
0.756500 0.615967 0.468719
0.771179 0.621887 0.484894
0.778107 0.631378 0.503479
0.781158 0.643402 0.518555
0.786346 0.652618 0.542938
0.270996 0.483490 0.301208
0.278290 0.494873 0.308533
0.284973 0.506104 0.317993
0.299744 0.513031 0.328461
0.304138 0.525391 0.338165
0.316010 0.534851 0.342834
0.327393 0.544189 0.349640
0.336578 0.554413 0.357697
0.348846 0.562134 0.370728
0.366852 0.568237 0.377075
0.380859 0.576935 0.379974
0.395355 0.585358 0.383362
0.409943 0.593231 0.389191
0.431061 0.598938 0.389313
0.456421 0.601501 0.394165
0.479401 0.606293 0.393768
0.503052 0.610718 0.393646
0.531921 0.612732 0.391998
0.559448 0.614471 0.395599
0.593597 0.613708 0.394348
0.622803 0.614594 0.397888
0.645538 0.618073 0.405426
0.676575 0.616211 0.418762
0.698639 0.619202 0.430481
0.717010 0.623657 0.444519
0.734741 0.628113 0.460114
0.742218 0.637085 0.479736
0.755493 0.644318 0.492523
0.770782 0.650085 0.508026
0.778625 0.659241 0.525269
0.780334 0.670776 0.546814
0.793121 0.677643 0.562897
0.303955 0.495605 0.319397
0.314636 0.505768 0.323608
0.317871 0.519135 0.331146
0.325287 0.529968 0.340851
0.344086 0.534821 0.351288
0.353790 0.544525 0.360992
0.363251 0.554382 0.370453
0.370239 0.565674 0.378723
0.376892 0.577271 0.386261
0.392609 0.583862 0.395905
0.405121 0.593231 0.399567
0.421509 0.600647 0.403168
0.440735 0.606201 0.408844
0.462372 0.609863 0.417969
0.484802 0.614105 0.422180
0.501617 0.621796 0.423065
0.517212 0.629913 0.425110
0.537109 0.635742 0.427521
0.572937 0.635162 0.420898
0.600159 0.636963 0.424927
0.624878 0.639435 0.432098
0.648743 0.642426 0.438995
0.673157 0.645721 0.442810
0.696045 0.647339 0.459595
0.713165 0.652191 0.474823
0.729797 0.657562 0.488922
0.746979 0.662720 0.502319
0.749939 0.674805 0.517426
0.766510 0.679749 0.533508
0.779907 0.686432 0.549042
0.789337 0.695099 0.564911
0.799805 0.702515 0.584503
0.330841 0.510345 0.340210
0.349335 0.516693 0.343506
0.359558 0.526398 0.351593
0.364838 0.537994 0.362946
0.375366 0.546631 0.375732
0.394196 0.551544 0.386200
0.399384 0.564331 0.391418
0.410217 0.573792 0.398956
0.420685 0.583496 0.406403
0.431915 0.592834 0.413940
0.442474 0.602997 0.418457
0.456909 0.610626 0.426056
0.471069 0.618317 0.434143
0.484497 0.626190 0.443268
0.503174 0.632477 0.446655
0.525604 0.636688 0.450836
0.542084 0.644043 0.454407
0.558594 0.651184 0.459167
0.583252 0.654602 0.461548
0.612335 0.655609 0.464844
0.636505 0.658905 0.469269
0.657959 0.663422 0.474304
0.678101 0.668884 0.478119
0.699219 0.671753 0.493134
0.718292 0.676422 0.503876
0.731689 0.684021 0.514618
0.745087 0.691589 0.525482
0.760773 0.697784 0.537384
0.770020 0.705505 0.558777
0.785065 0.710938 0.576843
0.796936 0.718658 0.590759
0.807098 0.728027 0.600891
0.371521 0.518372 0.358856
0.382812 0.528931 0.359528
0.397614 0.535889 0.369904
0.406555 0.545837 0.380127
0.413055 0.556641 0.392578
0.426453 0.564362 0.402557
0.439209 0.573029 0.409210
0.444275 0.585571 0.415924
0.456329 0.594116 0.425354
0.467957 0.602692 0.435455
0.485260 0.608612 0.444550
0.496582 0.617889 0.451782
0.510071 0.626190 0.458344
0.520569 0.636169 0.464386
0.536469 0.643982 0.467133
0.550934 0.650635 0.479980
0.570343 0.656372 0.484192
0.584656 0.664459 0.489899
0.601288 0.671112 0.496552
0.617523 0.678986 0.498077
0.645355 0.679504 0.507324
0.668549 0.683350 0.511688
0.688721 0.688965 0.514526
0.706024 0.694489 0.525757
0.720123 0.701782 0.536072
0.736023 0.708313 0.545624
0.748383 0.716370 0.556610
0.766754 0.720825 0.570679
0.777191 0.729401 0.584167
0.790588 0.736206 0.599060
0.802032 0.743866 0.614685
0.808807 0.754791 0.625397
0.414093 0.525665 0.376892
0.421387 0.537384 0.382050
0.431732 0.547089 0.389709
0.443481 0.555298 0.401489
0.451385 0.565765 0.411926
0.461060 0.575409 0.421570
0.471161 0.585785 0.426636
0.484406 0.593964 0.434570
0.492218 0.604797 0.443146
0.505615 0.612122 0.455261
0.519958 0.618622 0.469238
0.536163 0.624969 0.478973
0.545166 0.635468 0.486084
0.555206 0.646301 0.488556
0.567963 0.655243 0.493713
0.582520 0.662323 0.503937
0.595093 0.670105 0.516144
0.610962 0.677521 0.521149
0.623291 0.686035 0.529663
0.638641 0.694183 0.532257
0.652466 0.702301 0.538971
0.680023 0.702545 0.550354
0.703003 0.706787 0.552979
0.717346 0.714569 0.559998
0.729126 0.723206 0.569366
0.742767 0.731018 0.578583
0.756073 0.738739 0.588837
0.772949 0.743988 0.602692
0.788208 0.750397 0.614655
0.795715 0.760925 0.625427
0.812042 0.767273 0.634827
0.817505 0.778290 0.648865
0.451569 0.535309 0.396179
0.457916 0.546722 0.405548
0.466705 0.556763 0.415588
0.475922 0.566498 0.426331
0.485504 0.576080 0.436676
0.495148 0.585724 0.446564
0.503296 0.597412 0.449677
0.515717 0.606293 0.455994
0.529175 0.613922 0.466431
0.543060 0.621765 0.474243
0.553162 0.630096 0.490295
0.565643 0.638031 0.501770
0.578522 0.646088 0.511353
0.583954 0.658844 0.516052
0.594330 0.668182 0.525635
0.606750 0.676453 0.535278
0.620270 0.684387 0.543732
0.632812 0.692780 0.552612
0.646759 0.700653 0.560486
0.663788 0.707550 0.565094
0.677765 0.715454 0.572388
0.690887 0.723511 0.581451
0.718079 0.724274 0.591095
0.730682 0.733490 0.595337
0.742188 0.742676 0.602509
0.753967 0.751312 0.612030
0.769592 0.757812 0.622589
0.781372 0.766571 0.631348
0.799011 0.772064 0.641632
0.810333 0.780884 0.651703
0.817230 0.792175 0.660248
0.835083 0.797882 0.668976
0.479889 0.548431 0.421417
0.490875 0.559448 0.420288
0.501770 0.568939 0.427765
0.511261 0.578308 0.439667
0.518768 0.588074 0.454742
0.527740 0.597076 0.469818
0.533478 0.610413 0.470734
0.544708 0.620117 0.475891
0.557251 0.628082 0.486908
0.561096 0.639801 0.501404
0.576752 0.646454 0.510986
0.588013 0.655823 0.518036
0.600006 0.664398 0.527374
0.612244 0.671967 0.541290
0.630127 0.677673 0.550049
0.635681 0.689453 0.559662
