content/luts/vintage/vintage_10.cube
#Created by: Adobe Photoshop Export Color Lookup Plugin
#Copyright: (C) Copyright 2022 inPixio
TITLE "Retro Vintage 10"
#LUT size
LUT_3D_SIZE 5
#data domain
#LUT data points
DOMAIN_MIN 0.000000 0.000000 0.000000
DOMAIN_MAX 0.903226 0.903226 0.903226
0.000000 0.000000 0.000000
0.176788 0.019928 0.026764
0.325104 0.058319 0.032135
0.487549 0.091217 0.028473
0.665558 0.116272 0.024689
0.107178 0.161194 0.054321
0.235504 0.203247 0.094330
0.374573 0.238953 0.139526
0.558655 0.263641 0.121063
0.753967 0.277557 0.129425
0.006409 0.423615 0.132538
0.163696 0.455505 0.148376
0.396881 0.457092 0.119598
0.605682 0.461090 0.144592
0.779968 0.477234 0.198669
0.000031 0.636963 0.217010
0.033752 0.726868 0.258667
0.356384 0.682037 0.234985
0.596161 0.673584 0.242340
0.794891 0.677277 0.296356
0.292358 0.694519 0.322205
0.379456 0.751862 0.392975
0.504608 0.794312 0.439697
0.657318 0.821136 0.495270
0.807861 0.848358 0.554474
0.053528 0.000031 0.079773
0.191559 0.032684 0.143860
0.329956 0.073639 0.162567
0.481750 0.113129 0.152710
0.671265 0.134766 0.135773
0.162567 0.156738 0.152832
0.251068 0.215149 0.214142
0.382172 0.257324 0.246185
0.565948 0.280182 0.238312
0.757538 0.299469 0.227875
0.095459 0.403076 0.225739
0.220703 0.447144 0.263580
0.421265 0.461487 0.255432
0.609589 0.477509 0.271698
0.799866 0.492218 0.289825
0.020142 0.655548 0.288177
0.160797 0.693024 0.319580
0.398529 0.687622 0.315704
0.621887 0.684875 0.337250
0.805847 0.697937 0.381439
0.347290 0.700623 0.365631
0.425659 0.762268 0.436676
0.541321 0.808014 0.491882
0.687378 0.839447 0.540771
0.828552 0.869293 0.611603
0.051788 0.005463 0.281250
0.193970 0.041290 0.316925
0.363617 0.067352 0.330231
0.617462 0.047577 0.360138
0.725189 0.121918 0.283203
0.132477 0.186493 0.300964
0.251465 0.231232 0.352539
0.425873 0.251556 0.383362
0.639374 0.256195 0.392181
0.783508 0.302673 0.365662
0.199158 0.372559 0.332611
0.306244 0.422363 0.388977
0.447235 0.462311 0.406006
0.621887 0.486237 0.417175
0.794250 0.512512 0.422211
0.271698 0.558746 0.347351
0.346985 0.624298 0.406189
0.475128 0.666534 0.445923
0.648346 0.688568 0.471222
0.815155 0.715485 0.487640
0.422668 0.690216 0.441620
0.501251 0.753754 0.502136
0.598663 0.808136 0.560699
0.730103 0.846344 0.613190
0.854340 0.882416 0.696594
0.033875 0.025024 0.450714
0.185364 0.057220 0.480621
0.404968 0.057495 0.496216
0.620300 0.061432 0.503693
0.718079 0.141479 0.423431
0.099457 0.210022 0.490875
0.249542 0.241699 0.527496
0.455414 0.248840 0.543365
0.664978 0.256348 0.547577
0.773438 0.326630 0.490479
0.168793 0.407501 0.453827
0.287018 0.453094 0.502319
0.469391 0.469391 0.533417
0.650085 0.491547 0.537628
0.789764 0.535248 0.538025
0.311005 0.560974 0.453949
0.412811 0.614471 0.504913
0.544830 0.654266 0.547363
0.676636 0.696259 0.578613
0.833588 0.725677 0.608673
0.492767 0.683167 0.513916
0.578003 0.741974 0.581940
0.666077 0.799530 0.648743
0.768097 0.852356 0.703064
0.881561 0.897858 0.765289
0.000031 0.068848 0.533936
0.131836 0.106537 0.588013
0.323212 0.120850 0.605072
0.536163 0.128326 0.600067
0.686432 0.174500 0.558411
0.105103 0.230957 0.588989
0.227936 0.274994 0.633392
0.403168 0.296783 0.654541
0.604462 0.308563 0.658356
0.756012 0.350433 0.636322
0.232361 0.402863 0.530884
0.321045 0.461823 0.588470
0.458923 0.496857 0.640594
0.630188 0.519470 0.668121
0.790710 0.549713 0.683685
0.344269 0.566010 0.561981
0.434357 0.624115 0.620209
0.544250 0.675293 0.661896
0.688324 0.707672 0.711456
0.833710 0.743408 0.738708
0.493591 0.707886 0.604675
0.575287 0.769836 0.665619
0.678802 0.821106 0.723816
0.797516 0.865570 0.777527
0.898407 0.917999 0.837036
