content/luts/vintage/vintage_03.cube
#Created by: Adobe Photoshop Export Color Lookup Plugin
#Copyright: (C) Copyright 2022 inPixio
TITLE "Retro Vintage 3"
#LUT size
LUT_3D_SIZE 5
#data domain
#LUT data points
DOMAIN_MIN 0.000000 0.000000 0.000000
DOMAIN_MAX 0.903226 0.903226 0.903226
0.000000 0.000000 0.000000
0.107391 0.048828 0.061218
0.300720 0.063934 0.068481
0.514465 0.073975 0.047546
0.693481 0.098541 0.043518
0.096252 0.155823 0.112946
0.217010 0.202942 0.146667
0.385681 0.228058 0.167847
0.585083 0.246918 0.138641
0.775574 0.263641 0.144958
0.000031 0.426025 0.137268
0.169952 0.451263 0.154266
0.423676 0.442017 0.127411
0.624512 0.450562 0.149780
0.805450 0.461487 0.213684
0.000031 0.630371 0.252441
0.129456 0.680237 0.247589
0.384674 0.664398 0.252625
0.607971 0.663757 0.262878
0.800018 0.671875 0.311218
0.329651 0.674225 0.329376
0.412903 0.735229 0.391144
0.524628 0.781799 0.452148
0.675751 0.811096 0.498901
0.809662 0.846375 0.560333
0.025421 0.013031 0.086670
0.141052 0.059601 0.137115
0.342896 0.063843 0.179718
0.535492 0.082611 0.169891
0.698517 0.117218 0.155426
0.140381 0.162018 0.184906
0.239319 0.218079 0.230469
0.397369 0.247223 0.258972
0.601257 0.259583 0.252350
0.785187 0.282074 0.245789
0.101410 0.396149 0.246643
0.231110 0.439819 0.274628
0.442047 0.449249 0.264435
0.636047 0.462708 0.278931
0.814209 0.481110 0.310486
0.110474 0.613312 0.268341
0.244629 0.650574 0.318634
0.433197 0.666107 0.336700
0.637451 0.673492 0.355835
0.814270 0.692078 0.389862
0.375854 0.686676 0.362335
0.463654 0.744751 0.427216
0.566833 0.794556 0.494476
0.705597 0.828918 0.547577
0.832245 0.866669 0.615692
0.022858 0.016907 0.298737
0.192291 0.038849 0.334473
0.398499 0.045197 0.353973
0.687622 0.000610 0.420563
0.750366 0.103455 0.313568
0.115356 0.189606 0.331146
0.252258 0.225433 0.381409
0.454681 0.231934 0.410156
0.677521 0.232605 0.414642
0.800354 0.290314 0.386200
0.213562 0.361420 0.352814
0.320526 0.413757 0.396057
0.468292 0.450714 0.410736
0.648254 0.470123 0.431793
0.809052 0.501129 0.442932
0.315674 0.535797 0.350464
0.400299 0.595398 0.415863
0.504242 0.651642 0.446320
0.668060 0.677551 0.476532
0.828033 0.704834 0.509766
0.453369 0.673889 0.445404
0.530151 0.739502 0.499664
0.625793 0.794159 0.561646
0.744202 0.837830 0.620361
0.865814 0.878235 0.687592
0.051880 0.012665 0.467834
0.218933 0.036896 0.498108
0.452850 0.026947 0.529663
0.661743 0.034302 0.536255
0.734009 0.130981 0.436218
0.121826 0.195557 0.507507
0.272675 0.227905 0.538483
0.484863 0.230621 0.560669
0.688110 0.241913 0.561859
0.793579 0.312744 0.510223
0.212219 0.385773 0.451691
0.327942 0.433563 0.495422
0.493134 0.457184 0.534241
0.670532 0.478729 0.550842
0.809784 0.521606 0.556519
0.348877 0.541046 0.457672
0.438782 0.599304 0.515564
0.574890 0.638916 0.547729
0.701569 0.680939 0.592651
0.848206 0.716522 0.617859
0.510559 0.673615 0.516510
0.596161 0.733307 0.578705
0.688171 0.788635 0.646942
0.782043 0.845276 0.702972
0.891174 0.891815 0.771362
0.052887 0.039978 0.544342
0.179108 0.083466 0.582764
0.351257 0.107117 0.602234
0.551727 0.121124 0.596130
0.688965 0.173218 0.558411
0.160065 0.205841 0.573730
0.273407 0.254822 0.617615
0.431671 0.283539 0.647766
0.617218 0.302216 0.657440
0.761749 0.346680 0.640808
0.279999 0.381317 0.516449
0.366272 0.439514 0.584869
0.491394 0.480988 0.637115
0.647552 0.510010 0.671448
0.801300 0.543976 0.685669
0.382141 0.547485 0.558105
0.468170 0.607727 0.615936
0.576324 0.658936 0.662231
0.706726 0.698273 0.711548
0.847809 0.735107 0.744720
0.525360 0.692230 0.602264
0.599426 0.757050 0.668365
0.703522 0.808502 0.724243
0.813690 0.857697 0.775726
0.914581 0.910675 0.832245
