content/luts/vintage/vintage_02.cube
#Created by: Adobe Photoshop Export Color Lookup Plugin
#Copyright: (C) Copyright 2022 inPixio
TITLE "Retro Vintage 2"
#LUT size
LUT_3D_SIZE 5
#data domain
#LUT data points
DOMAIN_MIN 0.000000 0.000000 0.000000
DOMAIN_MAX 0.903226 0.903226 0.903226
0.000000 0.000000 0.000000
0.172241 0.027283 0.000031
0.448792 0.000031 0.007660
0.660034 0.000031 0.047333
0.696289 0.087677 0.094147
0.072662 0.174622 0.076569
0.226624 0.211578 0.073944
0.485657 0.197266 0.060242
0.722504 0.183716 0.103027
0.789459 0.244873 0.207794
0.109283 0.365662 0.162903
0.206238 0.428345 0.178162
0.469666 0.419312 0.123810
0.715363 0.399963 0.173553
0.828796 0.433716 0.299011
0.253998 0.498779 0.265503
0.331146 0.563660 0.322937
0.469055 0.605072 0.340546
0.677856 0.612213 0.348694
0.833130 0.632385 0.432770
0.497772 0.570770 0.425812
0.564240 0.639893 0.489746
0.643036 0.701752 0.558685
0.736908 0.759674 0.607880
0.846680 0.808746 0.661224
0.000031 0.037018 0.027161
0.127228 0.077759 0.077515
0.365021 0.073578 0.067108
0.654388 0.047058 0.036285
0.718475 0.114441 0.115967
0.116699 0.185638 0.122894
0.218628 0.239502 0.171814
0.434021 0.246948 0.160278
0.719330 0.222290 0.130463
0.816925 0.270050 0.223877
0.217560 0.341156 0.224762
0.283783 0.412323 0.278595
0.468475 0.443298 0.224213
0.731018 0.430939 0.190460
0.855072 0.457367 0.326294
0.310577 0.503235 0.312988
0.376190 0.574310 0.368866
0.490875 0.625732 0.395752
0.696930 0.640533 0.370331
0.855011 0.658325 0.459717
0.527893 0.593170 0.449463
0.588593 0.665497 0.511414
0.665405 0.728790 0.578522
0.755768 0.787750 0.631653
0.871796 0.833862 0.683807
0.000031 0.066345 0.095703
0.024841 0.145142 0.221039
0.292511 0.123108 0.225189
0.562775 0.106720 0.191986
0.723389 0.144623 0.166107
0.056366 0.237518 0.234985
0.196289 0.277374 0.255463
0.368286 0.295654 0.303894
0.619202 0.284058 0.297852
0.819733 0.300690 0.277649
0.204193 0.376862 0.295776
0.324402 0.421173 0.345642
0.447723 0.464050 0.395477
0.660583 0.472839 0.383636
0.867584 0.484650 0.371552
0.335846 0.522064 0.369110
0.430420 0.576263 0.436218
0.527435 0.633850 0.478363
0.685516 0.668945 0.475128
0.885712 0.679901 0.486206
0.545593 0.621887 0.472870
0.619507 0.684631 0.550293
0.695160 0.749451 0.612183
0.780914 0.811646 0.660614
0.884644 0.863892 0.713104
0.000031 0.099213 0.145111
0.000031 0.189484 0.276733
0.160614 0.199890 0.398987
0.498810 0.148804 0.366364
0.570648 0.247314 0.257812
0.000031 0.287598 0.345825
0.059723 0.359009 0.415955
0.281097 0.355652 0.445831
0.552887 0.331757 0.448761
0.675476 0.396027 0.385406
0.114136 0.441498 0.420502
0.208130 0.500732 0.461914
0.411713 0.511780 0.463348
0.591370 0.527985 0.502563
0.762299 0.557373 0.494232
0.266724 0.581482 0.464691
0.386047 0.624756 0.522797
0.534485 0.658722 0.551819
0.670593 0.697174 0.590149
0.849823 0.719513 0.597321
0.540131 0.658783 0.515472
0.611420 0.725891 0.576996
0.711639 0.776306 0.649170
0.806000 0.831940 0.709229
0.904572 0.887482 0.758209
0.000031 0.135651 0.175507
0.050537 0.209686 0.256470
0.114197 0.278656 0.328613
0.292084 0.286407 0.417694
0.547150 0.275665 0.395599
0.115814 0.276611 0.314667
0.184296 0.345062 0.376587
0.253906 0.411560 0.445831
0.426270 0.426117 0.513550
0.650604 0.427826 0.508545
0.258972 0.413940 0.398895
0.318207 0.485809 0.467712
0.384430 0.553436 0.540314
0.544891 0.580811 0.571594
0.719055 0.602936 0.593567
0.403931 0.551575 0.476654
0.469482 0.620148 0.545746
0.531860 0.690125 0.616241
0.667603 0.729980 0.648254
0.808105 0.765472 0.690338
0.566254 0.678223 0.565765
0.636414 0.745087 0.631744
0.701050 0.814392 0.699402
0.802643 0.867279 0.754578
0.917175 0.914520 0.804718
