content/luts/vintage/vintage_09.cube
#Created by: Adobe Photoshop Export Color Lookup Plugin
#Copyright: (C) Copyright 2022 inPixio
TITLE "Retro Vintage 9"
#LUT size
LUT_3D_SIZE 8
#data domain
#LUT data points
DOMAIN_MIN 0.000000 0.000000 0.000000
DOMAIN_MAX 0.903226 0.903226 0.903226
0.000000 0.000000 0.000000
0.118713 0.001190 0.021576
0.212524 0.015839 0.039368
0.307861 0.031586 0.046631
0.385101 0.056793 0.052887
0.488556 0.067413 0.065643
0.627380 0.066071 0.045837
0.793121 0.051300 0.025116
0.041473 0.102966 0.026917
0.136658 0.114624 0.056335
0.230713 0.129486 0.071930
0.327759 0.142426 0.089935
0.422150 0.156891 0.106781
0.526825 0.168549 0.110870
0.660919 0.168579 0.096832
0.834473 0.150696 0.071136
0.042847 0.219940 0.087494
0.127197 0.241028 0.096588
0.228912 0.252441 0.109741
0.332123 0.261414 0.131744
0.432098 0.274445 0.141235
0.548340 0.279114 0.150970
0.675751 0.285095 0.123444
0.851898 0.268707 0.082764
0.020325 0.351105 0.137573
0.116272 0.365997 0.147766
0.220123 0.375214 0.167267
0.322754 0.387146 0.175262
0.432526 0.395203 0.184570
0.552887 0.401947 0.171875
0.693207 0.402740 0.136841
0.855530 0.395447 0.085266
0.014557 0.478302 0.163330
0.053833 0.516357 0.203735
0.194763 0.511932 0.195404
0.315552 0.514801 0.202332
0.440002 0.516663 0.204956
0.554169 0.526337 0.193481
0.699066 0.530090 0.130188
0.865631 0.522308 0.069397
0.000671 0.621582 0.124908
0.038666 0.659180 0.171234
0.088409 0.694366 0.198608
0.285065 0.666138 0.165924
0.429962 0.659180 0.159698
0.563568 0.659576 0.145325
0.709808 0.659973 0.096130
0.872559 0.658905 0.009918
0.000031 0.770599 0.019135
0.026520 0.817688 0.046387
0.062042 0.858643 0.081635
0.222717 0.846161 0.062195
0.418274 0.817871 0.032654
0.576172 0.806519 0.014740
0.729248 0.796295 0.004242
0.878296 0.786865 0.000031
0.003693 0.901367 0.000031
0.021454 0.953766 0.022064
0.063232 0.990479 0.063354
0.153198 1.000000 0.118896
0.388641 0.962799 0.028198
0.562073 0.942719 0.014923
0.724182 0.927704 0.005127
0.879913 0.914948 0.000824
0.022034 0.000031 0.068848
0.120819 0.002411 0.138397
0.203522 0.026428 0.136108
0.285034 0.050629 0.135773
0.378021 0.067322 0.144623
0.481812 0.080170 0.144562
0.625458 0.075531 0.129547
0.808960 0.049713 0.119415
0.047729 0.102875 0.139313
0.127228 0.124817 0.156555
0.219421 0.141510 0.167297
0.322021 0.151489 0.186035
0.414215 0.168152 0.197144
0.525635 0.178253 0.191010
0.669556 0.173401 0.176453
0.838287 0.156433 0.159088
0.051727 0.224762 0.166443
0.130280 0.248169 0.178711
0.231873 0.258057 0.200500
0.332550 0.269806 0.214661
0.430206 0.284088 0.223877
0.542938 0.293335 0.218567
0.690430 0.287628 0.199066
0.858337 0.274628 0.162689
0.034424 0.353546 0.215027
0.121155 0.373505 0.223236
0.230804 0.381439 0.233826
0.333984 0.392670 0.243927
0.434875 0.405365 0.252808
0.555725 0.411621 0.241486
0.698273 0.411835 0.203369
0.864655 0.400604 0.161926
0.020477 0.487793 0.225159
0.061768 0.525543 0.262024
0.199921 0.520630 0.263458
0.328278 0.521210 0.262115
0.443207 0.528595 0.261139
0.561859 0.535034 0.254944
0.707642 0.536133 0.203522
0.869019 0.529358 0.151611
0.014374 0.625916 0.193268
0.050354 0.665649 0.233643
0.089050 0.706635 0.260071
0.292328 0.673248 0.236938
0.436371 0.667480 0.226715
0.572723 0.667114 0.209015
0.718597 0.665588 0.171204
0.877869 0.661285 0.111877
0.000031 0.779663 0.099731
0.036255 0.820709 0.132751
0.074402 0.860382 0.167633
0.218231 0.853577 0.163605
0.418762 0.826202 0.115753
0.577148 0.816101 0.089691
0.735077 0.806305 0.063690
0.888824 0.800507 0.027191
0.007355 0.923584 0.000031
0.038544 0.966187 0.037933
0.085571 1.000000 0.080536
0.183167 1.000000 0.166290
0.396759 0.978394 0.051361
0.574677 0.957336 0.031097
0.736298 0.942230 0.023071
0.890472 0.930939 0.015198
0.019012 0.000031 0.206238
0.099274 0.016174 0.252472
0.189087 0.035370 0.256378
0.283112 0.054535 0.249084
0.366089 0.079407 0.241455
0.482239 0.085266 0.244904
0.650574 0.062469 0.260040
0.878540 0.009735 0.273224
0.042725 0.108521 0.251587
0.125214 0.126221 0.283447
0.210693 0.148834 0.280884
0.309387 0.163666 0.284332
0.411102 0.177948 0.282074
0.529419 0.181763 0.290924
0.690826 0.163818 0.298767
0.880646 0.135559 0.284576
0.037659 0.234985 0.279022
0.119232 0.256378 0.293945
0.224579 0.266846 0.302124
0.326477 0.277893 0.316742
0.436981 0.287292 0.317047
0.552429 0.294220 0.316864
0.705902 0.284271 0.303864
0.885986 0.263580 0.275482
0.019775 0.366516 0.314392
0.114014 0.382446 0.323730
0.228973 0.386597 0.340149
0.329926 0.401154 0.338409
0.440308 0.410187 0.340973
0.564056 0.415009 0.329498
0.711487 0.410889 0.301239
0.884247 0.394287 0.271332
0.027039 0.490936 0.319489
0.064209 0.532288 0.348328
0.188477 0.532837 0.358368
0.320038 0.533234 0.349274
0.447723 0.533112 0.353821
0.568970 0.540131 0.337067
0.720337 0.538177 0.286926
0.881775 0.528351 0.251160
0.015594 0.633575 0.277832
0.051208 0.673370 0.319000
0.094788 0.710083 0.354980
0.273926 0.688751 0.333008
0.428589 0.678925 0.315613
0.572083 0.674042 0.302490
0.728333 0.667725 0.262024
0.886475 0.660034 0.224243
0.000031 0.785400 0.198029
0.034393 0.824768 0.244873
0.073883 0.863525 0.281097
0.155975 0.884674 0.295654
0.405548 0.833496 0.241669
0.572845 0.817352 0.223663
0.731995 0.806885 0.197998
0.891296 0.795532 0.176025
0.001862 0.927979 0.120239
0.038757 0.965515 0.169922
0.085632 1.000000 0.209290
0.183746 1.000000 0.293579
0.377838 0.988434 0.178192
0.567810 0.963867 0.143860
0.734070 0.949249 0.120636
0.894287 0.939423 0.088318
0.000031 0.018158 0.289734
0.078949 0.030609 0.359375
0.173828 0.049347 0.352051
0.266846 0.067352 0.353760
0.368866 0.082092 0.348480
0.481018 0.087219 0.366760
0.664764 0.055389 0.388214
0.886383 0.003265 0.415527
0.026917 0.119751 0.363525
0.108948 0.140442 0.380646
0.201813 0.156799 0.391449
0.306610 0.167816 0.398682
0.400513 0.187469 0.388733
0.532013 0.183990 0.400818
0.700439 0.158508 0.430084
0.961456 0.082886 0.475677
0.022064 0.246063 0.391174
0.111176 0.263733 0.405304
0.216736 0.275940 0.403961
0.316132 0.288177 0.418976
0.433624 0.292694 0.426392
0.559296 0.294250 0.427185
0.736450 0.269012 0.431427
0.955841 0.220734 0.443756
0.024231 0.370605 0.409302
0.083344 0.400848 0.437775
0.219849 0.398315 0.431213
0.331879 0.404755 0.442810
0.451294 0.409393 0.444305
0.576904 0.412048 0.439240
0.739899 0.399323 0.415009
0.920990 0.377502 0.390167
0.032257 0.493744 0.419220
0.070435 0.533325 0.454742
0.150330 0.554565 0.474854
0.311066 0.543091 0.449707
0.440948 0.542389 0.451294
0.578278 0.541199 0.435059
0.738190 0.532257 0.399017
0.912140 0.515472 0.366394
0.021027 0.633820 0.390656
0.058563 0.674866 0.419952
0.099213 0.712402 0.459869
0.226410 0.713654 0.458069
0.420868 0.687408 0.420441
0.578339 0.676117 0.403351
0.729401 0.672485 0.362793
0.905914 0.653320 0.336273
0.000031 0.787292 0.316589
0.038666 0.825500 0.358307
0.078003 0.865112 0.390442
0.121094 0.901642 0.428864
0.372284 0.850555 0.369690
0.561768 0.824860 0.342621
0.730652 0.809601 0.316101
0.893005 0.796844 0.293365
0.000031 0.926117 0.264313
0.034088 0.965546 0.311646
0.084137 1.000000 0.342529
0.184998 1.000000 0.419098
0.338470 1.000000 0.352692
0.547150 0.969910 0.296631
0.721954 0.950806 0.274109
0.894928 0.932495 0.252777
0.000031 0.044739 0.276367
0.061005 0.043579 0.467987
0.168915 0.054565 0.466705
0.272308 0.069031 0.458923
0.368042 0.086823 0.454315
0.486053 0.089966 0.467468
0.675415 0.050842 0.512878
0.887726 0.003571 0.539215
0.000031 0.140137 0.456482
0.083649 0.156525 0.492401
0.198364 0.162445 0.499695
0.303497 0.174347 0.500977
0.401886 0.188965 0.506348
0.530823 0.188751 0.507812
0.707367 0.157074 0.547852
0.957916 0.084045 0.608398
0.007599 0.255920 0.506805
0.073914 0.282257 0.536682
0.204987 0.282410 0.530121
0.328644 0.285522 0.528046
0.428070 0.299164 0.535736
0.559998 0.296875 0.540009
0.738953 0.267212 0.563141
0.971558 0.208344 0.596375
0.021637 0.376221 0.515381
0.059662 0.415466 0.553009
0.182831 0.417999 0.555420
0.319794 0.413544 0.557770
0.449554 0.414490 0.550873
0.588196 0.407928 0.559631
0.766327 0.382874 0.560150
0.979218 0.340240 0.560242
0.034821 0.498596 0.515167
0.073975 0.534821 0.566193
0.110504 0.577423 0.589966
0.298950 0.550110 0.574249
0.442780 0.545380 0.559540
0.595276 0.535706 0.547211
0.773163 0.515228 0.524078
0.959747 0.489807 0.503204
0.022308 0.633850 0.515930
0.061646 0.673035 0.550323
0.099976 0.713654 0.580078
0.138092 0.755676 0.602509
0.398254 0.701080 0.537781
0.577911 0.679504 0.515411
0.755493 0.660492 0.484924
0.929260 0.643219 0.455750
0.000031 0.785889 0.453613
0.037964 0.824310 0.495667
0.075104 0.866241 0.521271
0.113495 0.908051 0.544373
0.303009 0.880707 0.526123
0.547272 0.833923 0.463013
0.737549 0.805969 0.445587
0.909393 0.789459 0.417419
0.000031 0.924652 0.401306
0.033173 0.966644 0.437500
0.080750 1.000000 0.480774
0.189606 1.000000 0.535583
0.310547 1.000000 0.557953
0.524536 0.978027 0.443970
0.717834 0.949707 0.420715
0.892334 0.930420 0.399994
0.000031 0.048859 0.383148
0.038971 0.050354 0.620911
0.173401 0.050812 0.603516
0.285217 0.059906 0.601624
0.411102 0.061310 0.602875
0.528900 0.067902 0.597961
0.700592 0.039215 0.635712
0.892578 0.004639 0.649323
0.000031 0.139221 0.590637
0.052765 0.167389 0.647339
0.198822 0.161133 0.634766
0.318634 0.164825 0.639862
0.448212 0.165314 0.635803
0.569702 0.167908 0.642548
0.722870 0.152069 0.661530
0.963623 0.082520 0.730103
0.008789 0.253204 0.647156
0.044952 0.294525 0.678986
0.194244 0.285583 0.671570
0.332428 0.282318 0.664246
0.462311 0.280975 0.669128
0.596954 0.278778 0.665771
0.752625 0.262299 0.681396
0.986450 0.198822 0.735840
0.016846 0.377502 0.650635
0.061951 0.414246 0.682220
0.109711 0.447693 0.724762
0.313538 0.414978 0.695984
0.465607 0.405609 0.683807
0.613342 0.394226 0.693542
0.770996 0.380066 0.691528
0.977081 0.338348 0.705353
0.022583 0.505585 0.640198
0.062988 0.542969 0.681366
0.106964 0.579346 0.718262
0.224762 0.581726 0.735901
0.439117 0.543640 0.707703
0.607697 0.527496 0.686249
0.797546 0.496979 0.684326
0.980377 0.471954 0.671844
0.022095 0.636902 0.629181
0.056396 0.677399 0.670441
0.099030 0.713348 0.713226
0.138550 0.751343 0.753510
0.367432 0.710480 0.700623
0.582581 0.672913 0.667206
0.770233 0.648651 0.637146
0.945923 0.627899 0.621582
0.000031 0.781708 0.605164
0.039642 0.820160 0.642303
0.075500 0.861206 0.676392
0.113251 0.901642 0.708588
0.214050 0.915588 0.710541
0.533875 0.834290 0.626465
0.743408 0.798553 0.598450
0.912720 0.781677 0.579041
0.000031 0.918030 0.565704
0.029907 0.960846 0.606659
0.070618 0.999023 0.642548
0.184357 1.000000 0.679047
0.306671 1.000000 0.697510
0.520844 0.971802 0.616241
0.717560 0.943237 0.585114
0.891510 0.924377 0.563629
0.000031 0.042847 0.544464
0.011536 0.057587 0.785858
0.175171 0.043121 0.768982
0.313263 0.037872 0.772339
0.462189 0.025848 0.782623
0.607758 0.015564 0.792694
0.749634 0.010223 0.786560
0.893127 0.003571 0.782593
0.000031 0.132385 0.756500
0.027985 0.172821 0.814850
0.194855 0.154510 0.809937
0.340271 0.147736 0.801514
0.484131 0.139771 0.804047
0.631165 0.127045 0.823212
0.815491 0.093292 0.853333
0.961121 0.085358 0.850555
0.013336 0.246338 0.800690
0.048706 0.287537 0.835052
0.155151 0.296600 0.848022
0.334747 0.274261 0.830139
0.485748 0.263855 0.825928
0.641541 0.250000 0.827362
0.807373 0.229004 0.839630
1.000000 0.189545 0.877869
0.029968 0.365204 0.809753
0.066467 0.404602 0.850677
0.104736 0.443756 0.888306
0.305939 0.410187 0.871674
0.476166 0.393372 0.849457
0.638062 0.376923 0.848053
0.808228 0.356720 0.844543
0.986115 0.329926 0.854675
0.020447 0.501404 0.797302
0.057098 0.541748 0.833069
0.104675 0.575287 0.875214
0.150635 0.606445 0.934570
0.431824 0.540131 0.875458
0.620300 0.514282 0.851898
0.800598 0.490906 0.837769
0.981262 0.465881 0.830841
0.010254 0.637482 0.787384
0.045868 0.679657 0.816040
0.088715 0.714783 0.862793
0.131561 0.752441 0.895630
0.335968 0.718353 0.873077
0.574310 0.670441 0.832001
0.770752 0.641205 0.804779
0.948639 0.621155 0.779266
0.000031 0.777771 0.755066
0.039276 0.816132 0.794006
0.073669 0.858612 0.824066
0.113556 0.896118 0.866394
0.207092 0.912048 0.877625
0.530945 0.827576 0.799500
0.738007 0.795532 0.758606
0.905487 0.778717 0.743683
0.000031 0.912323 0.725281
0.025299 0.959015 0.758026
0.065460 0.997253 0.795135
0.178925 1.000000 0.822845
0.303558 1.000000 0.834930
0.548187 0.953583 0.768402
0.733521 0.928192 0.751221
0.895020 0.912842 0.745117
0.000031 0.039856 0.689484
0.004852 0.057983 0.931091
0.143616 0.052155 0.935516
0.314911 0.032928 0.923401
0.470947 0.016785 0.936584
0.605774 0.015503 0.927338
0.748230 0.009216 0.924713
0.889679 0.005554 0.910400
0.000031 0.128235 0.907745
0.039856 0.163452 0.961823
0.148651 0.172455 0.968781
0.334595 0.145996 0.955475
0.483154 0.135498 0.958527
0.664520 0.102844 0.990906
0.821655 0.086884 1.000000
0.965393 0.080139 0.996155
0.017426 0.242340 0.940277
0.065033 0.276642 0.978119
0.103638 0.318573 1.000000
0.315643 0.278717 0.987396
0.482758 0.262360 0.971161
0.646606 0.242920 0.980560
0.817261 0.218140 1.000000
0.985657 0.198120 1.000000
0.035553 0.360657 0.948120
0.076080 0.397736 0.990417
0.124908 0.436768 1.000000
0.276825 0.425140 1.000000
0.464478 0.395599 0.998413
0.638733 0.372406 0.999481
0.809143 0.351440 0.999390
0.981110 0.329468 1.000000
0.034241 0.490295 0.948334
0.073181 0.527985 0.992096
0.143036 0.556610 1.000000
0.217255 0.584473 1.000000
0.424194 0.544891 1.000000
0.612732 0.514618 1.000000
0.789673 0.491638 0.992584
0.967407 0.466980 0.991821
0.016296 0.632385 0.927368
0.063629 0.665924 0.970154
0.113708 0.700562 1.000000
0.203094 0.720673 1.000000
0.354858 0.709167 1.000000
0.565735 0.670227 0.985565
0.756897 0.643799 0.957764
0.927765 0.626190 0.938263
0.009003 0.768280 0.910461
0.048920 0.806305 0.949615
0.088013 0.845764 0.983154
0.168121 0.867523 1.000000
0.291138 0.870575 1.000000
0.549652 0.814514 0.947723
0.734253 0.792816 0.912354
0.894043 0.780090 0.896698
0.000031 0.907074 0.882599
0.036469 0.946411 0.924011
0.070557 0.987823 0.960754
0.169739 1.000000 0.976868
0.298615 1.000000 0.977386
0.564270 0.941498 0.918610
0.746552 0.918854 0.894958
0.892639 0.910614 0.892517
