content/luts/vintage/vintage_09.cube
#Created by: Adobe Photoshop Export Color Lookup Plugin
#Copyright: (C) Copyright 2022 inPixio
TITLE "Retro Vintage 9"
#LUT size
LUT_3D_SIZE 32
#data domain
DOMAIN_MIN 0.0 0.0 0.0
DOMAIN_MAX 1.0 1.0 1.0
#LUT data points
0.000000 0.000000 0.000000
0.028564 0.000031 0.010071
0.058685 0.000031 0.015839
0.089600 0.000031 0.019409
0.118713 0.001190 0.021576
0.148987 0.001099 0.027527
0.172729 0.004639 0.032074
0.193054 0.010010 0.035828
0.212524 0.015839 0.039368
0.234955 0.020020 0.043549
0.257690 0.024567 0.045166
0.283081 0.027679 0.047302
0.307861 0.031586 0.046631
0.329224 0.038025 0.041687
0.347748 0.044403 0.045013
0.364563 0.051483 0.049072
0.385101 0.056793 0.052887
0.409088 0.060211 0.056915
0.431183 0.064087 0.063812
0.461090 0.064606 0.067413
0.488556 0.067413 0.065643
0.515991 0.070557 0.061707
0.547607 0.071320 0.059418
0.587341 0.068573 0.053619
0.627380 0.066071 0.045837
0.666992 0.063202 0.041077
0.706940 0.059631 0.039520
0.750977 0.055084 0.031921
0.793121 0.051300 0.025116
0.836060 0.046936 0.019470
0.878815 0.041992 0.017212
0.919373 0.037018 0.021332
0.043427 0.007599 0.013824
0.057007 0.015137 0.024384
0.079773 0.019684 0.025879
0.100677 0.024902 0.028961
0.120667 0.030487 0.032257
0.151245 0.030670 0.035858
0.173737 0.035492 0.036621
0.196289 0.040314 0.037170
0.218414 0.045227 0.038391
0.242432 0.048767 0.041931
0.266266 0.051483 0.050476
0.287445 0.056335 0.054688
0.311859 0.059509 0.058990
0.336060 0.063324 0.060425
0.353241 0.071136 0.059631
0.376526 0.075073 0.062927
0.396606 0.080444 0.067413
0.421112 0.083588 0.071808
0.453033 0.082886 0.076538
0.472443 0.089661 0.075226
0.502319 0.090668 0.076355
0.532501 0.092133 0.074188
0.565430 0.092316 0.071320
0.603180 0.090454 0.066406
0.641327 0.088379 0.061310
0.678680 0.086792 0.055786
0.717285 0.084137 0.052887
0.764252 0.077484 0.048248
0.804871 0.074829 0.039886
0.846558 0.071320 0.032990
0.889099 0.066589 0.030548
0.930908 0.060699 0.035919
0.045593 0.037872 0.018524
0.065430 0.043060 0.024597
0.082031 0.049286 0.033844
0.105713 0.053467 0.035004
0.127319 0.058380 0.037659
0.156677 0.059143 0.041443
0.179810 0.062408 0.048767
0.200958 0.068390 0.046997
0.225098 0.072540 0.046875
0.251434 0.074829 0.050568
0.271332 0.079926 0.057159
0.295624 0.082977 0.062225
0.319183 0.086548 0.066956
0.345581 0.088654 0.071594
0.363586 0.095642 0.073273
0.384796 0.100311 0.078186
0.408295 0.104065 0.081909
0.429138 0.109070 0.086304
0.456696 0.110840 0.089569
0.483948 0.113190 0.090546
0.512024 0.115814 0.087860
0.543274 0.116455 0.087250
0.575989 0.116791 0.084412
0.612427 0.115784 0.078339
0.647308 0.115479 0.072876
0.688019 0.112549 0.065491
0.727020 0.110077 0.060242
0.772308 0.104004 0.057190
0.815094 0.100616 0.046722
0.860229 0.094391 0.045044
0.900635 0.090363 0.044312
0.939423 0.085663 0.051758
0.043518 0.070435 0.022522
0.065643 0.074371 0.028961
0.086761 0.079041 0.034515
0.108734 0.082550 0.043579
0.133301 0.086243 0.044617
0.160004 0.088287 0.048828
0.182709 0.092499 0.052277
0.206940 0.095123 0.060333
0.228455 0.100708 0.059845
0.255859 0.102295 0.064484
0.279633 0.105713 0.069275
0.299530 0.111176 0.073456
0.324738 0.114014 0.077454
0.352264 0.115601 0.081818
0.370667 0.121857 0.086060
0.393921 0.125641 0.090332
0.416229 0.129700 0.095917
0.439331 0.133942 0.098267
0.460968 0.139130 0.099182
0.488190 0.141327 0.101105
0.519470 0.141449 0.103119
0.551636 0.142273 0.098877
0.582886 0.143280 0.096222
0.617920 0.143036 0.089905
0.655334 0.141205 0.085785
0.691528 0.140839 0.076843
0.736450 0.136200 0.067627
0.780853 0.130493 0.064972
0.824738 0.125916 0.057861
0.866241 0.122406 0.051300
0.912018 0.115814 0.049774
0.946472 0.113464 0.056519
0.041473 0.102966 0.026917
0.062347 0.107117 0.035645
0.084473 0.111053 0.042114
0.108459 0.114166 0.047882
0.136658 0.114624 0.056335
0.159088 0.118866 0.060547
0.180145 0.124603 0.060211
0.205048 0.127747 0.063354
0.230713 0.129486 0.071930
0.252808 0.133392 0.078857
0.283875 0.133453 0.081970
0.306671 0.137665 0.085175
0.327759 0.142426 0.089935
0.353729 0.144623 0.095428
0.372040 0.150543 0.101593
0.396454 0.153961 0.104614
0.422150 0.156891 0.106781
0.445099 0.160980 0.110107
0.470703 0.165314 0.105347
0.497498 0.167694 0.107361
0.526825 0.168549 0.110870
0.558533 0.168518 0.112610
0.588593 0.170868 0.105957
0.622467 0.171112 0.100128
0.660919 0.168579 0.096832
0.702179 0.165192 0.090302
0.741852 0.163605 0.078735
0.789459 0.156555 0.074707
0.834473 0.150696 0.071136
0.875427 0.147125 0.066681
0.914154 0.144897 0.061035
0.952820 0.144073 0.048065
0.046936 0.129669 0.041473
0.061554 0.138184 0.043945
0.082397 0.142365 0.052673
0.104584 0.146332 0.059174
0.128937 0.149445 0.063812
0.159882 0.149994 0.064362
0.178467 0.155457 0.072327
0.202667 0.158752 0.076660
0.227997 0.161316 0.081757
0.245087 0.168182 0.086334
0.281464 0.165955 0.087158
0.306458 0.169220 0.089386
0.327820 0.173615 0.095306
0.351715 0.175995 0.105530
0.373505 0.179565 0.115173
0.395447 0.184326 0.117767
0.423279 0.186829 0.116241
0.451874 0.188995 0.114594
0.476501 0.192383 0.117218
0.504730 0.193787 0.120667
0.530670 0.196686 0.122314
0.558929 0.198639 0.122742
0.590179 0.199768 0.119690
0.626038 0.199188 0.113037
0.660156 0.199677 0.105194
0.702087 0.196442 0.096252
0.748169 0.191437 0.085175
0.792023 0.186462 0.080322
0.832764 0.183167 0.074738
0.872437 0.180603 0.068390
0.912445 0.177582 0.063354
0.956482 0.172028 0.060852
0.043213 0.162384 0.049408
0.064331 0.167297 0.053314
0.081207 0.173828 0.060211
0.102631 0.177765 0.068604
0.125458 0.181610 0.073700
0.153351 0.183472 0.075562
0.184570 0.184326 0.073883
0.206848 0.187897 0.082123
0.233337 0.190216 0.085327
0.253845 0.196289 0.084839
0.278229 0.197632 0.099091
0.304321 0.200439 0.100891
0.327606 0.204041 0.105988
0.353210 0.205597 0.115662
0.377319 0.209198 0.118500
0.406677 0.208344 0.130920
0.429291 0.213593 0.129333
0.457062 0.216705 0.125000
0.484497 0.219055 0.125458
0.506378 0.224243 0.125854
0.540375 0.223328 0.126068
0.569855 0.224731 0.126068
0.601044 0.225464 0.125000
0.635468 0.225861 0.116943
0.674286 0.223663 0.110962
0.710449 0.222900 0.104370
0.754181 0.218689 0.095734
0.798096 0.214020 0.089050
0.844208 0.209290 0.076599
0.885864 0.204895 0.074493
0.922089 0.203796 0.069458
0.957764 0.202667 0.066193
0.040802 0.192841 0.065704
0.061646 0.198761 0.065063
0.082916 0.202850 0.072937
0.103546 0.207550 0.079407
0.125244 0.211761 0.085510
0.147644 0.216217 0.088684
0.181061 0.215332 0.090210
0.206757 0.218872 0.089111
0.231689 0.221039 0.097321
0.254608 0.225769 0.097382
0.277283 0.228943 0.106506
0.307343 0.228668 0.114197
0.324005 0.235840 0.118317
0.349396 0.237701 0.127014
0.378693 0.238800 0.129242
0.407684 0.240204 0.130524
0.434601 0.241272 0.139191
0.456787 0.246918 0.136353
0.484314 0.249115 0.137543
0.515411 0.249268 0.140076
0.540436 0.253754 0.135742
0.575958 0.252838 0.131775
0.607086 0.253632 0.130676
0.639587 0.254242 0.126709
0.677643 0.253723 0.113434
0.719208 0.250000 0.108063
0.758881 0.247406 0.101685
0.803925 0.242767 0.091705
0.848877 0.238129 0.082031
0.893829 0.233215 0.073578
0.930847 0.231415 0.070740
0.957184 0.235718 0.063690
0.042847 0.219940 0.087494
0.059174 0.228699 0.084106
0.079346 0.234680 0.084778
0.102234 0.238068 0.092499
0.127197 0.241028 0.096588
0.144958 0.247437 0.101471
0.175507 0.247375 0.106689
0.204712 0.248718 0.107544
0.228912 0.252441 0.109741
0.250671 0.255981 0.119354
0.272064 0.260681 0.123566
0.300873 0.261658 0.127838
0.332123 0.261414 0.131744
0.342865 0.271118 0.138428
0.374695 0.270569 0.142426
0.406647 0.271057 0.140900
0.432098 0.274445 0.141235
0.457642 0.277344 0.144135
0.482391 0.280090 0.149811
0.516235 0.278503 0.153809
0.548340 0.279114 0.150970
0.575714 0.282959 0.143707
0.607819 0.284454 0.136200
0.639771 0.284790 0.135284
0.675751 0.285095 0.123444
0.718658 0.282104 0.110565
0.761353 0.277710 0.105682
0.807373 0.273132 0.092499
0.851898 0.268707 0.082764
0.896332 0.263824 0.075836
0.934967 0.261322 0.071838
0.957275 0.268463 0.060730
0.050476 0.245789 0.101196
0.057251 0.258636 0.101898
0.072510 0.268463 0.095276
0.093292 0.274689 0.093170
0.117981 0.277344 0.099518
0.145782 0.277832 0.109100
0.171326 0.279358 0.119202
0.197266 0.282013 0.122620
0.224426 0.284393 0.123474
0.258270 0.281799 0.133057
0.276917 0.288055 0.136627
0.299408 0.292084 0.141785
0.325714 0.294098 0.146973
0.352600 0.296051 0.151215
0.371124 0.302429 0.154541
0.403473 0.302399 0.154297
0.431030 0.304504 0.156128
0.454987 0.308075 0.159698
0.492279 0.305908 0.157532
0.517639 0.309265 0.158234
0.547485 0.311279 0.153931
0.578461 0.313293 0.146698
0.608612 0.315613 0.140045
0.644440 0.315002 0.133362
0.678986 0.315643 0.123627
0.720764 0.312653 0.113800
0.768463 0.306091 0.106720
0.806152 0.304291 0.101898
0.850311 0.300537 0.089539
0.895813 0.295685 0.079376
0.936279 0.292633 0.073425
0.963104 0.295532 0.072632
0.044800 0.278687 0.113220
0.057373 0.288605 0.113922
0.072906 0.297302 0.112610
0.096313 0.302002 0.111511
0.123077 0.303741 0.117157
0.143158 0.309143 0.121521
0.169739 0.310913 0.127350
0.196045 0.312927 0.132782
0.222748 0.315613 0.133453
0.253021 0.315918 0.137299
0.277344 0.318298 0.146027
0.302521 0.321228 0.149963
0.328094 0.323792 0.154419
0.353973 0.326385 0.158020
0.377747 0.330048 0.161316
0.401306 0.334259 0.162476
0.431458 0.335022 0.164246
0.457703 0.337372 0.167999
0.490204 0.337250 0.167877
0.522003 0.337921 0.165771
0.550018 0.340515 0.163422
0.582306 0.341431 0.158264
0.615723 0.341827 0.153076
0.646637 0.344666 0.141510
0.688019 0.342773 0.126709
0.726196 0.342255 0.113434
0.768829 0.338837 0.103424
0.808136 0.336273 0.097809
0.851654 0.332336 0.088196
0.893616 0.329285 0.078064
0.934692 0.326569 0.068512
0.968079 0.327576 0.060425
0.033295 0.314758 0.123993
0.048920 0.323303 0.123444
0.073425 0.326141 0.129333
0.095032 0.331818 0.128418
0.122803 0.333405 0.131897
0.142853 0.339661 0.131836
0.167419 0.341980 0.140228
0.194550 0.343201 0.147736
0.221466 0.345428 0.150360
0.249512 0.347412 0.151093
0.278076 0.348389 0.155853
0.296967 0.354126 0.161621
0.324890 0.355865 0.164093
0.351013 0.358612 0.165955
0.381775 0.359253 0.166595
0.405945 0.362183 0.173187
0.430847 0.365784 0.173767
0.459320 0.367310 0.176056
0.490387 0.368011 0.175385
0.518982 0.370331 0.172882
0.552917 0.370087 0.169586
0.582764 0.372223 0.164764
0.616577 0.372406 0.159637
0.653290 0.372314 0.148163
0.690277 0.372345 0.135040
0.732208 0.370148 0.120453
0.771942 0.368744 0.107544
0.813263 0.366058 0.097260
0.852997 0.364075 0.087524
0.894012 0.361816 0.075653
0.934418 0.359070 0.068115
0.972809 0.357605 0.059082
0.020325 0.351105 0.137573
0.037903 0.358459 0.138092
0.064453 0.360840 0.140869
0.091370 0.362305 0.147522
0.116272 0.365997 0.147766
0.138580 0.371582 0.145050
0.163788 0.374023 0.151245
0.193146 0.374054 0.159241
0.220123 0.375214 0.167267
0.246826 0.377991 0.167389
0.275269 0.379730 0.168488
0.301575 0.381897 0.173065
0.322754 0.387146 0.175262
0.349304 0.389923 0.175751
0.380585 0.390076 0.177673
0.407990 0.391907 0.180908
0.432526 0.395203 0.184570
0.458588 0.398743 0.182556
0.489716 0.399994 0.178772
0.520874 0.400665 0.178162
0.552887 0.401947 0.171875
0.587097 0.401764 0.167603
0.617096 0.404175 0.160797
0.654907 0.403534 0.149017
0.693207 0.402740 0.136841
0.732788 0.401459 0.123688
0.772858 0.399536 0.112640
0.814819 0.397217 0.098816
0.855530 0.395447 0.085266
0.895813 0.392822 0.077454
0.932587 0.392792 0.065308
0.973389 0.389313 0.060791
0.010101 0.385193 0.155731
0.027924 0.391846 0.159363
0.053528 0.394928 0.161041
0.082306 0.396393 0.162506
0.105835 0.400055 0.166656
0.131042 0.404053 0.164581
0.157288 0.406494 0.167786
0.187439 0.406525 0.173248
0.219971 0.405914 0.175964
0.244507 0.409180 0.179230
0.269531 0.412994 0.178467
0.297729 0.414612 0.181122
0.328461 0.414856 0.184021
0.356903 0.416962 0.183075
0.378662 0.420502 0.192688
0.405457 0.422791 0.195343
0.431030 0.426331 0.194580
0.457306 0.430084 0.190857
0.487762 0.433228 0.178833
0.523529 0.431305 0.179688
0.558441 0.431030 0.173859
0.592133 0.431854 0.165558
0.624084 0.433014 0.160156
0.656921 0.435150 0.147003
0.692810 0.435608 0.134796
0.730865 0.435211 0.121002
0.771423 0.433502 0.107666
0.809723 0.432343 0.097382
0.852295 0.430145 0.080750
0.895630 0.426178 0.071991
0.935577 0.423126 0.067291
0.967896 0.425049 0.057068
0.010559 0.415985 0.162231
0.020569 0.425995 0.169220
0.032593 0.435486 0.173492
0.059326 0.438171 0.173920
0.094604 0.436768 0.173676
0.128387 0.434753 0.180115
0.155365 0.437958 0.177246
0.182373 0.439056 0.185669
0.211884 0.439331 0.191650
0.241394 0.442535 0.182190
0.264984 0.444855 0.193237
0.289978 0.448608 0.192841
0.321716 0.449219 0.191040
0.357666 0.448120 0.186890
0.378296 0.453552 0.189301
0.412750 0.450592 0.199615
0.438660 0.452942 0.204224
0.460907 0.457977 0.204346
0.490784 0.460541 0.197021
0.522919 0.462555 0.186646
0.554962 0.464233 0.178101
0.587616 0.465271 0.171661
0.621704 0.464050 0.172974
0.661041 0.463928 0.154633
0.699799 0.462830 0.142792
0.737396 0.463379 0.125244
0.775146 0.464325 0.105072
0.815430 0.462341 0.093994
0.858032 0.460175 0.077393
0.901520 0.456360 0.067230
0.941254 0.453705 0.060791
0.972107 0.456604 0.049164
0.013763 0.447144 0.159485
0.019348 0.457520 0.176453
0.033386 0.465118 0.185333
0.043915 0.474884 0.192291
0.072632 0.476257 0.194427
0.112701 0.471802 0.197052
0.143921 0.474304 0.186401
0.174347 0.475525 0.184845
0.204315 0.475128 0.193573
0.235809 0.476013 0.190765
0.265228 0.476715 0.194763
0.291077 0.479309 0.198364
0.316254 0.482849 0.198486
0.348969 0.482941 0.196808
0.377136 0.485168 0.196014
0.410706 0.484344 0.196930
0.441925 0.483643 0.203827
0.464264 0.488007 0.207306
0.493286 0.489716 0.206970
0.523407 0.492126 0.199921
0.554932 0.495209 0.185150
0.586823 0.497742 0.172516
0.621490 0.497223 0.168732
0.660797 0.497070 0.150360
0.698486 0.497589 0.132629
0.739929 0.495361 0.119537
0.779602 0.495056 0.101013
0.822266 0.491455 0.092102
0.862061 0.490875 0.074707
0.902985 0.489807 0.056702
0.943207 0.486877 0.050842
0.975830 0.487640 0.045532
0.014557 0.478302 0.163330
0.021912 0.488708 0.175232
0.030731 0.498962 0.184204
0.044250 0.507111 0.191620
0.053833 0.516357 0.203735
0.084045 0.515076 0.216522
0.128082 0.511536 0.203369
0.162231 0.512024 0.195526
0.194763 0.511932 0.195404
0.226746 0.511292 0.199310
0.257782 0.511810 0.199982
0.290771 0.510925 0.202606
0.315552 0.514801 0.202332
0.340424 0.518188 0.204224
0.372833 0.518982 0.199432
0.405609 0.518738 0.199432
0.440002 0.516663 0.204956
0.465210 0.519989 0.206390
0.493439 0.521790 0.207642
0.523315 0.524323 0.200592
0.554169 0.526337 0.193481
0.585999 0.529846 0.175751
0.620422 0.531128 0.163116
0.659698 0.530945 0.144714
0.699066 0.530090 0.130188
0.739044 0.529419 0.112701
0.781342 0.527191 0.097198
0.823792 0.524109 0.086029
0.865631 0.522308 0.069397
0.905518 0.521210 0.054657
0.942017 0.522675 0.035248
0.975769 0.522552 0.031799
0.013000 0.509521 0.173126
0.021851 0.520905 0.175934
0.031464 0.531403 0.181366
0.040985 0.542053 0.186066
0.051270 0.552338 0.191040
0.060120 0.558411 0.222137
0.097382 0.556641 0.217987
0.147095 0.549530 0.208588
0.184418 0.547760 0.204285
0.215363 0.548340 0.204865
0.247864 0.548584 0.202850
0.280396 0.547882 0.205780
0.314545 0.546539 0.207886
0.336060 0.552155 0.206909
0.369385 0.553223 0.198486
0.401398 0.553619 0.196991
0.433899 0.552948 0.199860
0.465424 0.551697 0.208862
0.493103 0.555084 0.203125
0.521912 0.558105 0.196167
0.553986 0.559692 0.188141
0.586395 0.561096 0.180298
0.619812 0.563904 0.161987
0.658783 0.563904 0.143768
0.698242 0.562897 0.129486
0.739288 0.561279 0.114075
0.782471 0.558960 0.096558
0.821960 0.558716 0.078247
0.863983 0.557220 0.059937
0.905334 0.555450 0.044617
0.945435 0.553925 0.031219
0.975128 0.559326 0.009277
0.014435 0.541321 0.171539
0.017639 0.556671 0.168671
0.027039 0.566467 0.178467
0.038116 0.574982 0.190552
0.049255 0.583710 0.201172
0.058929 0.593384 0.210846
0.070831 0.602539 0.217194
0.113403 0.597839 0.214386
0.167389 0.588043 0.207642
0.205719 0.587280 0.195221
0.242737 0.585205 0.193176
0.271790 0.585663 0.199432
0.302612 0.585266 0.205597
0.337524 0.583984 0.205353
0.365540 0.587708 0.196930
0.398041 0.587952 0.194885
0.433075 0.586761 0.193695
0.468506 0.585144 0.193726
0.499084 0.585388 0.196991
0.524231 0.588989 0.197083
0.556793 0.590332 0.188934
0.592255 0.590851 0.177795
0.626648 0.591980 0.165771
0.663849 0.592743 0.148315
0.701202 0.593414 0.130768
0.739929 0.593811 0.110931
0.780701 0.593597 0.088715
0.823914 0.591309 0.071228
0.863708 0.591339 0.050537
0.903412 0.591095 0.031311
0.943970 0.590179 0.013794
0.983887 0.588837 0.000031
0.003357 0.582886 0.151886
0.021637 0.588226 0.161285
0.023865 0.602631 0.166046
0.033813 0.611420 0.179657
0.045776 0.619232 0.193146
0.055481 0.628906 0.202850
0.064240 0.640198 0.206543
0.077515 0.649323 0.209351
0.121338 0.643463 0.209167
0.174744 0.633087 0.206909
0.226654 0.626068 0.191010
0.261597 0.625580 0.186462
0.294434 0.625000 0.187805
0.332184 0.622650 0.185333
0.362274 0.625916 0.173920
0.396271 0.623657 0.181122
0.428436 0.624634 0.176392
0.462769 0.624542 0.171265
0.497620 0.622620 0.174530
0.530487 0.622314 0.174500
0.556885 0.625580 0.172791
0.590393 0.626190 0.166107
0.625763 0.626007 0.158569
0.667236 0.625732 0.134766
0.706268 0.626068 0.114594
0.746948 0.625641 0.094055
0.788727 0.625183 0.070679
0.829498 0.624969 0.048462
0.869598 0.624817 0.027832
0.908661 0.624420 0.011475
0.946716 0.623627 0.000031
0.981750 0.622192 0.000031
0.000671 0.621582 0.124908
0.016388 0.625916 0.146698
0.022522 0.638092 0.152557
0.026276 0.651459 0.158600
0.038666 0.659180 0.171234
0.053345 0.666260 0.181366
0.058289 0.679413 0.185028
0.065582 0.689758 0.197754
0.088409 0.694366 0.198608
0.145325 0.682251 0.196686
0.202179 0.672058 0.184235
0.245483 0.669037 0.170349
0.285065 0.666138 0.165924
0.325836 0.662109 0.164154
0.353729 0.664307 0.164368
0.390839 0.662598 0.160095
0.429962 0.659180 0.159698
0.462280 0.661255 0.148651
0.496979 0.660278 0.147430
0.531647 0.659149 0.146790
0.563568 0.659576 0.145325
0.594360 0.661011 0.141693
0.630554 0.659760 0.137543
0.669830 0.658325 0.125977
0.709808 0.659973 0.096130
0.748322 0.660431 0.076721
0.791504 0.659058 0.054108
0.834412 0.658325 0.029083
0.872559 0.658905 0.009918
0.915436 0.655212 0.000916
0.948730 0.654907 0.000031
0.982239 0.654266 0.000031
0.000031 0.658966 0.098877
0.011017 0.665314 0.123077
0.018524 0.675842 0.134155
0.022491 0.689178 0.139618
0.029236 0.701599 0.142578
0.046600 0.707611 0.150848
0.055786 0.718292 0.156494
0.060089 0.729797 0.171021
0.068207 0.739441 0.185211
0.115509 0.733643 0.175110
0.177551 0.720276 0.165680
0.230164 0.712189 0.153534
0.269135 0.710907 0.141876
0.318115 0.702972 0.139252
0.348389 0.702881 0.145203
0.384979 0.700745 0.144623
0.423828 0.698578 0.138397
0.465973 0.695831 0.125916
0.499023 0.696991 0.117584
0.533325 0.696381 0.115204
0.567383 0.695770 0.113708
0.601501 0.695496 0.110413
0.639191 0.693695 0.105194
0.676880 0.691925 0.099884
0.712891 0.693787 0.079468
0.751862 0.695312 0.052917
0.789520 0.695557 0.036957
0.834839 0.693298 0.013458
0.875183 0.691681 0.000031
0.908691 0.691040 0.000031
0.951294 0.685791 0.000031
0.981750 0.686707 0.000031
0.000031 0.693481 0.087067
0.000031 0.708038 0.096832
0.007751 0.719208 0.103638
0.017792 0.729279 0.110138
0.027435 0.739136 0.119019
0.036346 0.751068 0.118805
0.049255 0.759705 0.125397
0.058716 0.768005 0.142822
0.066254 0.777100 0.161652
0.080048 0.787842 0.154175
0.145752 0.771973 0.148041
0.210571 0.757355 0.137726
0.263733 0.748901 0.126099
0.302338 0.747528 0.116028
0.346375 0.742981 0.108429
0.386627 0.739227 0.106537
0.424194 0.737030 0.104095
0.460602 0.735992 0.098267
0.501373 0.734253 0.084381
0.535583 0.734039 0.080383
0.570251 0.733185 0.078369
0.606903 0.731384 0.075806
0.646484 0.728699 0.070221
0.685120 0.727875 0.057281
0.718445 0.730225 0.041656
0.753204 0.732208 0.024414
0.792480 0.731750 0.007782
0.832428 0.729279 0.000031
0.874359 0.724365 0.000031
0.908813 0.723236 0.000031
0.939545 0.724060 0.000031
0.977386 0.721191 0.000031
0.000031 0.731873 0.054077
0.000031 0.749725 0.046295
0.008514 0.759430 0.058838
0.018250 0.769165 0.068085
0.027924 0.778839 0.077759
0.037537 0.788696 0.086609
0.047089 0.798767 0.094635
0.056671 0.808472 0.104340
0.064850 0.818176 0.117859
0.077362 0.827667 0.121155
0.101013 0.833740 0.111908
0.177490 0.813873 0.097839
0.246826 0.797791 0.082916
0.299011 0.790009 0.070312
0.339264 0.787506 0.061859
0.382507 0.782166 0.060699
0.423279 0.778870 0.055145
0.461609 0.777496 0.046143
0.498566 0.777008 0.036041
0.536469 0.775177 0.030426
0.574127 0.773010 0.027130
0.612396 0.770264 0.025421
0.651520 0.767120 0.023651
0.686676 0.765869 0.022400
0.725647 0.763092 0.018860
0.761108 0.762634 0.012573
0.797638 0.761963 0.004608
0.833527 0.760925 0.000031
0.872375 0.757629 0.000031
0.913544 0.753143 0.000031
0.951202 0.750366 0.000031
0.991180 0.746429 0.000031
0.000031 0.770599 0.019135
0.001373 0.787201 0.014282
0.007080 0.799377 0.021637
0.016937 0.808350 0.034637
0.026520 0.817688 0.046387
0.033325 0.828278 0.058868
0.046692 0.837097 0.063141
0.054443 0.848114 0.070892
0.062042 0.858643 0.081635
0.072601 0.867676 0.092194
0.085632 0.876801 0.095764
0.144012 0.866394 0.080292
0.222717 0.846161 0.062195
0.285370 0.833527 0.047302
0.335907 0.825378 0.041168
0.378815 0.820953 0.035736
0.418274 0.817871 0.032654
0.457703 0.815704 0.024689
0.496613 0.813263 0.019684
0.533630 0.811035 0.018494
0.576172 0.806519 0.014740
0.615662 0.803406 0.011993
0.654022 0.800507 0.010742
0.692200 0.797974 0.008209
0.729248 0.796295 0.004242
0.766235 0.793549 0.005951
0.802155 0.792053 0.004059
0.839905 0.789978 0.000031
0.878296 0.786865 0.000031
0.913483 0.785370 0.000031
0.953125 0.781616 0.000031
0.993988 0.777222 0.000031
0.000031 0.806213 0.001373
0.000549 0.822601 0.000031
0.005920 0.835785 0.002380
0.012085 0.847260 0.012085
0.023499 0.855377 0.025269
0.031555 0.865448 0.037354
0.040497 0.875946 0.044678
0.053650 0.884003 0.053650
0.059296 0.896484 0.059296
0.067322 0.906403 0.072113
0.077942 0.915649 0.081482
0.122528 0.910065 0.077667
0.195984 0.892792 0.058136
0.264923 0.877472 0.040283
0.323059 0.865417 0.034271
0.370392 0.858978 0.027710
0.413635 0.854095 0.023987
0.451263 0.852783 0.016602
0.493256 0.848450 0.013031
0.531403 0.845245 0.014252
0.571075 0.842041 0.011292
0.613220 0.837646 0.007904
0.650299 0.835602 0.005493
0.688843 0.832916 0.002808
0.731171 0.828064 0.001221
0.768524 0.825745 0.000031
0.803589 0.824097 0.001190
0.842163 0.821136 0.000031
0.882812 0.816833 0.000031
0.918152 0.815247 0.000031
0.952026 0.814453 0.000031
0.992462 0.810303 0.000031
0.000031 0.838409 0.001862
0.000031 0.854065 0.005829
0.000031 0.870697 0.004547
0.006836 0.882996 0.007843
0.016846 0.892639 0.016724
0.030701 0.900543 0.024384
0.037842 0.911713 0.033020
0.048523 0.920410 0.045258
0.059570 0.928619 0.059052
0.063843 0.942017 0.063324
0.074890 0.950531 0.075897
0.107422 0.950226 0.076599
0.174530 0.934570 0.065521
0.243561 0.919861 0.044220
0.305481 0.906403 0.035309
0.355927 0.898651 0.027435
0.400330 0.893433 0.022186
0.444153 0.888153 0.019073
0.488525 0.883942 0.008820
0.529510 0.879395 0.009308
0.567841 0.876740 0.007019
0.607117 0.874023 0.002289
0.643097 0.872620 0.000031
0.681030 0.869720 0.000031
0.724335 0.864075 0.000031
0.765991 0.859283 0.000031
0.802887 0.856903 0.000031
0.839752 0.854584 0.000031
0.881134 0.849915 0.000031
0.918427 0.847412 0.000031
0.951691 0.846924 0.000031
0.988831 0.844421 0.000031
0.009857 0.865967 0.000031
0.001129 0.886780 0.000031
0.000031 0.902863 0.005035
0.005493 0.915039 0.012573
0.015503 0.924683 0.021454
0.027985 0.934113 0.024811
0.035034 0.945343 0.033264
0.048126 0.953003 0.044434
0.063263 0.959412 0.056946
0.068878 0.971344 0.065338
0.079102 0.979034 0.084290
0.086243 0.991241 0.087280
0.135620 0.984497 0.076721
0.233368 0.955200 0.055267
0.293274 0.945282 0.033203
0.347076 0.935730 0.025787
