content/luts/vintage/vintage_02.cube
#Created by: Adobe Photoshop Export Color Lookup Plugin
#Copyright: (C) Copyright 2022 inPixio
TITLE "Retro Vintage 2"
#LUT size
LUT_3D_SIZE 32
#data domain
DOMAIN_MIN 0.0 0.0 0.0
DOMAIN_MAX 1.0 1.0 1.0
#LUT data points
0.000000 0.000000 0.000000
0.009125 0.011780 0.000031
0.025146 0.019989 0.000031
0.047516 0.025055 0.000031
0.070221 0.029938 0.000031
0.096252 0.033051 0.000031
0.130615 0.032043 0.000031
0.172241 0.027283 0.000031
0.218445 0.020172 0.000031
0.260010 0.015442 0.000031
0.283997 0.019623 0.000031
0.325897 0.014771 0.000031
0.374329 0.005981 0.002686
0.416504 0.000031 0.007812
0.448792 0.000031 0.007660
0.476929 0.000031 0.018738
0.505310 0.000031 0.029572
0.535461 0.000031 0.035492
0.568634 0.000031 0.032990
0.599915 0.000031 0.035522
0.630219 0.000031 0.040710
0.660034 0.000031 0.047333
0.690002 0.000031 0.053741
0.708618 0.006653 0.055237
0.718689 0.016724 0.061523
0.725281 0.028870 0.066437
0.725311 0.044617 0.070038
0.712952 0.065643 0.078918
0.696289 0.087677 0.094147
0.677948 0.110596 0.109192
0.657104 0.134918 0.123505
0.631989 0.161407 0.137878
0.012909 0.025726 0.000031
0.020996 0.038025 0.000031
0.035980 0.046783 0.000031
0.062256 0.049805 0.000031
0.097107 0.048279 0.000977
0.130219 0.048096 0.000031
0.164124 0.047211 0.000031
0.202148 0.043915 0.001892
0.240021 0.040527 0.004852
0.276611 0.038422 0.004272
0.307068 0.038269 0.010193
0.345795 0.034760 0.011230
0.383759 0.030945 0.016266
0.424316 0.026093 0.019501
0.464783 0.021271 0.023041
0.504822 0.016418 0.027802
0.541565 0.013641 0.030487
0.575409 0.012573 0.031799
0.609253 0.011261 0.034668
0.631805 0.014587 0.043304
0.659912 0.015259 0.051056
0.686188 0.016846 0.058838
0.712006 0.019012 0.064697
0.724060 0.028168 0.070679
0.733917 0.038025 0.079010
0.739410 0.050476 0.085022
0.738495 0.066376 0.090302
0.727081 0.085815 0.105194
0.716248 0.105743 0.115601
0.697266 0.130402 0.123199
0.678101 0.154480 0.134521
0.659546 0.176819 0.153290
0.024933 0.051849 0.000031
0.033905 0.062622 0.005585
0.049072 0.072205 0.000854
0.074249 0.075134 0.004547
0.108673 0.072479 0.012909
0.143890 0.071533 0.009949
0.180725 0.069275 0.009430
0.211731 0.069427 0.012115
0.247009 0.067261 0.015289
0.281921 0.065491 0.017670
0.318970 0.063171 0.016876
0.352051 0.061859 0.021637
0.392212 0.056885 0.026764
0.431519 0.052673 0.030151
0.471436 0.048920 0.029816
0.509155 0.045410 0.033508
0.549561 0.040253 0.039001
0.584564 0.038666 0.040070
0.618713 0.036407 0.046906
0.646027 0.037567 0.054138
0.671570 0.039185 0.063721
0.698669 0.039978 0.073639
0.725281 0.041656 0.080109
0.735046 0.052429 0.083801
0.745789 0.062439 0.088745
0.753662 0.073090 0.097992
0.753571 0.088440 0.104004
0.742706 0.107910 0.117157
0.726807 0.128845 0.136169
0.712524 0.150208 0.148438
0.692474 0.175842 0.153442
0.675720 0.198029 0.168060
0.039093 0.074249 0.014160
0.048920 0.084076 0.022736
0.063232 0.093231 0.022369
0.082458 0.100800 0.017303
0.116882 0.099182 0.020233
0.146881 0.100067 0.021515
0.182281 0.098022 0.023773
0.217041 0.096252 0.026794
0.252319 0.095093 0.024872
0.284760 0.093628 0.032013
0.323914 0.090637 0.029419
0.361664 0.087433 0.031525
0.398682 0.084595 0.033600
0.438721 0.079590 0.039368
0.477448 0.076813 0.036591
0.514526 0.073792 0.039642
0.553162 0.069885 0.043335
0.592072 0.065796 0.047089
0.625671 0.063599 0.055145
0.655762 0.063110 0.063751
0.683105 0.064362 0.070465
0.710297 0.065247 0.079407
0.735504 0.066925 0.089722
0.745941 0.076996 0.095184
0.755249 0.087067 0.103516
0.766785 0.096313 0.110596
0.770081 0.109222 0.120483
0.759857 0.128632 0.132294
0.743103 0.150208 0.150208
0.725128 0.172943 0.165100
0.707062 0.196106 0.178284
0.688599 0.220551 0.185272
0.052063 0.096741 0.031342
0.060944 0.107117 0.039459
0.075317 0.116058 0.040039
0.093170 0.123657 0.038635
0.115692 0.129486 0.033844
0.149414 0.129822 0.028107
0.184845 0.127930 0.029510
0.218933 0.126190 0.033966
0.251892 0.124634 0.040375
0.286407 0.122711 0.044556
0.325287 0.119720 0.042572
0.363922 0.116241 0.044006
0.403107 0.112183 0.046783
0.444122 0.107880 0.046021
0.481445 0.105621 0.044128
0.519012 0.102203 0.047943
0.556732 0.098511 0.052979
0.595795 0.094208 0.057281
0.628571 0.093567 0.059692
0.660370 0.091980 0.069489
0.689178 0.092316 0.077026
0.714935 0.094574 0.082550
0.740631 0.096466 0.090393
0.754547 0.103821 0.100800
0.765961 0.111816 0.114838
0.775024 0.121124 0.128082
0.785797 0.129883 0.139618
0.776703 0.148102 0.154816
0.761536 0.169373 0.170013
0.743225 0.192688 0.182678
0.725861 0.216064 0.192902
0.705017 0.240753 0.205444
0.064941 0.121735 0.035095
0.065765 0.134705 0.051086
0.082153 0.141846 0.055969
0.102386 0.147156 0.060516
0.125244 0.151184 0.064636
0.156403 0.154999 0.047211
0.187775 0.155518 0.046753
0.219849 0.155701 0.046295
0.252655 0.155365 0.046448
0.289307 0.152954 0.047455
0.325836 0.150146 0.050690
0.363403 0.147736 0.049316
0.401581 0.144775 0.049042
0.440948 0.141174 0.048950
0.479431 0.137115 0.054016
0.522705 0.131195 0.055664
0.560944 0.127411 0.059479
0.596375 0.124908 0.064178
0.630463 0.122803 0.070679
0.662231 0.121185 0.080444
0.692841 0.120270 0.089813
0.719666 0.121826 0.096375
0.742523 0.125702 0.101410
0.760376 0.131409 0.110168
0.778351 0.135956 0.124573
0.785706 0.145996 0.138763
0.785919 0.159851 0.151642
0.784332 0.173950 0.168518
0.775757 0.192719 0.178925
0.758392 0.215332 0.192932
0.741821 0.237579 0.206818
0.732483 0.256104 0.220795
0.064026 0.150665 0.055420
0.076019 0.159637 0.062378
0.085114 0.170105 0.069427
0.106354 0.175171 0.072327
0.129669 0.178619 0.078186
0.156372 0.182312 0.073517
0.191986 0.183014 0.060547
0.226562 0.182312 0.058197
0.260925 0.182129 0.053467
0.297424 0.180939 0.048248
0.329987 0.179077 0.057373
0.368256 0.175873 0.058228
0.405884 0.173492 0.056366
0.444275 0.170532 0.055298
0.484558 0.166016 0.057617
0.521545 0.162933 0.061218
0.560059 0.159393 0.063629
0.594177 0.157471 0.068665
0.629272 0.154236 0.078339
0.664734 0.151001 0.087006
0.691956 0.152435 0.092987
0.720428 0.152435 0.103241
0.745667 0.154022 0.113922
0.758728 0.162140 0.122650
0.780334 0.164764 0.137421
0.795074 0.170776 0.153076
0.796051 0.184174 0.166840
0.790955 0.200317 0.181976
0.779602 0.219818 0.196411
0.766357 0.240997 0.206696
0.748077 0.264069 0.220825
0.736664 0.283539 0.235596
0.072662 0.174622 0.076569
0.086914 0.182800 0.081726
0.093719 0.195557 0.082733
0.112579 0.201263 0.088684
0.135895 0.205231 0.091492
0.155304 0.212219 0.089142
0.196655 0.208160 0.085968
0.226624 0.211578 0.073944
0.262848 0.210602 0.068420
0.297760 0.210876 0.059570
0.333649 0.208313 0.063324
0.370880 0.206055 0.062225
0.409973 0.202637 0.061829
0.447418 0.200348 0.060089
0.485657 0.197266 0.060242
0.525299 0.192871 0.063599
0.560730 0.190308 0.068634
0.595032 0.188538 0.072693
0.632050 0.184082 0.083405
0.669891 0.180817 0.085938
0.696838 0.181335 0.097595
0.722504 0.183716 0.103027
0.750671 0.182922 0.118286
0.764984 0.189636 0.131073
0.781036 0.195587 0.143463
0.798065 0.199707 0.162750
0.805145 0.209595 0.178467
0.799622 0.226074 0.193054
0.789459 0.244873 0.207794
0.776550 0.263947 0.228790
0.759430 0.287201 0.238983
0.743439 0.309174 0.252625
0.088257 0.196259 0.090637
0.100739 0.204987 0.097839
0.109650 0.216797 0.098145
0.117371 0.228790 0.101044
0.144836 0.229706 0.109161
0.158203 0.240417 0.103180
0.195679 0.238190 0.100922
0.233032 0.236176 0.097778
0.261353 0.240234 0.086639
0.293274 0.241791 0.079102
0.332397 0.238922 0.075745
0.370575 0.236847 0.070648
0.410370 0.234161 0.064514
0.449097 0.230896 0.064301
0.484253 0.229614 0.063507
0.523254 0.225739 0.066101
0.562073 0.221252 0.072235
0.595642 0.219666 0.077209
0.635162 0.214264 0.086273
0.673676 0.210785 0.087830
0.703857 0.210602 0.094482
0.727997 0.211975 0.109253
0.755402 0.212585 0.119110
0.772736 0.217133 0.135803
0.787842 0.223145 0.150146
0.800476 0.230194 0.165924
0.809937 0.237640 0.188049
0.807617 0.252289 0.203705
0.798126 0.270477 0.220001
0.787476 0.288940 0.237946
0.774994 0.307312 0.261383
0.756592 0.331421 0.270325
0.093628 0.225952 0.089966
0.100861 0.236206 0.103241
0.115326 0.244720 0.105957
0.128632 0.253754 0.109283
0.140991 0.262299 0.117462
0.166229 0.266296 0.115387
0.192902 0.270081 0.110046
0.223297 0.271484 0.108032
0.256226 0.271545 0.105835
0.296356 0.269135 0.097351
0.336395 0.267212 0.086304
0.372284 0.266663 0.079193
0.408417 0.265625 0.074341
0.447449 0.262634 0.071747
0.482300 0.261047 0.073212
0.520264 0.257782 0.075256
0.559692 0.253021 0.081268
0.597565 0.248901 0.088257
0.628815 0.249786 0.086121
0.664429 0.246063 0.096802
0.696655 0.244385 0.105865
0.726593 0.243469 0.117218
0.756989 0.241486 0.132812
0.775970 0.245270 0.148743
0.790314 0.251404 0.164764
0.801392 0.259064 0.181396
0.809692 0.267761 0.199951
0.815948 0.277039 0.221375
0.804352 0.295685 0.241028
0.792664 0.315369 0.255280
0.781799 0.334869 0.268188
0.770264 0.354187 0.283997
0.105988 0.248047 0.110779
0.110107 0.261017 0.118073
0.118256 0.272217 0.123718
0.132904 0.280792 0.125702
0.148071 0.288361 0.131622
0.172729 0.291779 0.134033
0.194977 0.297821 0.128937
0.223663 0.300049 0.126617
0.257111 0.300110 0.122894
0.297943 0.298431 0.108704
0.332855 0.299591 0.095032
0.370270 0.298553 0.086914
0.404602 0.298584 0.080902
0.441193 0.297241 0.076263
0.485352 0.291687 0.073730
0.522766 0.287872 0.080139
0.561432 0.283997 0.083374
0.599091 0.280029 0.089783
0.630707 0.279022 0.097107
0.665680 0.275269 0.109833
0.692657 0.276062 0.120209
0.721649 0.275696 0.131012
0.754669 0.272552 0.145691
0.770050 0.278320 0.160797
0.787415 0.282776 0.177429
0.802124 0.288757 0.193146
0.812714 0.296844 0.208801
0.814941 0.309326 0.223816
0.815887 0.321259 0.245239
0.805237 0.338684 0.268738
0.794281 0.357849 0.283844
0.782532 0.378479 0.293335
0.108185 0.275543 0.130188
0.113037 0.289490 0.129974
0.120239 0.301514 0.133789
0.131836 0.311066 0.139282
0.148621 0.317993 0.144287
0.171234 0.322632 0.145660
0.199738 0.324860 0.143829
0.226776 0.328491 0.138611
0.257690 0.329773 0.135376
0.294342 0.330292 0.120667
0.328674 0.330811 0.112122
0.364807 0.331543 0.097626
0.403168 0.330048 0.088928
0.440216 0.328918 0.081848
0.484283 0.323120 0.080872
0.522003 0.320496 0.080383
0.559235 0.316681 0.087250
0.597778 0.312622 0.091614
0.633240 0.309143 0.101685
0.665649 0.306610 0.114838
0.694489 0.305481 0.130035
0.718201 0.307678 0.141724
0.750244 0.305054 0.156189
0.770233 0.308350 0.172363
0.789246 0.311920 0.189362
0.807007 0.316193 0.205750
0.820831 0.322662 0.221466
0.822723 0.335175 0.237030
0.819977 0.348602 0.260437
0.815552 0.363434 0.280823
0.805725 0.380676 0.303131
0.794800 0.400848 0.312683
0.107056 0.305511 0.145752
0.112762 0.319214 0.144653
0.120331 0.331604 0.145264
0.131226 0.341583 0.150055
0.147308 0.348175 0.158936
0.167633 0.354095 0.159515
0.195038 0.357086 0.156708
0.226227 0.359039 0.149445
0.256836 0.360809 0.144379
0.286957 0.363983 0.133118
0.324036 0.362213 0.129456
0.359283 0.363190 0.116028
0.398254 0.362335 0.102264
0.440918 0.359222 0.090546
0.484222 0.353943 0.088654
0.522522 0.350983 0.088104
0.557892 0.349518 0.087799
0.593109 0.346527 0.095825
0.631500 0.341400 0.106384
0.663208 0.338715 0.122284
0.694733 0.336823 0.134430
0.720459 0.337250 0.150055
0.747345 0.337189 0.165039
0.769592 0.339233 0.181244
0.792480 0.340881 0.198059
0.810028 0.345001 0.215973
0.826050 0.349884 0.234009
0.828430 0.361389 0.254120
0.825287 0.375305 0.276001
0.818848 0.390625 0.299286
0.811798 0.406982 0.318695
0.802979 0.424988 0.334167
0.108826 0.334869 0.156372
0.114563 0.347687 0.160095
0.122986 0.359283 0.162811
0.132690 0.369751 0.168243
0.147186 0.377380 0.175507
0.165710 0.383759 0.178864
0.190460 0.388306 0.174774
0.218506 0.392303 0.165009
0.249725 0.395203 0.152191
0.277405 0.398590 0.146484
0.319244 0.393646 0.146698
0.357666 0.392822 0.134766
0.395355 0.393066 0.118561
0.437500 0.390198 0.106812
0.481537 0.385651 0.099243
0.521790 0.381897 0.097504
0.559296 0.379395 0.096527
0.593903 0.377930 0.097870
0.624939 0.375580 0.113739
0.655975 0.372467 0.134155
0.688965 0.369507 0.148132
0.721954 0.367096 0.158875
0.749023 0.366943 0.173798
0.770294 0.369751 0.188751
0.793762 0.371216 0.204865
0.813568 0.374329 0.222015
0.824677 0.381409 0.241760
0.825989 0.391815 0.270386
0.823486 0.405914 0.289398
0.817871 0.421295 0.310089
0.810211 0.437531 0.332031
0.804718 0.453278 0.350830
0.109283 0.365662 0.162903
0.107208 0.381805 0.169952
0.118683 0.391785 0.172943
0.126282 0.402802 0.181061
0.132111 0.413940 0.193848
0.150604 0.420288 0.197144
0.179077 0.423981 0.187683
0.206238 0.428345 0.178162
0.237427 0.430939 0.167206
0.277191 0.428741 0.158417
0.313782 0.426483 0.158691
0.354309 0.423645 0.151428
0.392761 0.422607 0.139893
0.431702 0.420807 0.131378
0.469666 0.419312 0.123810
0.511230 0.414703 0.123383
0.551025 0.411072 0.122162
0.588562 0.408630 0.120972
0.622620 0.406677 0.126617
0.659210 0.401489 0.142426
0.687347 0.400421 0.159454
0.715363 0.399963 0.173553
0.742432 0.399811 0.188446
0.767792 0.400909 0.201691
0.786926 0.403870 0.221313
0.806793 0.406647 0.240326
0.822113 0.411713 0.259430
0.827911 0.421051 0.281403
0.828796 0.433716 0.299011
0.826904 0.447021 0.320648
0.821075 0.461792 0.345428
0.811615 0.478424 0.369873
0.111755 0.393738 0.178680
0.115631 0.406189 0.189240
0.121307 0.419342 0.191132
0.130402 0.430695 0.193390
0.133972 0.443359 0.203796
0.151794 0.449066 0.212494
0.169647 0.456543 0.211639
0.200470 0.460052 0.196686
0.230743 0.462982 0.186707
0.270294 0.460297 0.181213
0.308014 0.458282 0.177063
0.347046 0.455841 0.171600
0.387970 0.453125 0.162445
0.427795 0.450684 0.154938
0.467499 0.448792 0.144806
0.506897 0.446289 0.138641
0.544617 0.443024 0.141449
0.582062 0.440338 0.141815
0.617798 0.437897 0.145416
0.656860 0.432556 0.155273
0.686829 0.431396 0.167786
0.712646 0.431915 0.182465
0.739594 0.431793 0.197754
0.762573 0.432770 0.217712
0.782867 0.435608 0.234985
0.801178 0.438751 0.256195
0.818695 0.442596 0.275726
0.828918 0.450165 0.295471
0.835236 0.460266 0.312164
0.828827 0.476624 0.329773
0.823700 0.490723 0.356140
0.815765 0.505554 0.386139
0.118866 0.419067 0.196411
0.121796 0.432617 0.203888
0.134460 0.441620 0.208862
0.145325 0.451691 0.213104
0.148773 0.465759 0.216309
0.160675 0.474640 0.224426
0.180298 0.480133 0.229401
0.202026 0.485931 0.227112
0.232300 0.489624 0.212585
0.267181 0.488831 0.209534
0.301056 0.489319 0.202545
0.340179 0.486938 0.196625
0.380402 0.484650 0.187134
0.422089 0.481201 0.179871
0.463135 0.478485 0.170563
0.503754 0.475067 0.165894
0.538605 0.474976 0.159729
0.573914 0.472595 0.164062
0.611084 0.469391 0.167816
0.646027 0.466919 0.173676
0.684143 0.462128 0.183319
0.710327 0.463013 0.195343
0.737579 0.462708 0.210571
0.763519 0.461823 0.232330
0.780945 0.465607 0.252808
0.799438 0.468903 0.272705
0.815887 0.473206 0.292694
0.826691 0.480988 0.309570
0.836639 0.488251 0.331268
0.837738 0.500732 0.349335
0.828430 0.518250 0.368591
0.823364 0.531403 0.399811
0.133575 0.440826 0.212738
0.135895 0.455170 0.217499
0.145905 0.466095 0.219543
0.161774 0.472992 0.227173
0.175507 0.480652 0.236755
0.179047 0.494781 0.239258
0.195770 0.501526 0.245239
0.217468 0.506531 0.247101
0.242340 0.510681 0.245026
0.270081 0.514099 0.239349
0.300720 0.516296 0.232056
0.336823 0.515594 0.225281
0.374664 0.514099 0.217834
0.414337 0.512268 0.207642
0.454803 0.509125 0.201843
0.497284 0.504791 0.197388
0.534363 0.502869 0.194336
0.565186 0.504456 0.190002
0.603607 0.500397 0.195007
0.634796 0.500214 0.199005
0.669922 0.497375 0.206177
0.706268 0.493652 0.215088
0.733582 0.493378 0.230103
0.764069 0.490448 0.250458
0.784729 0.492798 0.269623
0.799530 0.497559 0.291626
0.816620 0.501526 0.311768
0.823975 0.511658 0.325043
0.834625 0.518005 0.350372
0.838928 0.528015 0.372772
0.837524 0.541382 0.392883
0.833771 0.555847 0.413422
0.161407 0.456543 0.225403
0.171112 0.466248 0.235107
0.175446 0.480408 0.235382
0.183044 0.491852 0.241241
0.194550 0.499664 0.255768
0.209137 0.508179 0.258209
0.220673 0.517700 0.263702
0.235352 0.526428 0.264954
0.253357 0.534088 0.262482
0.276672 0.538910 0.261139
0.309479 0.538727 0.260529
0.345337 0.537659 0.256439
0.380341 0.537476 0.249817
0.411438 0.539734 0.241180
0.442383 0.540314 0.241760
0.486481 0.536011 0.232391
0.527985 0.532410 0.226532
0.564056 0.530670 0.225281
0.598602 0.528748 0.229462
0.629517 0.528320 0.235352
0.662048 0.526672 0.243317
0.695343 0.524811 0.250824
0.725677 0.524902 0.255585
0.756683 0.522552 0.271454
0.783417 0.522705 0.285767
0.801544 0.526154 0.305786
0.813599 0.531891 0.329987
0.824738 0.540009 0.344177
0.834076 0.546814 0.370087
0.838501 0.556793 0.392487
0.838745 0.569427 0.412048
0.838562 0.581909 0.433380
0.191254 0.471436 0.237274
0.197937 0.483704 0.241211
0.204590 0.494659 0.252136
0.210968 0.506836 0.257507
0.221558 0.515564 0.269623
0.235687 0.523590 0.276398
0.249725 0.531555 0.283356
0.262177 0.540741 0.288116
0.277191 0.549286 0.289093
0.297241 0.555176 0.290924
0.324951 0.558472 0.285614
0.352783 0.561005 0.284088
0.382080 0.563385 0.279266
0.409119 0.567291 0.272522
0.443054 0.565796 0.276093
0.484070 0.562012 0.272339
0.527069 0.558289 0.263306
0.564056 0.556458 0.260193
0.595551 0.555847 0.265656
0.623901 0.556091 0.274750
0.654388 0.556213 0.279053
0.687286 0.554443 0.286774
0.719635 0.553040 0.293945
0.747833 0.553162 0.304352
0.774872 0.553619 0.316193
0.797333 0.556000 0.330200
0.812042 0.560944 0.351715
0.822144 0.568024 0.373962
0.834564 0.574738 0.392059
0.840363 0.584473 0.412048
0.841919 0.596252 0.432434
0.842804 0.607391 0.458374
0.221039 0.486053 0.250763
0.229492 0.496796 0.258087
0.236938 0.508423 0.263245
0.245789 0.518280 0.274384
0.255859 0.527832 0.283447
0.266052 0.538025 0.289062
0.282410 0.544525 0.297455
0.298279 0.551025 0.307251
0.310181 0.560638 0.311066
0.324982 0.569000 0.314087
0.346558 0.574402 0.314453
0.368622 0.579865 0.312836
0.393005 0.584167 0.311035
0.417572 0.588989 0.306274
0.452423 0.587433 0.307465
0.488892 0.585449 0.306763
0.525635 0.584198 0.300964
0.562897 0.582733 0.295593
0.594025 0.582275 0.301178
0.623077 0.583740 0.302002
0.650879 0.584198 0.311584
0.681824 0.583801 0.317261
0.714722 0.581635 0.327118
0.741272 0.582642 0.337250
0.764618 0.584717 0.350311
0.789490 0.586700 0.360016
0.808899 0.590454 0.374878
0.821930 0.596252 0.396149
0.831909 0.604340 0.413300
0.839386 0.612854 0.435730
0.846252 0.622467 0.453339
0.852509 0.630737 0.479828
0.253998 0.498779 0.265503
0.261688 0.509491 0.275208
0.270691 0.519653 0.284088
0.279846 0.530060 0.291229
0.292969 0.537872 0.301697
0.300049 0.549774 0.306366
0.316345 0.556946 0.311523
0.331146 0.563660 0.322937
0.349365 0.568970 0.332794
0.358887 0.580017 0.335480
0.373901 0.588562 0.336700
0.390869 0.595428 0.341553
0.412506 0.600616 0.342682
0.435944 0.605347 0.341614
0.469055 0.605072 0.340546
0.500214 0.605865 0.339325
0.530853 0.606628 0.339600
0.562256 0.608154 0.333923
0.595215 0.606995 0.338043
0.625336 0.608246 0.337280
0.651947 0.610596 0.339996
0.677856 0.612213 0.348694
0.709381 0.610687 0.359100
0.735107 0.612152 0.368774
0.757782 0.615112 0.379059
0.781250 0.616943 0.393280
0.804016 0.619965 0.402863
0.820923 0.624725 0.419281
0.833130 0.632385 0.432770
0.838959 0.641754 0.454529
0.844482 0.650696 0.479523
0.860382 0.654846 0.501892
0.293304 0.508087 0.281403
0.297638 0.520538 0.290802
0.305237 0.530914 0.302338
0.314362 0.540527 0.313843
0.324554 0.550079 0.322876
0.334229 0.559784 0.332581
0.351044 0.567078 0.335480
0.364502 0.575134 0.343506
0.375916 0.583405 0.356079
0.396240 0.588531 0.361206
0.406097 0.600250 0.359161
0.418579 0.609192 0.365173
0.436554 0.615051 0.372681
0.462921 0.617645 0.374756
0.489929 0.620361 0.374451
0.513550 0.624878 0.373779
0.537415 0.628845 0.375854
0.563934 0.630829 0.380615
0.601227 0.628662 0.378448
0.632202 0.628784 0.381348
0.657349 0.631653 0.385254
0.680145 0.635620 0.389954
0.702118 0.639496 0.397003
0.728149 0.641235 0.404816
0.751556 0.644775 0.409882
0.775818 0.647186 0.418854
0.801392 0.647827 0.433777
0.818573 0.652863 0.447937
0.834534 0.659210 0.458069
0.843475 0.667389 0.477997
0.848785 0.676117 0.504456
0.858612 0.682892 0.529449
0.325226 0.518768 0.310303
0.345856 0.524231 0.312714
0.352966 0.535126 0.322723
0.358185 0.546387 0.336029
0.363800 0.557739 0.347748
0.384460 0.564453 0.343323
0.391510 0.574066 0.360504
0.402069 0.583832 0.367401
0.411011 0.594299 0.374817
0.423431 0.603577 0.379272
0.437317 0.610992 0.389618
0.455261 0.617065 0.396179
0.472290 0.623444 0.403351
0.490265 0.630310 0.405396
0.509796 0.637177 0.403412
0.528107 0.643219 0.408813
0.551575 0.647705 0.408752
0.578278 0.650238 0.410645
0.607666 0.650269 0.418274
0.634918 0.651978 0.422760
0.654755 0.657410 0.427460
0.677429 0.661865 0.429626
0.707428 0.663025 0.429626
0.727051 0.667480 0.440155
0.751953 0.670380 0.444580
0.773743 0.674438 0.451416
0.795135 0.677612 0.463959
0.813843 0.681549 0.479645
0.831635 0.687164 0.489075
0.845703 0.693390 0.505432
0.855408 0.700958 0.526276
0.866241 0.708740 0.543152
0.360199 0.530212 0.326294
0.375061 0.536713 0.338867
0.385986 0.545380 0.350952
0.395264 0.555176 0.360992
0.401031 0.566498 0.372437
0.416016 0.575806 0.369598
0.430389 0.583313 0.378113
0.437805 0.593781 0.389496
0.447815 0.603790 0.396454
0.460693 0.612091 0.404785
0.474152 0.619751 0.415100
0.485352 0.628906 0.423248
0.503448 0.634888 0.429962
0.518677 0.643005 0.433014
0.539551 0.647705 0.438751
0.551483 0.656738 0.445862
0.569092 0.663696 0.448273
0.592133 0.668640 0.447021
0.613739 0.672791 0.453705
0.634064 0.677704 0.459869
0.663483 0.679047 0.460449
0.682617 0.685028 0.464386
0.710785 0.687012 0.464752
0.729401 0.692596 0.472107
0.747437 0.697723 0.483307
0.770874 0.701294 0.488251
0.791138 0.705505 0.498169
0.810303 0.709503 0.512543
0.828308 0.714966 0.522156
0.844330 0.720612 0.536163
0.857788 0.726624 0.555084
0.870728 0.733734 0.569672
0.399750 0.538513 0.347137
0.409393 0.547638 0.359802
0.419617 0.556854 0.370392
0.427673 0.566681 0.383759
0.439087 0.575592 0.392670
0.449677 0.586151 0.395142
0.462860 0.594269 0.403778
0.474213 0.603119 0.413483
0.483307 0.613739 0.419556
0.497955 0.620544 0.431152
0.509827 0.628998 0.441406
0.523621 0.636597 0.450775
0.533539 0.646484 0.458771
0.547302 0.655212 0.462433
0.564514 0.661041 0.472046
0.581268 0.667023 0.482086
0.592651 0.676514 0.488403
0.611755 0.683472 0.486908
0.628754 0.690613 0.490234
0.646942 0.696899 0.494873
0.664673 0.703644 0.498322
0.694794 0.704407 0.500092
0.717651 0.708282 0.505005
0.735046 0.714813 0.510254
0.752899 0.720490 0.519104
0.769775 0.726624 0.528534
0.790771 0.730957 0.535889
0.809052 0.735809 0.548065
0.827881 0.740723 0.558197
0.841583 0.748230 0.568481
0.857239 0.753876 0.583618
0.872742 0.759766 0.597595
0.440857 0.544189 0.377594
0.447083 0.556000 0.385345
0.457520 0.565674 0.392883
0.466217 0.576385 0.399536
0.475891 0.586060 0.409210
0.485565 0.595734 0.418884
0.498322 0.603943 0.428101
0.509125 0.613007 0.438049
0.518982 0.622589 0.447632
0.530762 0.631348 0.456390
0.541229 0.640656 0.466217
0.554932 0.648285 0.475861
0.568268 0.655945 0.486420
0.578278 0.665436 0.496185
0.588287 0.674927 0.505920
0.604645 0.681305 0.515076
0.619659 0.688751 0.522003
0.633423 0.697571 0.525269
0.652313 0.704285 0.525909
0.671021 0.710358 0.530212
0.685638 0.718536 0.534485
0.701904 0.725677 0.539581
0.728912 0.726624 0.548889
0.744293 0.734436 0.552887
0.761902 0.740631 0.559631
0.779877 0.746338 0.567993
0.795502 0.753387 0.575531
0.811218 0.759979 0.585144
0.828705 0.765594 0.595459
0.844025 0.772552 0.604431
0.856384 0.780853 0.614136
0.874237 0.786560 0.622894
0.469147 0.557312 0.402863
0.477692 0.568909 0.405334
0.493317 0.575043 0.418182
0.503937 0.583740 0.430420
0.507477 0.596405 0.440796
0.517151 0.606079 0.450500
0.529144 0.615540 0.454865
0.538116 0.626038 0.462097
0.545349 0.637085 0.471222
0.555206 0.646667 0.480835
0.568726 0.654236 0.491302
0.583221 0.661407 0.501129
0.596436 0.668915 0.512817
0.605896 0.677887 0.526855
0.619537 0.685425 0.537445
0.631714 0.694733 0.542175
