content/luts/vintage/vintage_12.cube
#Created by: Adobe Photoshop Export Color Lookup Plugin
#Copyright: (C) Copyright 2022 inPixio
TITLE "Retro Vintage 12"
#LUT size
LUT_3D_SIZE 5
#data domain
#LUT data points
DOMAIN_MIN 0.000000 0.000000 0.000000
DOMAIN_MAX 0.903226 0.903226 0.903226
0.000000 0.000000 0.000000
0.209045 0.000031 0.045898
0.412018 0.000031 0.107910
0.610657 0.000031 0.182037
0.833038 0.000031 0.191559
0.114349 0.142822 0.133331
0.232483 0.194916 0.147461
0.485107 0.184662 0.129395
0.739319 0.163971 0.162964
0.898102 0.181732 0.250305
0.170105 0.319244 0.246002
0.228027 0.396271 0.290894
0.432404 0.419373 0.225067
0.707611 0.401947 0.183868
0.895325 0.401306 0.291504
0.228455 0.501709 0.319397
0.332733 0.551208 0.385498
0.405426 0.623749 0.414032
0.616577 0.638977 0.372437
0.842438 0.631317 0.413239
0.469635 0.580597 0.449921
0.554871 0.642914 0.498962
0.631256 0.706146 0.567108
0.709534 0.772156 0.615417
0.825714 0.819153 0.662537
0.000122 0.021118 0.112335
0.126801 0.060394 0.171600
0.378479 0.045288 0.182281
0.659149 0.017151 0.183624
0.852417 0.032440 0.190552
0.115875 0.172180 0.197327
0.236755 0.217133 0.242310
0.421417 0.231659 0.276825
0.707214 0.206268 0.249390
0.914062 0.214478 0.257019
0.212769 0.328613 0.305359
0.319061 0.379639 0.357635
0.430573 0.435883 0.367432
0.696014 0.428314 0.300018
0.918304 0.427582 0.313629
0.244141 0.525726 0.373779
0.351776 0.575958 0.426544
0.465851 0.625641 0.464722
0.625092 0.662262 0.449860
0.865479 0.658417 0.430695
0.490784 0.610199 0.459167
0.567017 0.674042 0.524506
0.658325 0.729919 0.591766
0.731873 0.796143 0.651794
0.846283 0.846252 0.687012
0.000031 0.058960 0.135315
0.000031 0.140686 0.312805
0.271912 0.106445 0.370697
0.561707 0.079590 0.340424
0.728088 0.119110 0.290131
0.058167 0.219452 0.326965
0.125732 0.289307 0.383789
0.338501 0.286896 0.432343
0.607086 0.265106 0.432465
0.808350 0.283600 0.400360
0.134033 0.391815 0.406769
0.221405 0.449341 0.475525
0.431488 0.456421 0.480591
0.607910 0.477814 0.500610
0.859161 0.468872 0.479248
0.248749 0.548950 0.462250
0.331726 0.610657 0.520935
0.509460 0.629547 0.550598
0.628723 0.680725 0.566864
0.850800 0.687744 0.539337
0.506409 0.636810 0.499695
0.571686 0.706665 0.562714
0.672272 0.758423 0.626465
0.772980 0.810822 0.686707
0.866577 0.870361 0.727905
0.000031 0.092743 0.179657
0.000031 0.177124 0.343109
0.061005 0.240173 0.454437
0.382111 0.185150 0.489899
0.630280 0.185486 0.426880
0.040131 0.256714 0.402069
0.107788 0.325226 0.466034
0.207062 0.381165 0.510803
0.460144 0.356659 0.567932
0.703094 0.356354 0.522949
0.156342 0.414398 0.450592
0.224487 0.480499 0.525940
0.326904 0.535522 0.567413
0.528656 0.542938 0.593292
0.737823 0.552979 0.584503
0.276764 0.566711 0.516602
0.356354 0.628723 0.582550
0.436981 0.691528 0.641663
0.629425 0.707733 0.645874
0.803192 0.730713 0.664673
0.499146 0.673462 0.548492
0.577454 0.736481 0.612762
0.649200 0.803284 0.674774
0.784912 0.839661 0.725311
0.885498 0.892944 0.781006
0.009460 0.126984 0.196045
0.077209 0.194733 0.263794
0.142365 0.263062 0.335297
0.224487 0.318604 0.429413
0.435638 0.314453 0.491669
0.136993 0.263245 0.328644
0.207611 0.328949 0.399261
0.274261 0.397461 0.465912
0.364319 0.450989 0.549164
0.554932 0.459564 0.599213
0.273712 0.402222 0.421570
0.346558 0.466614 0.493195
0.404449 0.538910 0.563568
0.506378 0.593536 0.608459
0.653137 0.623779 0.661499
0.420776 0.538025 0.503510
0.482819 0.607819 0.575684
0.549652 0.676147 0.642761
0.625977 0.740570 0.704895
0.768677 0.777802 0.731598
0.565430 0.674866 0.586060
0.634521 0.741425 0.656403
0.701965 0.808868 0.726501
0.768036 0.877960 0.791565
0.901733 0.918671 0.824554
