content/luts/vintage/vintage_08.cube
#Created by: Adobe Photoshop Export Color Lookup Plugin
#Copyright: (C) Copyright 2022 inPixio
TITLE "Retro Vintage 8"
#LUT size
LUT_3D_SIZE 8
#data domain
#LUT data points
DOMAIN_MIN 0.000000 0.000000 0.000000
DOMAIN_MAX 0.903226 0.903226 0.903226
0.000000 0.000000 0.000000
0.075409 0.027283 0.000031
0.180298 0.039581 0.000031
0.297424 0.045593 0.000031
0.407990 0.053772 0.006714
0.487335 0.075958 0.022949
0.561676 0.099945 0.043396
0.629181 0.127106 0.065613
0.078827 0.088928 0.000031
0.142090 0.118195 0.022552
0.231781 0.135010 0.039398
0.338562 0.143524 0.054565
0.439636 0.155243 0.068085
0.531982 0.169403 0.092255
0.614899 0.189728 0.108887
0.682953 0.214630 0.141510
0.136414 0.180939 0.041534
0.188995 0.213684 0.074646
0.270569 0.236786 0.080048
0.364166 0.251343 0.098389
0.461853 0.261963 0.127228
0.556763 0.274536 0.152710
0.647919 0.289001 0.178467
0.728790 0.308289 0.206207
0.185547 0.277405 0.082458
0.242584 0.307220 0.118744
0.312195 0.333069 0.142181
0.398743 0.352814 0.152191
0.493378 0.365570 0.177490
0.580719 0.380219 0.212585
0.668945 0.397064 0.233521
0.753174 0.413513 0.267548
0.267456 0.355652 0.131470
0.303314 0.396393 0.167053
0.370300 0.421295 0.202667
0.441650 0.447479 0.219391
0.527557 0.467224 0.231293
0.613129 0.484985 0.254395
0.701538 0.497620 0.297729
0.778748 0.515991 0.340424
0.329102 0.442810 0.188049
0.374756 0.477234 0.230682
0.427460 0.509949 0.263153
0.495361 0.536102 0.289825
0.565887 0.563507 0.302399
0.651642 0.581055 0.326294
0.734619 0.600922 0.345398
0.813232 0.614899 0.407806
0.400574 0.522156 0.259399
0.453857 0.552002 0.306091
0.502380 0.587158 0.336914
0.555298 0.620331 0.366547
0.619568 0.647675 0.396667
0.689667 0.673950 0.416412
0.769379 0.694244 0.442230
0.841034 0.719330 0.464050
0.478943 0.594055 0.352173
0.523041 0.630310 0.389343
0.564972 0.668579 0.421661
0.622650 0.697021 0.463654
0.674164 0.731354 0.490997
0.735291 0.760345 0.520752
0.799805 0.787659 0.550079
0.865570 0.816101 0.570312
0.029877 0.005951 0.015686
0.097778 0.033539 0.034302
0.179077 0.055969 0.044220
0.257446 0.080475 0.050995
0.356293 0.093903 0.061249
0.448761 0.110229 0.073273
0.533447 0.129883 0.088776
0.611786 0.152313 0.106903
0.093903 0.096558 0.047241
0.144958 0.131317 0.073242
0.224792 0.151947 0.096649
0.314972 0.168488 0.113983
0.405640 0.185242 0.128845
0.504181 0.198151 0.142883
0.594910 0.215393 0.154663
0.673584 0.237030 0.175903
0.159546 0.185730 0.081879
0.208679 0.220428 0.113800
0.271851 0.249969 0.134735
0.361694 0.264923 0.161438
0.455994 0.279266 0.179321
0.548553 0.294891 0.194977
0.640350 0.310425 0.213287
0.721161 0.329620 0.241699
0.213776 0.278778 0.126862
0.263916 0.312866 0.159302
0.324890 0.342957 0.183441
0.409149 0.363739 0.193970
0.496948 0.379791 0.220673
0.583252 0.395660 0.251831
0.675476 0.410187 0.274200
0.757874 0.428192 0.304993
0.288574 0.362946 0.163818
0.325165 0.402832 0.201691
0.384705 0.431763 0.236298
0.456146 0.457306 0.256287
0.540466 0.477722 0.268860
0.624512 0.495605 0.295593
0.707947 0.512512 0.329437
0.785370 0.531860 0.366272
0.345673 0.452454 0.220062
0.391052 0.488220 0.256195
0.446930 0.518677 0.292358
0.510895 0.546814 0.319122
0.580109 0.573395 0.339386
0.661896 0.594604 0.354858
0.744598 0.614685 0.373169
0.820496 0.630737 0.432373
0.423492 0.530762 0.279907
0.461884 0.567902 0.327942
0.516144 0.600128 0.358887
0.572327 0.630005 0.397095
0.633820 0.660370 0.418762
0.701508 0.687317 0.441406
0.782227 0.707825 0.463318
0.858276 0.729492 0.491547
0.495148 0.605316 0.376617
0.536896 0.642914 0.412811
0.578613 0.681580 0.443909
0.635223 0.711487 0.480743
0.690613 0.742859 0.513489
0.749847 0.772980 0.542267
0.816681 0.799988 0.566833
0.880859 0.827576 0.595978
0.044067 0.007996 0.094910
0.112427 0.035645 0.112061
0.190796 0.062256 0.107697
0.269165 0.086639 0.114838
0.352631 0.109741 0.115295
0.429657 0.134766 0.123016
0.507812 0.157532 0.139435
0.583466 0.181458 0.156769
0.109344 0.101501 0.107697
0.165833 0.133331 0.134460
0.234131 0.161652 0.148254
0.316620 0.182281 0.164551
0.400208 0.202728 0.178833
0.482605 0.224030 0.191772
0.572540 0.240967 0.207703
0.652679 0.262390 0.225983
0.172333 0.193329 0.135254
0.224579 0.224976 0.174866
0.286530 0.257568 0.182922
0.365204 0.276672 0.217834
0.447144 0.297485 0.234741
0.537659 0.313477 0.253906
0.620026 0.333984 0.271240
0.710999 0.350189 0.288208
0.234344 0.284180 0.170959
0.293091 0.313324 0.206299
0.347931 0.345520 0.236115
0.422913 0.368378 0.260620
0.494141 0.393799 0.282104
0.577515 0.411926 0.309204
0.666931 0.428955 0.325867
0.749207 0.447998 0.351471
0.314331 0.363678 0.218689
0.355316 0.402771 0.249176
0.404846 0.436981 0.282501
0.471191 0.464111 0.307739
0.548798 0.488464 0.317535
0.626892 0.507843 0.352478
0.709137 0.525696 0.384521
0.782623 0.548737 0.412231
0.375153 0.454224 0.259155
0.417175 0.490570 0.301575
0.468170 0.523712 0.336487
0.528534 0.553589 0.363464
0.594604 0.581726 0.384369
0.672943 0.604126 0.402588
0.751617 0.625000 0.427887
0.822632 0.644653 0.480682
0.440674 0.538483 0.320618
0.486755 0.572906 0.362396
0.535583 0.606934 0.398438
0.589050 0.638885 0.432953
0.647980 0.668976 0.462921
0.715942 0.696075 0.483948
0.786499 0.722992 0.499207
0.865143 0.742584 0.531433
0.513855 0.614685 0.404297
0.555267 0.652161 0.442169
0.598877 0.689087 0.477325
0.651031 0.722260 0.508820
0.706421 0.753601 0.541962
0.760895 0.785309 0.575073
0.828796 0.812225 0.597168
0.894104 0.840973 0.617065
0.059204 0.007080 0.187592
0.121674 0.039062 0.197571
0.200928 0.065063 0.193848
0.278046 0.092468 0.188354
0.356506 0.118805 0.185211
0.436768 0.143280 0.186768
0.512482 0.168915 0.194702
0.582489 0.196503 0.207764
0.119690 0.105652 0.186249
0.184662 0.133698 0.210358
0.249298 0.164795 0.219055
0.325989 0.189758 0.228088
0.407166 0.211853 0.239929
0.487122 0.234863 0.250427
0.568390 0.256683 0.263519
0.646271 0.279144 0.282440
0.182251 0.199066 0.206390
0.242493 0.227417 0.241974
0.309601 0.257355 0.250122
0.373657 0.286743 0.269806
0.452484 0.308777 0.288666
0.530060 0.331085 0.309052
0.610077 0.352753 0.326813
0.688629 0.375549 0.342010
0.247711 0.290863 0.227600
0.303619 0.321594 0.261993
0.359863 0.354034 0.286865
0.429932 0.378937 0.313934
0.497101 0.404999 0.343018
0.575439 0.427307 0.361542
0.658112 0.446838 0.382965
0.734833 0.468414 0.410217
0.323425 0.374634 0.263947
0.371643 0.408356 0.303833
0.427185 0.440094 0.333801
0.490326 0.467926 0.364075
0.557373 0.494629 0.389984
0.626129 0.519592 0.420410
0.705597 0.540497 0.443726
0.781982 0.562378 0.469910
0.396606 0.457581 0.311615
0.444061 0.492645 0.345917
0.493347 0.526245 0.383423
0.549500 0.556854 0.417816
0.609039 0.587433 0.443573
0.679169 0.614258 0.460297
0.753937 0.635529 0.493958
0.827515 0.657379 0.528107
0.465393 0.540527 0.371246
0.505981 0.578979 0.406158
0.555603 0.612152 0.444672
0.607697 0.645294 0.476654
0.667450 0.675171 0.505646
0.730499 0.704193 0.529724
0.799042 0.730713 0.552612
0.871307 0.754669 0.578827
0.526917 0.625092 0.442047
0.567444 0.664368 0.472443
0.617798 0.696869 0.513062
0.666565 0.731232 0.547394
0.720856 0.763000 0.580963
0.778046 0.794373 0.608521
0.840149 0.823822 0.632935
0.905212 0.850311 0.665741
0.073425 0.010681 0.258392
0.129730 0.044739 0.274323
0.206177 0.071320 0.275116
0.284058 0.099609 0.262817
0.361572 0.127167 0.255707
0.443970 0.150330 0.258514
0.518219 0.177277 0.263428
0.590729 0.205139 0.268036
0.140442 0.104523 0.264679
0.196228 0.137665 0.286438
0.260925 0.166412 0.307983
0.338928 0.192810 0.305298
0.415527 0.217804 0.314575
0.496185 0.241516 0.319092
0.579071 0.263702 0.325836
0.649811 0.290802 0.339508
0.202393 0.200745 0.271362
0.251709 0.236023 0.299774
0.315308 0.265198 0.321625
0.386597 0.291840 0.335999
0.460236 0.317657 0.348907
0.540497 0.338959 0.367554
0.620697 0.361237 0.381470
0.697327 0.384888 0.397400
0.260315 0.295990 0.294739
0.312378 0.328430 0.330475
0.375031 0.357819 0.354279
0.446106 0.383484 0.374359
0.511383 0.412201 0.394501
0.584229 0.436859 0.415253
0.657715 0.460602 0.439362
0.736145 0.481384 0.465942
0.336304 0.382477 0.315796
0.385315 0.415680 0.356232
0.437927 0.448944 0.386078
0.500732 0.477234 0.414856
0.568512 0.502716 0.445435
0.633545 0.530426 0.471222
0.704529 0.555634 0.494415
0.777374 0.578522 0.524750
0.411469 0.465485 0.357697
0.456909 0.500671 0.396820
0.508453 0.533508 0.432312
0.565735 0.563446 0.467438
0.622437 0.595367 0.493408
0.689911 0.621246 0.522552
0.757050 0.646851 0.553894
0.824585 0.672913 0.581940
0.485168 0.546906 0.412201
0.525696 0.585052 0.449066
0.574402 0.618286 0.489777
0.626038 0.650970 0.525482
0.681580 0.682220 0.558350
0.741455 0.712219 0.586121
0.807587 0.740295 0.606964
0.875793 0.765869 0.635681
0.543610 0.633057 0.482758
0.588409 0.669983 0.514526
0.630493 0.706543 0.555359
0.678833 0.741455 0.588135
0.733307 0.773804 0.618195
0.789093 0.805298 0.648956
0.851044 0.834106 0.677612
0.911987 0.864563 0.699585
0.085846 0.017181 0.318756
0.139435 0.050873 0.343872
0.209534 0.079865 0.349182
0.288116 0.105988 0.346466
0.367920 0.132874 0.336548
0.446686 0.158752 0.334839
0.520752 0.186401 0.336700
0.587555 0.216797 0.343292
0.158966 0.105225 0.339233
0.205811 0.141296 0.369904
0.270691 0.170380 0.389099
0.349609 0.195679 0.389862
0.428467 0.221252 0.389648
0.504486 0.247406 0.393799
0.581329 0.273041 0.398651
0.652740 0.301575 0.402924
0.217224 0.204681 0.338806
0.266113 0.238922 0.373901
0.326141 0.269226 0.399536
0.399658 0.294281 0.416748
0.476624 0.318970 0.426270
0.550873 0.344666 0.437775
0.627167 0.368835 0.451843
0.702728 0.393677 0.464386
0.274384 0.300079 0.363586
0.329681 0.331451 0.396088
0.389282 0.362701 0.418121
0.454132 0.390625 0.443146
0.525970 0.417816 0.453613
0.593689 0.444794 0.476044
0.666138 0.469818 0.496002
0.741852 0.491760 0.523895
0.345825 0.388214 0.388062
0.390533 0.424316 0.424561
0.450439 0.453857 0.454620
0.510834 0.484406 0.477722
0.576691 0.511780 0.503418
0.643799 0.539307 0.524628
0.714020 0.564728 0.548798
0.787811 0.588074 0.574036
0.426453 0.471619 0.412933
0.462799 0.510864 0.455200
0.516754 0.542542 0.490295
0.571930 0.573456 0.525635
0.633453 0.602844 0.552246
0.697754 0.630951 0.577972
0.762756 0.657776 0.608551
0.829041 0.684570 0.636261
0.493500 0.557892 0.459717
0.541504 0.592468 0.494965
0.583527 0.628693 0.537994
0.639343 0.659332 0.573456
0.693237 0.691589 0.605316
0.752075 0.721466 0.636597
0.818115 0.748260 0.664673
0.882507 0.775513 0.694550
0.553833 0.644409 0.522980
0.599701 0.678864 0.565155
0.644287 0.716278 0.594574
0.696289 0.748535 0.631653
0.745911 0.782349 0.666870
0.800781 0.814056 0.698944
0.859833 0.844421 0.727142
0.926666 0.871643 0.750824
0.090363 0.027618 0.379547
0.148315 0.059357 0.403320
0.211823 0.089386 0.420929
0.286499 0.116119 0.425537
0.366241 0.142212 0.420258
0.443573 0.168945 0.417755
0.517334 0.196777 0.419312
0.596741 0.222412 0.416962
0.172821 0.108063 0.415466
0.212585 0.147583 0.446747
0.280304 0.175690 0.463226
0.349854 0.204010 0.473572
0.428741 0.227722 0.483398
0.508057 0.254150 0.477051
0.584961 0.280090 0.479858
0.655426 0.308929 0.485016
0.237274 0.201965 0.427795
0.281281 0.239288 0.459656
0.340973 0.270386 0.481903
0.408142 0.298706 0.498840
0.484283 0.323364 0.510590
0.558014 0.351074 0.513000
0.630035 0.378296 0.522400
0.708221 0.401703 0.535553
0.299835 0.297577 0.436584
0.343933 0.334686 0.468903
0.401520 0.365723 0.497528
0.463257 0.395966 0.518799
0.531494 0.423462 0.537323
0.602875 0.449677 0.553772
0.676300 0.475800 0.565491
0.749054 0.500580 0.585999
0.362671 0.389374 0.465027
0.405670 0.427673 0.494354
0.463501 0.458710 0.521820
0.521545 0.489777 0.548737
0.584290 0.519287 0.571533
0.654083 0.545044 0.594757
0.722229 0.573334 0.609253
0.790405 0.598877 0.638214
0.433563 0.477448 0.491364
0.474518 0.515259 0.528778
0.521942 0.550659 0.561554
0.578400 0.582825 0.586884
0.641937 0.611694 0.610687
0.705841 0.639801 0.637665
0.770203 0.668365 0.660645
0.835815 0.695160 0.689972
0.502899 0.565643 0.521484
0.544708 0.602539 0.561401
0.591095 0.638153 0.595642
0.644806 0.670624 0.626984
0.699646 0.702026 0.660797
0.761688 0.730713 0.689850
0.820648 0.760834 0.719330
0.887024 0.787567 0.746735
0.571014 0.652222 0.563293
0.604034 0.691833 0.612640
0.653137 0.725647 0.649231
0.702484 0.759796 0.683258
0.754852 0.791656 0.721680
0.814880 0.821472 0.749756
0.869568 0.853485 0.781128
0.934845 0.881714 0.803528
0.100952 0.035553 0.437073
0.153778 0.069763 0.461670
0.213043 0.102356 0.476929
0.279694 0.130554 0.495667
0.356720 0.157349 0.494080
0.430878 0.184937 0.495514
0.508026 0.211517 0.494629
0.584503 0.239258 0.488983
0.180023 0.118042 0.471252
0.227936 0.152527 0.507263
0.280304 0.187317 0.530029
0.351410 0.214172 0.543701
0.422943 0.240906 0.557281
0.497437 0.268982 0.555389
0.573700 0.296509 0.551544
0.650024 0.323029 0.553131
0.247040 0.208191 0.497131
0.292603 0.245026 0.526886
0.344788 0.276855 0.565674
0.411530 0.306793 0.575256
0.483002 0.333099 0.591034
0.556122 0.360901 0.594574
0.627289 0.388580 0.603882
0.699738 0.415497 0.613464
0.307983 0.303925 0.509399
0.358459 0.337952 0.540863
0.410522 0.370544 0.576111
0.472443 0.400330 0.599213
0.536560 0.429382 0.620667
0.608215 0.456024 0.634277
0.678619 0.484070 0.643829
0.751953 0.509064 0.661621
0.374695 0.393677 0.537994
0.417328 0.431732 0.569885
0.469452 0.465179 0.600128
0.526550 0.496185 0.629883
0.592346 0.524292 0.651794
0.657990 0.551849 0.676575
0.730347 0.577911 0.691650
0.801025 0.604553 0.707550
0.440582 0.482574 0.573792
0.479645 0.522766 0.603363
0.529968 0.556305 0.638275
0.584900 0.588562 0.667236
0.646088 0.618622 0.691254
0.708862 0.647888 0.714813
0.778412 0.673798 0.738068
0.846100 0.701111 0.759064
0.499725 0.577148 0.597382
0.543152 0.612976 0.638550
0.591064 0.648224 0.670624
0.640381 0.682129 0.706299
0.695435 0.714172 0.736176
0.756775 0.743866 0.761566
0.822449 0.771210 0.787537
0.892639 0.797363 0.807861
0.568634 0.664276 0.634033
0.609680 0.700897 0.677734
0.654266 0.736725 0.715851
0.699738 0.773468 0.746399
0.753265 0.805756 0.779297
0.812592 0.835236 0.811188
0.875336 0.863831 0.838776
0.931610 0.893921 0.875824
