content/luts/vintage/vintage_03.cube
#Created by: Adobe Photoshop Export Color Lookup Plugin
#Copyright: (C) Copyright 2022 inPixio
TITLE "Retro Vintage 3"
#LUT size
LUT_3D_SIZE 32
#data domain
DOMAIN_MIN 0.0 0.0 0.0
DOMAIN_MAX 1.0 1.0 1.0
#LUT data points
0.000000 0.000000 0.000000
0.015442 0.004944 0.019379
0.027802 0.013519 0.027435
0.041901 0.021027 0.036713
0.054779 0.029358 0.045044
0.075073 0.034454 0.050140
0.088318 0.042664 0.058350
0.107391 0.048828 0.061218
0.132355 0.052551 0.061157
0.156555 0.055481 0.067139
0.183777 0.058563 0.064514
0.214478 0.058899 0.066864
0.244049 0.059601 0.070251
0.269470 0.063019 0.070618
0.300720 0.063934 0.068481
0.331451 0.064301 0.070618
0.361694 0.065674 0.068970
0.393127 0.067261 0.062714
0.430786 0.065430 0.057861
0.457031 0.068909 0.055481
0.485107 0.071960 0.050568
0.514465 0.073975 0.047546
0.542877 0.075195 0.051544
0.569885 0.077911 0.051208
0.598511 0.079956 0.050232
0.626648 0.082184 0.049408
0.652740 0.085510 0.048706
0.674042 0.091614 0.045685
0.693481 0.098541 0.043518
0.714355 0.103729 0.046692
0.735626 0.107666 0.055420
0.754944 0.111816 0.068665
0.033630 0.010986 0.022369
0.033813 0.023315 0.043823
0.046661 0.032379 0.048065
0.060089 0.040466 0.056152
0.070618 0.049744 0.065430
0.083496 0.058075 0.073761
0.111145 0.060425 0.073578
0.125824 0.068024 0.080658
0.145355 0.073883 0.083984
0.171661 0.076660 0.085266
0.197968 0.078796 0.090424
0.225250 0.081818 0.087769
0.253937 0.083527 0.088104
0.280670 0.086395 0.087891
0.311920 0.087280 0.085754
0.346008 0.086212 0.086456
0.377289 0.087341 0.083038
0.408325 0.089142 0.076752
0.443787 0.087524 0.076904
0.472290 0.090485 0.071259
0.501068 0.092072 0.072205
0.530579 0.094147 0.068695
0.558624 0.097137 0.064117
0.584229 0.101379 0.059479
0.612823 0.103394 0.058472
0.639191 0.106628 0.057281
0.663330 0.110748 0.057251
0.685547 0.115265 0.060242
0.711578 0.118134 0.061981
0.731476 0.124390 0.062012
0.751953 0.129181 0.068726
0.772491 0.132416 0.083191
0.045105 0.034485 0.038025
0.054321 0.042908 0.055573
0.061218 0.053375 0.068695
0.078796 0.060577 0.070312
0.091156 0.069397 0.077240
0.101318 0.078308 0.089691
0.127106 0.080811 0.093964
0.145264 0.088074 0.093262
0.159760 0.096008 0.099182
0.185638 0.098999 0.100525
0.213531 0.100433 0.104736
0.240082 0.102722 0.108032
0.268738 0.104797 0.106567
0.297424 0.106659 0.106415
0.328705 0.107574 0.104309
0.356232 0.110687 0.100586
0.389282 0.110321 0.100220
0.420837 0.112030 0.092896
0.456177 0.110931 0.090332
0.482483 0.114105 0.089691
0.512390 0.115936 0.086182
0.542084 0.117279 0.086029
0.570068 0.120850 0.078613
0.598694 0.124176 0.070801
0.625183 0.127014 0.071228
0.653503 0.129395 0.069183
0.677887 0.133545 0.068268
0.701447 0.137268 0.071991
0.726349 0.140778 0.073334
0.746246 0.145233 0.083130
0.766296 0.150848 0.086334
0.788788 0.153900 0.096466
0.057098 0.057098 0.057098
0.068695 0.065125 0.070465
0.080933 0.073090 0.082336
0.092377 0.082001 0.091248
0.110931 0.089172 0.090057
0.121460 0.097931 0.102234
0.143890 0.101410 0.110504
0.162384 0.107727 0.114197
0.174835 0.117920 0.113739
0.199127 0.121460 0.116272
0.228607 0.122620 0.117798
0.254852 0.124817 0.122284
0.282440 0.126984 0.123322
0.313202 0.127777 0.123230
0.343964 0.129181 0.119568
0.373108 0.131348 0.116425
0.402588 0.133759 0.111511
0.433044 0.135101 0.109192
0.467102 0.135254 0.103271
0.492889 0.138550 0.103271
0.520416 0.141663 0.099548
0.551575 0.142456 0.098297
0.579498 0.145599 0.093231
0.608582 0.148468 0.086243
0.635651 0.151794 0.082703
0.664001 0.153290 0.085236
0.691559 0.156067 0.083466
0.717072 0.158813 0.086945
0.740295 0.163330 0.087555
0.761353 0.167664 0.094666
0.776459 0.174561 0.104492
0.799835 0.178589 0.106995
0.074707 0.076996 0.075470
0.084656 0.086548 0.085022
0.096619 0.094971 0.095215
0.111053 0.102203 0.105011
0.125366 0.110077 0.111725
0.139648 0.118256 0.116882
0.159760 0.122925 0.124969
0.176819 0.129364 0.131653
0.190277 0.138275 0.135254
0.213379 0.143158 0.134064
0.242676 0.144897 0.132996
0.269012 0.147339 0.136078
0.295593 0.149628 0.139130
0.324371 0.151581 0.138031
0.353973 0.154114 0.131714
0.385315 0.155334 0.127533
0.417053 0.156311 0.123932
0.449890 0.156891 0.119202
0.477264 0.159973 0.116211
0.502472 0.163696 0.115509
0.529663 0.166962 0.111542
0.558472 0.169830 0.105560
0.589294 0.170441 0.106171
0.616760 0.173370 0.103546
0.643280 0.177094 0.099304
0.670227 0.180145 0.097290
0.699493 0.181061 0.100494
0.727966 0.182220 0.104675
0.750793 0.186829 0.105499
0.771332 0.191833 0.110748
0.790527 0.196960 0.118927
0.805817 0.206177 0.115997
0.082306 0.102814 0.089142
0.094116 0.111572 0.097900
0.104065 0.121124 0.107452
0.118561 0.128296 0.117676
0.136902 0.133759 0.126282
0.153961 0.141693 0.125122
0.171783 0.148376 0.128784
0.192932 0.153076 0.133606
0.213348 0.158325 0.137817
0.235870 0.162628 0.141357
0.254242 0.168610 0.147095
0.277435 0.172577 0.150574
0.304260 0.174988 0.152344
0.336212 0.175568 0.149872
0.361145 0.179260 0.150543
0.394379 0.180603 0.140625
0.424744 0.182587 0.135040
0.453888 0.184662 0.132294
0.484528 0.185455 0.132568
0.510529 0.189972 0.125427
0.539398 0.191895 0.124329
0.569336 0.193481 0.121887
0.599060 0.195374 0.118988
0.627869 0.196869 0.120453
0.656921 0.199097 0.117126
0.682953 0.203003 0.113068
0.707123 0.207428 0.111420
0.728088 0.212708 0.113892
0.756531 0.213837 0.118073
0.780243 0.217560 0.121552
0.802002 0.221619 0.128387
0.822693 0.226105 0.135925
0.091705 0.127869 0.102081
0.098755 0.139465 0.108612
0.109070 0.148895 0.118042
0.123291 0.156830 0.124695
0.143677 0.161652 0.131042
0.164551 0.166962 0.133698
0.186096 0.171783 0.136993
0.206909 0.177185 0.139374
0.228455 0.182037 0.142578
0.248596 0.187500 0.146240
0.267212 0.193726 0.149963
0.293671 0.195892 0.154144
0.318939 0.198639 0.158539
0.348572 0.199799 0.159454
0.375061 0.202759 0.159393
0.400726 0.207184 0.153564
0.433228 0.208313 0.147064
0.462769 0.210236 0.143951
0.494110 0.211243 0.141174
0.524902 0.212433 0.138794
0.549438 0.217621 0.131836
0.578186 0.219543 0.131226
0.607178 0.221466 0.129761
0.633942 0.225708 0.121979
0.661163 0.227875 0.124146
0.690887 0.229156 0.124023
0.717560 0.232056 0.123901
0.742249 0.235474 0.126312
0.764709 0.239716 0.130280
0.789429 0.242432 0.136047
0.810455 0.247009 0.142273
0.830078 0.251709 0.151398
0.096252 0.155823 0.112946
0.104980 0.167358 0.115112
0.116547 0.175751 0.126648
0.129913 0.184052 0.133698
0.149536 0.190033 0.135895
0.168854 0.196167 0.138245
0.194183 0.198364 0.145355
0.217010 0.202942 0.146667
0.239288 0.207794 0.147705
0.258514 0.213989 0.149994
0.283936 0.217377 0.150360
0.307251 0.221375 0.153717
0.334534 0.222839 0.159332
0.359924 0.225220 0.165253
0.385681 0.228058 0.167847
0.411774 0.232269 0.161835
0.436615 0.237366 0.154755
0.466980 0.238495 0.153748
0.497559 0.239716 0.151917
0.528076 0.241516 0.147156
0.558716 0.242828 0.144653
0.585083 0.246918 0.138641
0.614502 0.248413 0.138489
0.642517 0.252106 0.130035
0.671539 0.254333 0.126831
0.696259 0.257568 0.130035
0.724762 0.258728 0.134003
0.749756 0.261688 0.138092
0.775574 0.263641 0.144958
0.794159 0.270538 0.145447
0.816772 0.274078 0.152893
0.836121 0.278992 0.161621
0.094208 0.187927 0.119263
0.106384 0.197815 0.120789
0.118103 0.206909 0.128235
0.135437 0.212341 0.139984
0.155090 0.217957 0.144104
0.171631 0.225769 0.145050
0.196625 0.228516 0.150085
0.223145 0.230377 0.155853
0.247498 0.234955 0.152863
0.268433 0.240723 0.152557
0.298920 0.242249 0.149384
0.325256 0.245056 0.150452
0.348480 0.248932 0.154297
0.370300 0.252502 0.163452
0.394196 0.255676 0.169159
0.420410 0.259125 0.167419
0.445740 0.263184 0.164642
0.469940 0.268524 0.157837
0.498291 0.269806 0.161530
0.528320 0.271790 0.156921
0.558167 0.273895 0.152222
0.588043 0.275665 0.149170
0.619598 0.276886 0.144440
0.649750 0.279083 0.138794
0.679504 0.280762 0.136658
0.707611 0.282532 0.138336
0.730927 0.286133 0.143433
0.753510 0.289734 0.150604
0.781158 0.291199 0.155090
0.800873 0.296753 0.159637
0.818481 0.303864 0.161438
0.842377 0.306488 0.170135
0.085693 0.224976 0.116821
0.101410 0.231567 0.126434
0.110352 0.242554 0.131226
0.123535 0.251038 0.137695
0.145905 0.254303 0.147034
0.173706 0.254791 0.156616
0.198822 0.258514 0.156067
0.225739 0.260651 0.159302
0.253632 0.262360 0.162048
0.281647 0.266083 0.153625
0.311066 0.268707 0.147247
0.336243 0.272491 0.146240
0.358307 0.277344 0.148193
0.379120 0.282623 0.151062
0.401550 0.286804 0.155273
0.428833 0.288544 0.159515
0.455841 0.289978 0.166382
0.481476 0.292206 0.172394
0.507355 0.296844 0.164886
0.538269 0.297913 0.162811
0.567261 0.300446 0.158264
0.594360 0.304016 0.152985
0.620422 0.308044 0.148285
0.651672 0.308960 0.146149
0.679413 0.311035 0.147217
0.705963 0.313049 0.151886
0.732147 0.314667 0.159821
0.759979 0.315186 0.169434
0.789581 0.317841 0.162384
0.809113 0.324219 0.162811
0.824615 0.331238 0.170837
0.847839 0.333221 0.184723
0.068420 0.264862 0.123047
0.093689 0.266479 0.133545
0.104309 0.276611 0.138092
0.117798 0.285278 0.142731
0.139771 0.289398 0.148621
0.162689 0.295135 0.143219
0.192535 0.295135 0.149780
0.222260 0.295898 0.152557
0.251984 0.296509 0.156219
0.279541 0.299774 0.151642
0.310333 0.300446 0.151825
0.342987 0.301758 0.144012
0.370636 0.304474 0.141937
0.395172 0.308258 0.142914
0.417572 0.312439 0.147125
0.440002 0.316681 0.151337
0.466400 0.318756 0.155945
0.492401 0.320465 0.164001
0.518127 0.322662 0.169983
0.544769 0.325256 0.171570
0.572479 0.328552 0.166260
0.600647 0.331421 0.162048
0.629608 0.333344 0.160675
0.657318 0.336212 0.157745
0.685364 0.338470 0.156952
0.711975 0.340790 0.160034
0.737305 0.343353 0.165131
0.759674 0.348022 0.166901
0.795197 0.345612 0.170929
0.819763 0.348907 0.174225
0.837311 0.354431 0.184570
0.859131 0.357056 0.199310
0.037018 0.311371 0.132141
0.062683 0.312744 0.142609
0.082092 0.319153 0.143188
0.102539 0.324921 0.144928
0.129486 0.326813 0.149109
0.156494 0.330414 0.144073
0.181549 0.333740 0.145905
0.215088 0.331970 0.151855
0.248657 0.330627 0.155426
0.279266 0.331909 0.153168
0.307648 0.334229 0.151184
0.338287 0.336517 0.143372
0.372711 0.337524 0.131866
0.402283 0.339935 0.126282
0.429047 0.343140 0.124207
0.451782 0.345642 0.136810
0.476929 0.347992 0.143707
0.502411 0.349945 0.151611
0.525970 0.352020 0.164154
0.549286 0.355072 0.172058
0.577087 0.356689 0.175568
0.602844 0.360962 0.170319
0.631714 0.362762 0.169983
0.658905 0.365631 0.168701
0.686188 0.368652 0.165863
0.714996 0.370392 0.165955
0.742218 0.372040 0.171051
0.765503 0.375641 0.176147
0.793579 0.377350 0.178375
0.822571 0.377502 0.186371
0.843109 0.381500 0.196686
0.864471 0.384613 0.209686
0.010193 0.355530 0.141388
0.029205 0.360504 0.150909
0.050110 0.365601 0.154602
0.073395 0.370514 0.152557
0.110168 0.368225 0.152527
0.142487 0.368652 0.149963
0.172302 0.369995 0.149628
0.204529 0.369965 0.149994
0.239136 0.368134 0.153503
0.273590 0.367310 0.151917
0.304077 0.368439 0.150635
0.334015 0.370941 0.143280
0.366516 0.372711 0.133240
0.401184 0.374481 0.117065
0.431183 0.377167 0.108887
0.459564 0.378479 0.112335
0.485992 0.379456 0.123199
0.512787 0.380188 0.134308
0.534149 0.382843 0.149597
0.555725 0.386200 0.160675
0.581421 0.388000 0.168915
0.609680 0.388916 0.174896
0.634888 0.392731 0.173645
0.660248 0.395844 0.175720
0.686462 0.398895 0.175751
0.715759 0.399994 0.178101
0.745605 0.401001 0.179108
0.771088 0.402832 0.188141
0.796814 0.405426 0.191895
0.823517 0.407318 0.196838
0.845428 0.410614 0.207458
0.866821 0.414337 0.216980
0.002228 0.390808 0.147064
0.010315 0.401428 0.155914
0.025879 0.408905 0.161499
0.048737 0.412781 0.166138
0.081360 0.412781 0.165222
0.116882 0.411865 0.161285
0.153198 0.410492 0.157623
0.191040 0.408600 0.152435
0.229065 0.406647 0.146973
0.258545 0.408813 0.143066
0.293060 0.407562 0.143677
0.326447 0.407776 0.139587
0.359711 0.408417 0.133301
0.395569 0.407837 0.126648
0.426056 0.410980 0.114624
0.458862 0.412201 0.106598
0.491302 0.412445 0.104553
0.520752 0.412964 0.109619
0.543640 0.414581 0.126434
0.565430 0.417419 0.139893
0.590851 0.418915 0.150513
0.618439 0.419434 0.160400
0.646118 0.419922 0.170227
0.668335 0.423676 0.177490
0.692841 0.426666 0.182770
0.719727 0.428253 0.188660
0.750397 0.427307 0.198090
0.774963 0.430603 0.201385
0.799652 0.433807 0.204834
0.826050 0.435913 0.209473
0.851440 0.438385 0.214996
0.869293 0.444122 0.223755
0.000031 0.426025 0.137268
0.001587 0.438751 0.152496
0.008881 0.450745 0.156250
0.019287 0.460236 0.165009
0.037628 0.465424 0.175140
0.085999 0.459930 0.160767
0.129547 0.454376 0.159790
0.169952 0.451263 0.154266
0.209869 0.448700 0.147003
0.247925 0.446777 0.141541
0.281464 0.447144 0.135864
0.317810 0.445435 0.134033
0.352936 0.444122 0.133087
0.387817 0.442596 0.134064
0.423676 0.442017 0.127411
0.454712 0.445740 0.111176
0.487701 0.447052 0.101959
0.519684 0.447540 0.100189
0.547424 0.448730 0.105957
0.571625 0.448914 0.126862
0.597534 0.449890 0.138977
0.624512 0.450562 0.149780
0.650360 0.451477 0.162323
0.675415 0.452240 0.178284
0.704315 0.451294 0.192230
0.729248 0.453735 0.199341
0.753143 0.457123 0.203857
0.779327 0.459259 0.208801
0.805450 0.461487 0.213684
0.829590 0.463745 0.223633
0.852325 0.466614 0.234100
0.870178 0.472321 0.242859
0.000031 0.455719 0.150879
0.000031 0.471619 0.153534
0.003204 0.484924 0.161469
0.007935 0.497986 0.166443
0.013733 0.509094 0.179077
0.038361 0.513458 0.176331
0.094757 0.503326 0.164948
0.148895 0.492706 0.162048
0.194458 0.487427 0.154480
0.234406 0.484863 0.147247
0.273163 0.482635 0.141479
0.306854 0.482941 0.135712
0.342926 0.481445 0.133453
0.377777 0.479858 0.134918
0.413147 0.478790 0.132080
0.448456 0.477661 0.129669
0.481689 0.478973 0.120361
0.516541 0.478943 0.113464
0.550079 0.479828 0.105011
0.577515 0.480316 0.115662
0.604675 0.479431 0.134094
0.631866 0.479797 0.146088
0.657013 0.480927 0.159363
0.679108 0.483246 0.174622
0.704102 0.483978 0.190521
0.732452 0.483459 0.203918
0.754944 0.487244 0.210205
0.778473 0.490265 0.218170
0.805420 0.490540 0.231079
0.835876 0.491394 0.231445
0.859131 0.493530 0.244324
0.876160 0.498413 0.259827
0.000031 0.486298 0.160126
0.000031 0.502167 0.162994
0.000031 0.518707 0.162262
0.005829 0.530334 0.171936
0.007324 0.544098 0.181763
0.018677 0.553528 0.188568
0.059387 0.550781 0.180237
0.118805 0.538605 0.171478
0.178314 0.525970 0.164917
0.221497 0.522095 0.155731
0.258240 0.520905 0.149872
0.297729 0.517883 0.146332
0.332001 0.517609 0.142273
0.367157 0.516357 0.141022
0.402344 0.515106 0.139740
0.441620 0.511841 0.138031
0.472748 0.512604 0.137268
0.507568 0.511627 0.135651
0.543640 0.512146 0.122375
0.574127 0.513031 0.122528
0.606140 0.511261 0.132507
0.635773 0.509521 0.148987
0.661957 0.510040 0.162781
0.683868 0.512329 0.178619
0.706299 0.515045 0.191162
0.732605 0.515656 0.204193
0.758362 0.516510 0.217194
0.781494 0.518372 0.232239
0.803284 0.521576 0.243378
0.834229 0.521667 0.246521
0.863647 0.522125 0.251892
0.880554 0.525604 0.274872
0.000031 0.517853 0.163971
0.000031 0.532745 0.172089
0.000031 0.549530 0.169952
0.000031 0.565369 0.172913
0.006256 0.575806 0.187805
0.015930 0.584961 0.200256
0.046814 0.586761 0.194336
0.096954 0.579346 0.185394
0.154938 0.567505 0.178619
0.207489 0.559326 0.167419
0.244141 0.558289 0.161072
0.283295 0.555328 0.158081
0.322174 0.552063 0.157379
0.357483 0.550690 0.156494
0.392822 0.549225 0.155792
0.433044 0.545929 0.151733
0.469269 0.543762 0.152740
0.499115 0.544891 0.153381
0.532471 0.544891 0.150330
0.563782 0.546204 0.145813
0.598480 0.544830 0.146606
0.632690 0.542267 0.155029
0.663330 0.540131 0.170868
0.685913 0.541962 0.187378
0.708862 0.544037 0.201599
0.733154 0.546570 0.209686
0.760956 0.547058 0.219269
0.786835 0.545593 0.244385
0.806763 0.549591 0.256958
0.831360 0.552795 0.260437
0.860901 0.554016 0.261292
0.880676 0.555573 0.287140
0.000031 0.546387 0.183685
0.000031 0.559723 0.200287
0.000031 0.576904 0.196228
0.000031 0.593719 0.193909
0.000031 0.608337 0.203583
0.009033 0.618011 0.214844
0.032471 0.623260 0.210724
0.078064 0.618134 0.201935
0.136261 0.606506 0.193573
0.188141 0.597656 0.187531
0.232483 0.592926 0.179749
0.275208 0.588348 0.175934
0.315186 0.584534 0.175171
0.350250 0.582916 0.176575
0.386871 0.580078 0.179840
0.423279 0.579681 0.170563
0.458008 0.578430 0.170593
0.491150 0.576416 0.178833
0.531708 0.571442 0.182953
0.561523 0.573395 0.179108
0.596252 0.572968 0.174500
0.631439 0.571747 0.173492
0.661682 0.571869 0.178314
0.682770 0.574738 0.193329
0.707764 0.574432 0.214539
0.733795 0.575287 0.227051
0.760742 0.577179 0.231201
0.788544 0.577667 0.240784
0.811859 0.578979 0.258057
0.833679 0.582062 0.269989
0.855713 0.585510 0.279358
0.875031 0.589417 0.293640
0.000031 0.575470 0.200867
0.000031 0.590668 0.207184
0.000031 0.604767 0.219757
0.000031 0.621094 0.220001
0.000031 0.636414 0.225983
0.009613 0.647430 0.228577
0.038147 0.649689 0.226776
0.080872 0.645721 0.219391
0.138458 0.634247 0.211700
0.192932 0.623962 0.206482
0.231720 0.622009 0.198975
0.269379 0.619202 0.199188
0.308014 0.615723 0.200653
0.343872 0.613495 0.202606
0.379578 0.612244 0.199860
0.418427 0.609222 0.198090
0.452576 0.609192 0.193481
0.485565 0.608124 0.196991
0.525330 0.604523 0.196045
0.559723 0.601715 0.205109
0.590118 0.602875 0.204010
0.622711 0.602722 0.203735
0.651825 0.603638 0.207581
0.675934 0.606873 0.212311
0.702057 0.607941 0.223236
0.730743 0.606537 0.240814
0.759613 0.606415 0.250580
0.787415 0.606903 0.260162
0.809357 0.609497 0.274506
0.833801 0.611023 0.287567
0.855927 0.613831 0.300079
0.874817 0.617523 0.316681
0.000031 0.603149 0.225555
0.000031 0.619019 0.228424
0.000031 0.634399 0.233734
0.000031 0.648438 0.246429
0.000031 0.663910 0.251343
0.019196 0.671051 0.248535
0.064117 0.666901 0.236420
0.094025 0.668091 0.236450
0.146027 0.658875 0.231812
0.199310 0.648804 0.228943
0.235565 0.648224 0.220917
0.272766 0.646088 0.218903
0.307037 0.643951 0.225067
0.343201 0.641144 0.229370
0.380829 0.639069 0.225891
0.415894 0.638550 0.220978
0.451813 0.636505 0.221954
0.483978 0.636047 0.224792
0.521973 0.632782 0.226593
0.554474 0.632141 0.229492
0.582916 0.633636 0.231750
0.615753 0.633087 0.233215
0.646423 0.633148 0.236938
0.671173 0.636658 0.238678
0.699493 0.637268 0.246124
0.727295 0.637726 0.255676
0.756256 0.636841 0.269470
0.781281 0.638733 0.279083
0.804749 0.640930 0.291168
0.829193 0.641846 0.307770
0.851501 0.645050 0.317780
0.868561 0.649963 0.332825
0.000031 0.630371 0.252441
0.000031 0.647705 0.247650
0.000031 0.664124 0.247559
0.002167 0.678680 0.251343
0.015198 0.685242 0.268555
0.046631 0.686340 0.264862
0.087952 0.684143 0.252014
0.129456 0.680237 0.247589
0.159058 0.681030 0.250671
0.206787 0.673096 0.251099
0.242554 0.672394 0.245087
0.277222 0.671692 0.242340
0.312531 0.669678 0.244751
0.346466 0.667175 0.253876
0.384674 0.664398 0.252625
0.418060 0.664490 0.248932
0.452545 0.663544 0.247986
0.484924 0.662506 0.253021
0.520447 0.659332 0.261230
0.551666 0.659454 0.263367
0.580963 0.661011 0.263184
0.607971 0.663757 0.262878
0.644348 0.661041 0.266113
0.670929 0.663696 0.267517
0.698364 0.665100 0.272949
0.726715 0.665497 0.281433
0.754608 0.666046 0.290588
0.777405 0.669128 0.299744
0.800018 0.671875 0.311218
0.822906 0.673004 0.330811
0.848175 0.674500 0.341675
0.862457 0.682312 0.348969
0.000031 0.659210 0.270721
0.000031 0.678680 0.254303
0.017914 0.686462 0.251648
0.045227 0.687866 0.257629
0.076263 0.686646 0.267303
0.107269 0.687256 0.267914
0.130585 0.692993 0.261505
0.155792 0.696350 0.262573
0.184387 0.696869 0.269653
0.217468 0.696533 0.269318
0.253876 0.694763 0.267548
0.288452 0.693787 0.266449
0.321167 0.693207 0.268158
0.353638 0.692169 0.273193
0.388123 0.690247 0.277344
0.418427 0.691162 0.277649
0.451141 0.690857 0.278473
0.486542 0.688538 0.282104
0.518921 0.687531 0.287170
0.549744 0.687622 0.290680
0.580536 0.688049 0.292358
0.611359 0.688507 0.293823
0.641846 0.688782 0.297150
0.672424 0.688995 0.300385
0.699738 0.690643 0.305054
0.726044 0.692535 0.311493
0.752350 0.694183 0.318726
0.780518 0.695007 0.325623
0.802826 0.697845 0.337433
0.822601 0.699921 0.360260
0.842468 0.702301 0.381378
0.864075 0.708740 0.375671
0.043182 0.674530 0.243927
0.068848 0.675903 0.254425
0.085205 0.682892 0.260254
0.105682 0.687958 0.265320
0.132477 0.689697 0.270874
0.151093 0.694672 0.281372
0.171692 0.700073 0.284271
0.197601 0.703217 0.284637
0.225098 0.704895 0.288574
0.248566 0.709442 0.288300
0.269409 0.714325 0.293182
0.304108 0.713623 0.290466
0.337036 0.713135 0.291138
0.368011 0.712738 0.296783
0.400452 0.711670 0.301788
0.431335 0.710938 0.309540
0.461761 0.711700 0.310333
0.492950 0.712158 0.311279
0.518494 0.714447 0.317108
0.550903 0.713440 0.322174
0.581696 0.713501 0.325653
0.612396 0.713837 0.328247
0.642883 0.714111 0.331573
0.671356 0.715240 0.335754
0.697174 0.717529 0.341064
0.723541 0.719116 0.348480
0.750824 0.720337 0.355499
0.778259 0.723114 0.353729
0.801788 0.724640 0.369293
0.818359 0.729553 0.386108
0.835236 0.733795 0.405273
0.856964 0.738068 0.411072
0.109375 0.671661 0.251678
0.129669 0.676788 0.256805
0.143585 0.683594 0.270569
0.156891 0.691864 0.277832
0.180237 0.695740 0.281433
0.200409 0.699951 0.291748
0.217133 0.706818 0.297089
0.237762 0.712036 0.300903
0.263550 0.714539 0.305054
0.283112 0.720428 0.307922
0.304535 0.724396 0.316193
0.327698 0.728302 0.320099
0.359222 0.729248 0.317108
0.388245 0.730438 0.319824
0.417786 0.730652 0.326080
0.445038 0.731445 0.335358
0.473358 0.732422 0.340881
0.503448 0.733673 0.339874
0.531494 0.735535 0.341492
0.558411 0.736877 0.348663
0.586823 0.737610 0.355438
0.615906 0.738129 0.361389
0.645172 0.738525 0.367371
0.672150 0.740326 0.372192
0.700104 0.740967 0.380432
0.724762 0.744385 0.382721
0.751068 0.746124 0.389648
0.776001 0.748566 0.396637
0.798584 0.751801 0.405548
0.819183 0.754700 0.421875
0.835846 0.759308 0.439514
0.858124 0.761993 0.452423
0.172363 0.668365 0.270538
0.187134 0.676575 0.274292
0.200500 0.684998 0.280579
0.213470 0.692902 0.290771
0.231354 0.699402 0.294983
0.250397 0.704285 0.304901
0.264618 0.712067 0.312561
0.282196 0.718384 0.318878
0.303894 0.722626 0.324646
0.322388 0.728333 0.331604
0.343994 0.731995 0.341095
0.364197 0.737488 0.344452
0.387939 0.741150 0.348083
0.414215 0.744385 0.346802
0.439178 0.746582 0.355072
0.465820 0.748322 0.361084
0.491577 0.749756 0.371246
0.517059 0.752869 0.373108
0.545746 0.754974 0.371429
0.571533 0.757355 0.376343
0.599670 0.757050 0.389069
0.624390 0.759491 0.396545
0.651367 0.760529 0.405304
0.677246 0.763397 0.407440
0.703705 0.764679 0.416321
0.729767 0.766174 0.425507
0.754028 0.770203 0.425507
0.776184 0.772888 0.438568
0.796356 0.777252 0.448364
0.817749 0.780823 0.458740
0.837830 0.783966 0.474915
0.860748 0.785614 0.491730
0.236298 0.664001 0.292969
0.247070 0.673737 0.299194
0.258484 0.684021 0.300873
0.271423 0.692657 0.307220
0.290192 0.698914 0.310425
0.304077 0.706360 0.320648
0.314392 0.715637 0.330444
0.327667 0.723358 0.340820
0.344391 0.729736 0.348969
0.364044 0.734192 0.359497
0.386871 0.737396 0.368286
0.405731 0.743622 0.371460
0.423645 0.750549 0.373199
0.445709 0.754883 0.377777
0.465210 0.759460 0.388184
0.489227 0.762604 0.393585
0.514771 0.764862 0.399902
0.540649 0.766327 0.409332
0.561676 0.772156 0.409088
0.585236 0.776001 0.411926
0.612183 0.776611 0.423309
0.640045 0.776154 0.437531
0.661987 0.780151 0.444275
0.686371 0.784424 0.442871
0.711273 0.786804 0.450043
0.736328 0.788452 0.460938
0.759949 0.791321 0.468872
0.779602 0.795807 0.479431
0.798950 0.800598 0.488647
0.817810 0.805786 0.497650
0.839233 0.809143 0.509216
0.862122 0.810760 0.526001
0.286163 0.668335 0.306396
0.299103 0.675171 0.322357
0.309601 0.686798 0.319702
0.318237 0.697754 0.325195
0.327820 0.706177 0.341980
0.348450 0.711639 0.344391
0.359070 0.720856 0.353851
0.370514 0.729004 0.366974
0.383392 0.736572 0.379089
0.394501 0.746429 0.383881
0.422607 0.747711 0.388306
0.443604 0.752655 0.392609
0.460876 0.759277 0.397736
0.477631 0.765533 0.406647
0.495483 0.771271 0.415405
0.514954 0.775818 0.425781
