content/luts/vintage/vintage_11.cube
#Created by: Adobe Photoshop Export Color Lookup Plugin
#Copyright: (C) Copyright 2022 inPixio
TITLE "Retro Vintage 11"
#LUT size
LUT_3D_SIZE 5
#data domain
#LUT data points
DOMAIN_MIN 0.000000 0.000000 0.000000
DOMAIN_MAX 0.903226 0.903226 0.903226
0.000000 0.000000 0.000000
0.202240 0.000031 0.064331
0.406647 0.000031 0.122437
0.611450 0.000031 0.179962
0.762482 0.039001 0.174622
0.147980 0.124451 0.140137
0.259033 0.176697 0.172760
0.495178 0.170837 0.176025
0.735229 0.160126 0.194824
0.824646 0.215790 0.267914
0.240875 0.286774 0.227081
0.298065 0.364990 0.267700
0.488342 0.387115 0.245697
0.705231 0.391113 0.248688
0.815125 0.431152 0.349976
0.270996 0.483490 0.301208
0.336578 0.554413 0.357697
0.456421 0.601501 0.394165
0.645538 0.618073 0.405426
0.770782 0.650085 0.508026
0.506348 0.562378 0.447510
0.574127 0.631927 0.505432
0.649719 0.695404 0.574585
0.732086 0.757538 0.632416
0.821503 0.815033 0.696136
0.040344 0.006683 0.079926
0.159637 0.050079 0.137360
0.380005 0.048706 0.159912
0.663574 0.022430 0.143372
0.776917 0.071045 0.189453
0.177826 0.143555 0.181763
0.272339 0.198456 0.245514
0.460571 0.214661 0.261078
0.730164 0.200867 0.215790
0.850037 0.242065 0.283691
0.302490 0.285553 0.291382
0.378326 0.351257 0.348236
0.505554 0.403351 0.337433
0.718628 0.421722 0.273590
0.833099 0.458130 0.382233
0.329926 0.486298 0.351318
0.387482 0.561676 0.405945
0.485077 0.621063 0.436890
0.672180 0.641815 0.431061
0.793732 0.676361 0.530121
0.531647 0.588715 0.462952
0.605988 0.652435 0.534149
0.673889 0.721466 0.594696
0.755035 0.784027 0.653717
0.849091 0.839355 0.716278
0.024719 0.037872 0.181061
0.103729 0.101471 0.240112
0.320251 0.101135 0.267242
0.611877 0.063202 0.291412
0.801910 0.088440 0.253510
0.155334 0.181519 0.265503
0.262695 0.233612 0.309113
0.408142 0.264313 0.363373
0.662720 0.244751 0.389954
0.871460 0.260559 0.351898
0.295410 0.319702 0.353607
0.396637 0.373840 0.402557
0.501404 0.426239 0.451691
0.684753 0.448425 0.448669
0.853394 0.482971 0.419464
0.352814 0.504639 0.416199
0.446625 0.560730 0.475586
0.537720 0.622345 0.512146
0.669373 0.668091 0.523621
0.817322 0.700195 0.563934
0.541901 0.619568 0.495331
0.622406 0.680969 0.562042
0.701721 0.742218 0.633179
0.778076 0.808075 0.687744
0.870483 0.865906 0.741180
0.000031 0.084961 0.221466
0.023804 0.159302 0.373718
0.216614 0.163147 0.443329
0.507263 0.130524 0.441467
0.589203 0.230560 0.296967
0.083008 0.238098 0.385101
0.157745 0.303741 0.444916
0.341217 0.316589 0.491394
0.589325 0.300629 0.516327
0.682922 0.385803 0.420074
0.201355 0.392517 0.445404
0.268372 0.461426 0.508484
0.452911 0.479248 0.525665
0.617767 0.502777 0.565765
0.774078 0.545013 0.528442
0.308014 0.553162 0.503967
0.387970 0.616699 0.560669
0.548950 0.643341 0.594879
0.673431 0.690277 0.619537
0.830322 0.723816 0.627655
0.553986 0.648865 0.530853
0.626068 0.715271 0.594055
0.706177 0.777008 0.660370
0.809723 0.827911 0.720764
0.889374 0.891541 0.777954
0.000031 0.127167 0.220947
0.054474 0.198181 0.307465
0.116119 0.268921 0.375580
0.308289 0.270721 0.457672
0.544037 0.270050 0.434235
0.121155 0.265991 0.357086
0.186554 0.334686 0.426147
0.249451 0.405182 0.492340
0.424286 0.420990 0.546509
0.632416 0.431396 0.539062
0.258728 0.409241 0.424683
0.322693 0.479065 0.491455
0.384399 0.548737 0.565582
0.537659 0.580933 0.590820
0.710785 0.603119 0.615265
0.411469 0.545563 0.488495
0.478821 0.613678 0.555084
0.544708 0.681824 0.625793
0.663239 0.728516 0.668060
0.791290 0.770538 0.709076
0.586731 0.666168 0.574585
0.654388 0.735077 0.636414
0.718445 0.804443 0.705139
0.804993 0.864716 0.761719
0.906738 0.917114 0.819183
