content/luts/vintage/vintage_10.cube
#Created by: Adobe Photoshop Export Color Lookup Plugin
#Copyright: (C) Copyright 2022 inPixio
TITLE "Retro Vintage 10"
#LUT size
LUT_3D_SIZE 32
#data domain
DOMAIN_MIN 0.0 0.0 0.0
DOMAIN_MAX 1.0 1.0 1.0
#LUT data points
0.000000 0.000000 0.000000
0.031311 0.000031 0.002625
0.062225 0.000031 0.006348
0.093384 0.000031 0.009216
0.121796 0.001862 0.009705
0.144226 0.006073 0.013916
0.162842 0.011536 0.021912
0.176788 0.019928 0.026764
0.192444 0.028015 0.028748
0.223053 0.028259 0.032043
0.236938 0.037933 0.030212
0.257629 0.043488 0.031708
0.280884 0.047729 0.033691
0.302002 0.053436 0.033325
0.325104 0.058319 0.032135
0.343384 0.065613 0.030945
0.363190 0.071716 0.032501
0.385681 0.075989 0.036163
0.408417 0.080536 0.037659
0.435394 0.083710 0.035004
0.461639 0.087555 0.030884
0.487549 0.091217 0.028473
0.514252 0.093628 0.030609
0.541595 0.096680 0.027588
0.567108 0.100189 0.027313
0.593933 0.102966 0.027069
0.621735 0.105499 0.026031
0.642700 0.111267 0.025757
0.665558 0.116272 0.024689
0.690308 0.119293 0.028717
0.712891 0.122894 0.035736
0.727173 0.131104 0.040894
0.061615 0.000946 0.000031
0.090271 0.000031 0.014832
0.101654 0.011322 0.011078
0.113678 0.020569 0.016663
0.132843 0.025818 0.024170
0.151855 0.031921 0.027618
0.170715 0.037628 0.033325
0.188354 0.044800 0.034790
0.205048 0.052734 0.034546
0.229523 0.055969 0.038513
0.252319 0.060028 0.042694
0.271790 0.065735 0.046875
0.293518 0.070618 0.049377
0.313354 0.077179 0.048218
0.334167 0.082581 0.050323
0.357025 0.087189 0.051270
0.378448 0.093048 0.049286
0.401459 0.097839 0.048889
0.424225 0.102417 0.050415
0.448639 0.105804 0.053558
0.475739 0.108887 0.051056
0.502686 0.112427 0.046661
0.529968 0.115540 0.043549
0.554932 0.119141 0.043976
0.582275 0.122192 0.040955
0.606964 0.126251 0.039825
0.632019 0.129913 0.039856
0.655701 0.133362 0.044800
0.683228 0.135071 0.048431
0.709473 0.138428 0.046844
0.733063 0.142151 0.050690
0.748322 0.149231 0.059021
0.087280 0.019623 0.002777
0.100708 0.026825 0.015320
0.119934 0.031250 0.027222
0.127167 0.044037 0.027100
0.145416 0.049530 0.035858
0.160583 0.057861 0.037628
0.181824 0.062683 0.041931
0.199036 0.069366 0.046997
0.217072 0.076782 0.046021
0.238647 0.081543 0.049408
0.260864 0.085541 0.055573
0.281097 0.091614 0.055573
0.301758 0.096558 0.060760
0.320831 0.103271 0.060638
0.341705 0.108948 0.061401
0.363800 0.113464 0.065033
0.386383 0.117828 0.067841
0.410370 0.122314 0.066376
0.435242 0.125946 0.066986
0.461639 0.129181 0.065674
0.487488 0.131897 0.068390
0.514435 0.135559 0.063446
0.541779 0.139374 0.056641
0.571442 0.139679 0.062012
0.593872 0.145050 0.059906
0.621368 0.148254 0.055664
0.645874 0.152496 0.054077
0.670258 0.155640 0.058624
0.698181 0.157013 0.063019
0.719788 0.161926 0.065643
0.745850 0.164703 0.067688
0.766449 0.168610 0.078400
0.094025 0.046570 0.012817
0.106964 0.054474 0.023224
0.121338 0.062775 0.027344
0.139191 0.068481 0.036072
0.156860 0.074371 0.044250
0.170685 0.083405 0.045959
0.188690 0.089539 0.051819
0.210114 0.093872 0.058319
0.227142 0.101013 0.061676
0.247467 0.106659 0.063782
0.268005 0.111664 0.069031
0.291138 0.115540 0.072937
0.309509 0.122925 0.071167
0.328278 0.129181 0.074402
0.349762 0.134460 0.075653
0.371857 0.138977 0.078888
0.395172 0.144043 0.076355
0.418030 0.148071 0.080383
0.444550 0.150909 0.080841
0.469971 0.154572 0.079956
0.497131 0.157471 0.078033
0.525238 0.159271 0.079834
0.552002 0.163757 0.070770
0.583069 0.163727 0.074158
0.610321 0.166168 0.074554
0.631470 0.171753 0.074829
0.658875 0.175385 0.068878
0.683746 0.179016 0.069458
0.709412 0.180634 0.078796
0.736969 0.182617 0.081055
0.755768 0.188782 0.084656
0.782776 0.189240 0.096527
0.096191 0.075317 0.025970
0.113312 0.081055 0.036285
0.129028 0.088928 0.039215
0.145294 0.096588 0.041809
0.162537 0.102814 0.049164
0.178925 0.110107 0.053436
0.196381 0.116180 0.061157
0.214874 0.121399 0.070679
0.236359 0.125397 0.078461
0.255188 0.132111 0.079102
0.273163 0.138672 0.083282
0.296570 0.142242 0.088226
0.319977 0.146301 0.090393
0.337494 0.153931 0.089661
0.359924 0.158142 0.093872
0.382172 0.162567 0.097565
0.406097 0.167145 0.095642
0.430176 0.173096 0.086060
0.454712 0.176422 0.089386
0.478180 0.180634 0.090820
0.504364 0.184052 0.088928
0.532166 0.186676 0.087128
0.562927 0.187317 0.087524
0.592224 0.189575 0.083679
0.620880 0.191650 0.082367
0.647034 0.194519 0.083588
0.668335 0.199280 0.087830
0.694244 0.203918 0.080322
0.717468 0.206268 0.092163
0.744232 0.207611 0.099823
0.772888 0.208954 0.102936
0.796783 0.211578 0.111633
0.102325 0.102692 0.035156
0.116913 0.111206 0.037598
0.131256 0.118500 0.047272
0.146667 0.125305 0.057098
0.163452 0.131073 0.068329
0.176605 0.141174 0.066284
0.203308 0.143616 0.068207
0.223999 0.148224 0.074982
0.243652 0.153198 0.082733
0.265625 0.157715 0.086487
0.279419 0.165192 0.096619
0.300690 0.169250 0.104736
0.324158 0.173248 0.107452
0.345062 0.179749 0.103333
0.367523 0.183990 0.107574
0.388824 0.189453 0.108246
0.413788 0.192627 0.110931
0.440094 0.195679 0.110901
0.461670 0.201569 0.108490
0.488464 0.204315 0.108429
0.517853 0.206635 0.103912
0.546661 0.209137 0.099854
0.572693 0.212280 0.100311
0.600037 0.215332 0.097321
0.625641 0.218414 0.098877
0.652893 0.220642 0.100586
0.679932 0.222870 0.102814
0.706543 0.225342 0.104767
0.729706 0.229889 0.105164
0.753540 0.233246 0.110291
0.778351 0.236145 0.114960
0.800446 0.239532 0.124420
0.105499 0.132202 0.041382
0.115997 0.141663 0.049835
0.135651 0.146667 0.057343
0.150421 0.153809 0.066650
0.166931 0.159973 0.076599
0.186890 0.166138 0.077087
0.210999 0.169525 0.080963
0.229858 0.175842 0.083984
0.245331 0.183472 0.088959
0.264618 0.189850 0.090057
0.285919 0.194458 0.095032
0.308533 0.196838 0.108551
0.331360 0.199677 0.118988
0.351654 0.205292 0.121552
0.369537 0.211792 0.125763
0.392517 0.216553 0.125732
0.415741 0.221405 0.124512
0.442963 0.223969 0.124542
0.468231 0.228394 0.119843
0.493286 0.232422 0.117798
0.523163 0.234222 0.114655
0.553253 0.235992 0.110992
0.579315 0.238892 0.112396
0.609772 0.240234 0.110077
0.636841 0.243011 0.109070
0.662720 0.246033 0.110413
0.690460 0.248077 0.111816
0.716919 0.250244 0.116028
0.742249 0.254059 0.114655
0.764404 0.258026 0.120880
0.790344 0.259918 0.127838
0.817505 0.260620 0.137939
0.107178 0.161194 0.054321
0.115265 0.172577 0.059113
0.129089 0.180054 0.069244
0.150848 0.183594 0.078857
0.166992 0.190643 0.085144
0.190155 0.195587 0.083252
0.213867 0.197662 0.095581
0.235504 0.203247 0.094330
0.249664 0.212097 0.096344
0.269196 0.218994 0.094116
0.291382 0.223328 0.098083
0.311951 0.227844 0.106140
0.336029 0.229126 0.121490
0.355713 0.233398 0.132812
0.374573 0.238953 0.139526
0.395294 0.245026 0.138519
0.419464 0.249420 0.136841
0.444458 0.253174 0.136414
0.471008 0.256439 0.134613
0.499298 0.259949 0.126862
0.527191 0.262512 0.125031
0.558655 0.263641 0.121063
0.586212 0.265778 0.122437
0.614288 0.268036 0.121674
0.644684 0.269318 0.119934
0.671356 0.271729 0.122070
0.698914 0.273956 0.122803
0.726868 0.275360 0.127228
0.753967 0.277557 0.129425
0.773468 0.284149 0.128784
0.794617 0.287994 0.138702
0.823334 0.287842 0.149200
0.105316 0.191193 0.071411
0.114197 0.203125 0.071198
0.126678 0.211548 0.079742
0.141846 0.218628 0.088837
0.162994 0.222687 0.097076
0.185913 0.228546 0.091156
0.208740 0.230621 0.105652
0.231110 0.234497 0.111938
0.250610 0.241882 0.107147
0.276154 0.246155 0.102325
0.300110 0.250244 0.103027
0.319641 0.255615 0.108887
0.339600 0.260010 0.118988
0.358765 0.263763 0.134369
0.380524 0.267334 0.143982
0.402618 0.272064 0.146606
0.426086 0.276550 0.146484
0.449677 0.281403 0.144012
0.473602 0.284576 0.149597
0.503113 0.287292 0.142456
0.533295 0.289398 0.136963
0.561279 0.292053 0.134308
0.592560 0.292999 0.131958
0.618927 0.296204 0.130890
0.648529 0.297729 0.130127
0.677612 0.299225 0.130615
0.703857 0.301178 0.136597
0.734039 0.301514 0.140472
0.761597 0.303650 0.141846
0.786346 0.306641 0.146118
0.801666 0.314758 0.148773
0.821289 0.319214 0.159302
0.095154 0.226562 0.082489
0.110382 0.235748 0.079498
0.126678 0.242157 0.088837
0.142487 0.248596 0.099091
0.157410 0.256561 0.103638
0.174438 0.264496 0.102448
0.196655 0.267090 0.116058
0.221954 0.269501 0.122253
0.248291 0.272949 0.120026
0.273163 0.276581 0.120605
0.301056 0.280304 0.112305
0.322510 0.285828 0.112274
0.343658 0.290283 0.118500
0.368744 0.291962 0.129150
0.390503 0.295502 0.138763
0.413940 0.298340 0.147675
0.438812 0.300659 0.155426
0.463013 0.303864 0.160400
0.480377 0.312134 0.156525
0.508514 0.313934 0.157959
0.538910 0.315125 0.156616
0.567596 0.317627 0.153046
0.592010 0.322815 0.146576
0.623932 0.324371 0.139038
0.654846 0.325287 0.137939
0.683838 0.326691 0.139221
0.710327 0.328918 0.143066
0.736023 0.330322 0.153595
0.760223 0.335297 0.148834
0.788818 0.336426 0.152618
0.815155 0.337616 0.162415
0.831055 0.344147 0.172089
0.097504 0.257019 0.085754
0.101654 0.269623 0.094940
0.119751 0.275208 0.103424
0.136108 0.281189 0.114716
0.150604 0.289215 0.120239
0.167908 0.297424 0.116791
0.195587 0.300812 0.111084
0.222015 0.301941 0.121063
0.249817 0.303436 0.125092
0.277222 0.305298 0.128204
0.298676 0.311310 0.125366
0.325073 0.315460 0.119385
0.347382 0.320679 0.118683
0.371582 0.324158 0.121887
0.397339 0.326385 0.127533
0.423340 0.326965 0.141388
0.445496 0.329865 0.153412
0.468079 0.332947 0.163330
0.490601 0.337250 0.166870
0.518768 0.339630 0.165436
0.545349 0.342682 0.164551
0.574097 0.345123 0.160950
0.601776 0.348633 0.154572
0.629211 0.351257 0.153656
0.658173 0.354431 0.145447
0.688202 0.355347 0.146637
0.717621 0.355957 0.151276
0.748596 0.355408 0.157440
0.770844 0.358704 0.167175
0.793671 0.363312 0.168243
0.818054 0.366180 0.174255
0.835663 0.372650 0.179749
0.078918 0.296112 0.099548
0.089874 0.306030 0.104401
0.104095 0.314178 0.110016
0.124695 0.318359 0.119507
0.142212 0.324493 0.126770
0.164093 0.329041 0.130707
0.184082 0.334869 0.132996
0.212555 0.337677 0.128296
0.239746 0.339417 0.132751
0.266968 0.341858 0.133148
0.294769 0.343842 0.134644
0.322723 0.346497 0.132233
0.350372 0.350616 0.122681
0.375854 0.355225 0.116302
0.400696 0.359344 0.114563
0.430298 0.358215 0.128113
0.454742 0.359863 0.140411
0.475677 0.363190 0.153595
0.500244 0.365112 0.164124
0.525452 0.367584 0.170105
0.552856 0.369537 0.172852
0.578827 0.373108 0.170715
0.607635 0.375885 0.165375
0.633759 0.379608 0.162262
0.663483 0.380981 0.161865
0.691498 0.384705 0.153473
0.720551 0.385681 0.156738
0.749756 0.386047 0.163147
0.775909 0.388031 0.169189
0.801178 0.389801 0.178802
0.823883 0.393494 0.185028
0.843597 0.398804 0.190704
0.044464 0.342468 0.118195
0.060150 0.349792 0.123993
0.080841 0.355560 0.124695
0.100403 0.361603 0.126678
0.123444 0.365692 0.130035
0.149536 0.367462 0.137115
0.175079 0.369751 0.143188
0.198364 0.374329 0.143341
0.226715 0.376862 0.140564
0.252960 0.380737 0.136078
0.284698 0.380188 0.140350
0.314514 0.381927 0.137665
0.346954 0.382874 0.132172
0.377930 0.386780 0.114563
0.403320 0.392181 0.104279
0.432800 0.392578 0.109741
0.461517 0.392029 0.122498
0.483948 0.394989 0.133423
0.508972 0.395721 0.149323
0.534393 0.397400 0.158966
0.557159 0.400421 0.168427
0.582794 0.402771 0.173828
0.610260 0.405670 0.171539
0.638092 0.408203 0.170013
0.666321 0.410645 0.167877
0.696869 0.411346 0.168701
0.724548 0.414734 0.162994
0.750580 0.416473 0.170837
0.775543 0.419434 0.174896
0.801941 0.420898 0.182953
0.829742 0.421387 0.192566
0.851990 0.424652 0.202148
0.005005 0.391815 0.134155
0.020844 0.398041 0.145447
0.044098 0.402313 0.147186
0.067841 0.406830 0.146118
0.089600 0.412262 0.145477
0.116943 0.415314 0.142456
0.151703 0.413666 0.144623
0.183807 0.413879 0.143707
0.211914 0.416931 0.138641
0.243164 0.417847 0.136536
0.277008 0.416016 0.142029
0.307739 0.417389 0.139099
0.338165 0.419891 0.130707
0.372681 0.420746 0.119690
0.402039 0.425812 0.100464
0.432983 0.427429 0.095490
0.462860 0.427917 0.099304
0.490631 0.428223 0.109741
0.515656 0.428955 0.125641
0.543182 0.429443 0.136230
0.566345 0.431885 0.147766
0.587036 0.435608 0.159332
0.611237 0.438538 0.165680
0.643219 0.437653 0.171112
0.671722 0.439575 0.171021
0.700165 0.441467 0.171265
0.729675 0.442139 0.174957
0.755707 0.443848 0.182770
0.779175 0.447876 0.185120
0.804138 0.450317 0.191864
0.829956 0.451721 0.202118
0.857788 0.452209 0.211761
0.006409 0.423615 0.132538
0.004028 0.439423 0.142303
0.016296 0.448547 0.147858
0.030701 0.456726 0.152527
0.044983 0.464813 0.158569
0.072327 0.467865 0.155548
0.120087 0.460968 0.150177
0.163696 0.455505 0.148376
0.199341 0.454468 0.144806
0.225830 0.458191 0.140442
0.257416 0.459442 0.135742
0.292175 0.458496 0.133911
0.325867 0.458282 0.131042
0.360718 0.457367 0.128967
0.396881 0.457092 0.119598
0.430786 0.459503 0.102509
0.464325 0.460236 0.094910
0.496399 0.460205 0.095764
0.527252 0.458801 0.106903
0.554230 0.458710 0.122009
0.581909 0.459045 0.132446
0.605682 0.461090 0.144592
0.627533 0.463959 0.157715
0.650787 0.465942 0.171844
0.677979 0.467102 0.179321
0.704285 0.469086 0.184845
0.730652 0.470917 0.191101
0.753357 0.474915 0.195618
0.779968 0.477234 0.198669
0.808746 0.477692 0.205597
0.836334 0.478180 0.215820
0.859344 0.481079 0.225433
0.000031 0.459045 0.133209
0.000031 0.473358 0.144257
0.004578 0.487396 0.144348
0.015350 0.496918 0.152100
0.024811 0.506378 0.163452
0.040588 0.514069 0.167084
0.065063 0.517517 0.169647
0.124359 0.506226 0.156464
0.171875 0.499847 0.149353
0.203979 0.500854 0.144501
0.242035 0.499329 0.136780
0.279053 0.497894 0.131317
0.317780 0.494873 0.129822
0.355621 0.491730 0.131470
0.388580 0.492554 0.125336
0.420227 0.494995 0.113861
0.457672 0.494446 0.102661
0.494629 0.493469 0.095245
0.531616 0.491730 0.091522
0.557465 0.492157 0.106842
0.584564 0.491943 0.121826
0.612030 0.492096 0.134125
0.636078 0.493469 0.149170
0.660645 0.494507 0.164612
0.684082 0.496704 0.176697
0.708862 0.498718 0.186279
0.733887 0.500458 0.196625
0.757965 0.502533 0.208160
0.785522 0.504150 0.212189
0.811615 0.505981 0.219330
0.839783 0.506195 0.229279
0.862610 0.509277 0.238434
0.000031 0.490814 0.135895
0.000031 0.504425 0.150940
0.000031 0.520844 0.150452
0.008087 0.533203 0.150146
0.016388 0.542786 0.164154
0.024597 0.553253 0.173859
0.035858 0.563049 0.178589
0.074799 0.559998 0.176788
0.139160 0.546936 0.159210
0.182556 0.542511 0.152496
0.225739 0.538757 0.142792
0.266357 0.535339 0.138367
0.304626 0.533386 0.132233
0.346039 0.528473 0.133789
0.380005 0.528290 0.130066
0.415894 0.527130 0.126251
0.448547 0.529388 0.113312
0.487335 0.527557 0.105286
0.526428 0.526825 0.090607
0.559967 0.525452 0.094574
0.585480 0.524750 0.116669
0.613068 0.524017 0.133118
0.640411 0.523651 0.148590
0.665863 0.524841 0.160736
0.689819 0.526764 0.173309
0.716492 0.526611 0.189240
0.739960 0.529327 0.198639
0.763733 0.531860 0.208252
0.788971 0.533173 0.220215
0.816193 0.533356 0.233032
0.841156 0.534912 0.244568
0.864899 0.537384 0.254395
0.000031 0.522400 0.139404
0.000031 0.535980 0.154510
0.000031 0.551575 0.158875
0.003998 0.565704 0.160126
0.010712 0.578094 0.163422
0.016083 0.589294 0.176636
0.021881 0.601135 0.185181
0.042755 0.606628 0.186890
0.103607 0.593597 0.178650
0.164337 0.581451 0.166534
0.210724 0.576599 0.153961
0.253235 0.572174 0.149536
0.294159 0.568451 0.146027
0.330566 0.567413 0.140198
0.368530 0.564789 0.138702
0.407410 0.561279 0.139404
0.445404 0.559143 0.135223
0.481201 0.559631 0.123077
0.516266 0.561310 0.106537
0.554291 0.559479 0.100647
0.586853 0.557129 0.112244
0.613220 0.555786 0.135651
0.641724 0.554077 0.154938
0.667938 0.555481 0.163971
0.692383 0.557281 0.175354
0.719299 0.557373 0.189636
0.748108 0.555328 0.209839
0.769379 0.561310 0.207611
0.793121 0.563293 0.220459
0.817383 0.563995 0.238617
0.842438 0.564148 0.257385
0.865662 0.566101 0.271484
0.000031 0.551208 0.157715
0.000031 0.567657 0.157928
0.000031 0.583252 0.162048
0.000031 0.598755 0.166962
0.000031 0.613983 0.173401
0.007294 0.626282 0.175171
0.017456 0.634674 0.190643
0.026123 0.644592 0.201599
0.058990 0.644135 0.202362
0.151031 0.616699 0.186584
0.194946 0.613983 0.169312
0.235718 0.610687 0.163757
0.276825 0.606781 0.160583
0.320068 0.602448 0.153992
0.362732 0.596558 0.157196
0.398773 0.594391 0.158569
0.434479 0.592865 0.157318
0.470795 0.591736 0.152130
0.510559 0.588989 0.146362
0.545013 0.590027 0.134766
0.579895 0.588867 0.133850
0.611450 0.587799 0.141876
0.639282 0.588043 0.152496
0.666412 0.587860 0.167480
0.691864 0.588501 0.182556
0.719666 0.588104 0.196838
0.749237 0.586823 0.210968
0.770325 0.589691 0.225983
0.797302 0.590729 0.234741
0.821838 0.591980 0.249146
0.844513 0.593781 0.265747
0.865753 0.596588 0.280701
0.000031 0.580505 0.173737
0.000031 0.595795 0.179718
0.000031 0.611542 0.183167
0.000031 0.627136 0.187500
0.000031 0.642395 0.193634
0.004578 0.655457 0.199280
0.011078 0.667511 0.204773
0.026459 0.674042 0.215851
0.054749 0.675018 0.221375
0.133453 0.652557 0.215088
0.194702 0.642792 0.188538
0.233521 0.640106 0.184845
0.271210 0.637207 0.185730
0.311066 0.633942 0.182465
0.351593 0.630951 0.175903
0.394531 0.625305 0.176971
0.431671 0.622955 0.176514
0.467285 0.621490 0.175201
0.501831 0.619995 0.177094
0.533813 0.620575 0.174652
0.577759 0.615967 0.167389
0.613770 0.613403 0.171021
0.640411 0.614349 0.181091
0.669983 0.613953 0.190552
0.697632 0.614258 0.201508
0.724426 0.614868 0.213470
0.752502 0.614868 0.224854
0.773834 0.617981 0.237823
0.796478 0.619751 0.254425
0.820557 0.622070 0.264343
0.842529 0.624725 0.278229
0.863647 0.627594 0.293243
0.000031 0.609253 0.192902
0.000031 0.624908 0.196716
0.000031 0.639648 0.205566
0.000031 0.654907 0.211670
0.000031 0.670288 0.217285
0.002502 0.684235 0.223511
0.011841 0.694824 0.229065
0.017761 0.706818 0.236603
0.051910 0.705597 0.237915
0.127228 0.685242 0.230072
0.180115 0.676910 0.218353
0.236481 0.666626 0.207916
0.276306 0.662415 0.209808
0.315186 0.659027 0.209930
0.352600 0.657227 0.205383
0.386719 0.657349 0.199554
0.425537 0.653595 0.201874
0.462219 0.651215 0.202789
0.496094 0.649170 0.209320
0.533661 0.646637 0.208313
0.563599 0.648102 0.206726
0.608459 0.642395 0.203033
0.637115 0.642944 0.209778
0.667450 0.642914 0.215363
0.698212 0.641815 0.225250
0.726013 0.642273 0.234802
0.752716 0.643158 0.245331
0.773956 0.646210 0.258850
0.795959 0.649231 0.270599
0.821350 0.649841 0.286377
0.840973 0.654388 0.296509
0.859558 0.658813 0.310059
0.000031 0.636963 0.217010
0.000031 0.653168 0.218170
0.000031 0.668121 0.226074
0.000031 0.682678 0.235992
0.000031 0.697784 0.242767
0.004425 0.710938 0.248199
0.012512 0.721588 0.256805
0.033752 0.726868 0.258667
0.051086 0.733582 0.263123
0.130249 0.713074 0.245392
0.181274 0.704376 0.240753
0.228271 0.697723 0.236115
0.278320 0.688721 0.236084
0.322296 0.682861 0.235809
0.356384 0.682037 0.234985
0.389099 0.682495 0.231262
0.422913 0.682373 0.227600
0.457367 0.680389 0.232330
0.493103 0.677032 0.240723
0.530121 0.674072 0.243591
0.564514 0.673309 0.242065
0.596161 0.673584 0.242340
0.631348 0.672333 0.241241
0.663177 0.672028 0.243927
0.692932 0.672180 0.249908
0.723785 0.671417 0.257874
0.751221 0.672028 0.267609
0.773071 0.674652 0.281860
0.794891 0.677277 0.296356
0.815735 0.680664 0.309113
0.842377 0.680847 0.323608
0.856445 0.688080 0.334229
0.000031 0.663666 0.246765
0.000031 0.680237 0.245880
0.000031 0.695435 0.252289
0.000031 0.710114 0.261566
0.000031 0.725159 0.268829
0.009888 0.736267 0.270355
0.019714 0.745178 0.283966
0.047363 0.746674 0.288361
0.094238 0.740417 0.281982
0.146423 0.731873 0.273438
0.199158 0.722260 0.269257
0.242310 0.717834 0.263184
0.280792 0.715240 0.259949
0.320740 0.710632 0.263702
0.351685 0.711212 0.264282
0.385773 0.710388 0.263702
0.422974 0.708221 0.262054
0.461182 0.705444 0.260651
0.495331 0.703186 0.267517
0.525848 0.702576 0.275635
0.556580 0.702942 0.277893
0.589355 0.702698 0.277771
0.625641 0.700012 0.281067
0.660461 0.698425 0.282501
0.689362 0.699738 0.284698
0.717865 0.701172 0.287537
0.747589 0.701569 0.292206
0.773254 0.702942 0.302704
0.795929 0.704102 0.322693
0.813995 0.707886 0.341034
0.831848 0.712585 0.355072
0.857208 0.713623 0.368286
0.000031 0.691620 0.270050
0.000031 0.706604 0.277649
0.000031 0.721619 0.285004
0.000031 0.736816 0.291626
0.000031 0.752991 0.292786
0.038879 0.750061 0.290222
0.073639 0.747894 0.295135
0.104523 0.747650 0.299957
0.145477 0.743835 0.296906
0.187836 0.739899 0.290558
0.221985 0.739532 0.287292
0.262848 0.735352 0.286407
0.297668 0.734131 0.285919
0.331116 0.732910 0.289001
0.366150 0.731750 0.287872
0.396515 0.731781 0.292694
0.430878 0.729675 0.298187
0.466766 0.727234 0.301666
0.498505 0.727600 0.301025
0.533600 0.726257 0.300446
0.564392 0.725952 0.306213
0.594818 0.725983 0.311066
0.626343 0.725006 0.318176
0.654816 0.726166 0.322388
0.686462 0.725922 0.325165
0.716064 0.726715 0.328217
0.745758 0.727020 0.333618
0.770813 0.727814 0.348816
0.793671 0.731689 0.353821
0.812408 0.734985 0.373077
0.829620 0.739929 0.387756
0.851410 0.744293 0.392853
0.018188 0.714569 0.270050
0.032623 0.722931 0.273834
0.041718 0.732910 0.283844
0.056274 0.740234 0.292816
0.073608 0.746948 0.297516
0.102722 0.748383 0.298157
0.132416 0.748230 0.306091
0.160034 0.749786 0.310211
0.193970 0.749054 0.309723
0.231598 0.747223 0.304840
0.257294 0.750519 0.305115
0.285522 0.751434 0.311066
0.321411 0.749115 0.313446
0.354279 0.748230 0.316986
0.386200 0.747742 0.320557
0.413666 0.750427 0.318939
0.445038 0.749878 0.324463
0.480164 0.747070 0.331635
0.514130 0.745758 0.333862
0.545563 0.745819 0.335968
0.577881 0.745483 0.337524
0.605377 0.746674 0.344391
0.631714 0.747986 0.353302
0.658691 0.749786 0.358124
0.686646 0.750427 0.366364
0.716583 0.751373 0.367554
0.745575 0.752411 0.370911
0.769745 0.754059 0.384155
0.788788 0.758698 0.395264
0.811493 0.761383 0.406799
0.830200 0.764679 0.426056
0.851044 0.768951 0.434235
0.105621 0.701172 0.276764
0.114563 0.712128 0.281647
0.131805 0.718384 0.288910
0.145630 0.725861 0.298920
0.168121 0.730011 0.303314
0.185089 0.736877 0.308167
0.206360 0.740936 0.316528
0.225372 0.746429 0.323151
0.244354 0.752502 0.326965
0.276703 0.752838 0.324890
0.298859 0.757416 0.327820
0.324524 0.759460 0.334900
0.350433 0.761078 0.343353
0.384979 0.759399 0.346252
0.411835 0.761627 0.348846
0.439301 0.763153 0.353790
0.463257 0.766724 0.357391
0.494751 0.766113 0.362823
0.529022 0.763916 0.368988
0.557617 0.765594 0.370026
0.585144 0.766937 0.375793
0.615723 0.767151 0.379028
0.638763 0.770203 0.387909
0.664825 0.771973 0.395233
0.691589 0.773560 0.401642
0.718445 0.774475 0.411682
0.746704 0.776428 0.412109
0.770355 0.778809 0.422729
0.791382 0.782410 0.434174
0.811493 0.786469 0.445404
0.831207 0.789337 0.464355
0.850739 0.792694 0.480865
0.194824 0.687683 0.278961
0.195557 0.702057 0.287781
0.209076 0.709625 0.298370
0.228851 0.714478 0.306244
0.248291 0.718750 0.318115
0.258331 0.728149 0.328278
0.272736 0.735992 0.335114
0.288391 0.742920 0.343170
0.303589 0.750519 0.348755
0.323914 0.755646 0.353882
0.342926 0.761536 0.358765
0.365784 0.765167 0.364899
0.392670 0.766388 0.372955
0.419312 0.768219 0.378326
0.441345 0.773773 0.376312
0.467529 0.775696 0.382507
0.491669 0.778076 0.391998
0.513824 0.781616 0.400604
0.541962 0.782440 0.407471
0.567871 0.785553 0.408081
0.591888 0.788849 0.412903
0.616638 0.791351 0.419922
0.646698 0.791809 0.423431
0.671387 0.793732 0.433716
0.697815 0.795349 0.440887
0.723267 0.797516 0.447876
0.748932 0.798920 0.458374
0.772827 0.801544 0.467072
0.796936 0.803894 0.476624
0.817993 0.807495 0.488068
0.838196 0.811005 0.502228
0.850098 0.816833 0.526276
0.250092 0.688293 0.297760
0.255859 0.700134 0.306580
0.264435 0.709473 0.321106
0.277588 0.717682 0.329193
0.292175 0.726196 0.331635
0.310486 0.729340 0.352997
0.316864 0.742676 0.351898
0.329987 0.750732 0.360840
0.348328 0.755035 0.375763
0.372955 0.756104 0.390778
0.385712 0.765350 0.394196
0.399628 0.774719 0.394196
0.418732 0.780914 0.396606
0.443695 0.783508 0.402740
0.473633 0.783081 0.411407
0.499664 0.785461 0.415802
